(G-CODE GENERATED BY FLATCAM v8.994 - www.flatcam.org - Version Date: 2020/11/7)

(Name: led_tester-F_Cu.gbr_cutout_cnc)
(Type: G-code from Geometry)
(Units: MM)

(Created on Saturday, 06 July 2024 at 10:39)

(This preprocessor is the default preprocessor used by FlatCAM.)
(It is made to work with MACH3 compatible motion controllers.)

(TOOL DIAMETER: 2.0 mm)
(Feedrate_XY: 200.0 mm/min)
(Feedrate_Z: 200.0 mm/min)
(Feedrate rapids 1500.0 mm/min)

(Z_Cut: -2.0 mm)
(DepthPerCut: 1.0 mm <=>2 passes)
(Z_Move: 2.0 mm)
(Z Start: None mm)
(Z End: 15.0 mm)
(X,Y End: None mm)
(Steps per circle: 64)
(Preprocessor Geometry: default)

(X range:   -0.5995 ...   40.5995  mm)
(Y range:   -0.0995 ...   42.0995  mm)

(Spindle Speed: 24000.0 RPM)
G21
G90
G94

G01 F200.00

M5
G00 Z15.0000
G00 X0.0000 Y0.0000
T1
M6    
(MSG, Change to Tool Dia = 2.0000)
M0
G00 Z15.0000

M03 S24000.0
G01 F200.00
G00 X18.1000 Y-0.0995
G01 F200.00
G01 Z-1.0000
G01 F200.00
G01 X0.5005 Y-0.0995
G01 X0.3927 Y-0.0942
G01 X0.2859 Y-0.0784
G01 X0.1812 Y-0.0521
G01 X0.0795 Y-0.0158
G01 X-0.0180 Y0.0304
G01 X-0.1106 Y0.0859
G01 X-0.1973 Y0.1502
G01 X-0.2773 Y0.2227
G01 X-0.3498 Y0.3027
G01 X-0.4141 Y0.3894
G01 X-0.4696 Y0.4820
G01 X-0.5158 Y0.5795
G01 X-0.5521 Y0.6812
G01 X-0.5784 Y0.7859
G01 X-0.5942 Y0.8927
G01 X-0.5995 Y1.0005
G01 X-0.5995 Y19.1000
G00 X-0.5995 Y19.1000
G01 F200.00
G01 Z-2.0000
G01 F200.00
G01 X-0.5995 Y1.0005
G01 X-0.5942 Y0.8927
G01 X-0.5784 Y0.7859
G01 X-0.5521 Y0.6812
G01 X-0.5158 Y0.5795
G01 X-0.4696 Y0.4820
G01 X-0.4141 Y0.3894
G01 X-0.3498 Y0.3027
G01 X-0.2773 Y0.2227
G01 X-0.1973 Y0.1502
G01 X-0.1106 Y0.0859
G01 X-0.0180 Y0.0304
G01 X0.0795 Y-0.0158
G01 X0.1812 Y-0.0521
G01 X0.2859 Y-0.0784
G01 X0.3927 Y-0.0942
G01 X0.5005 Y-0.0995
G01 X18.1000 Y-0.0995
G00 Z2.0000
G00 X-0.5995 Y23.1000
G01 F200.00
G01 Z-1.0000
G01 F200.00
G01 X-0.5995 Y40.9995
G01 X-0.5942 Y41.1073
G01 X-0.5784 Y41.2141
G01 X-0.5521 Y41.3188
G01 X-0.5158 Y41.4205
G01 X-0.4696 Y41.5180
G01 X-0.4141 Y41.6106
G01 X-0.3498 Y41.6973
G01 X-0.2773 Y41.7773
G01 X-0.1973 Y41.8498
G01 X-0.1106 Y41.9141
G01 X-0.0180 Y41.9696
G01 X0.0795 Y42.0158
G01 X0.1812 Y42.0521
G01 X0.2859 Y42.0784
G01 X0.3927 Y42.0942
G01 X0.5005 Y42.0995
G01 X18.1000 Y42.0995
G00 X18.1000 Y42.0995
G01 F200.00
G01 Z-2.0000
G01 F200.00
G01 X0.5005 Y42.0995
G01 X0.3927 Y42.0942
G01 X0.2859 Y42.0784
G01 X0.1812 Y42.0521
G01 X0.0795 Y42.0158
G01 X-0.0180 Y41.9696
G01 X-0.1106 Y41.9141
G01 X-0.1973 Y41.8498
G01 X-0.2773 Y41.7773
G01 X-0.3498 Y41.6973
G01 X-0.4141 Y41.6106
G01 X-0.4696 Y41.5180
G01 X-0.5158 Y41.4205
G01 X-0.5521 Y41.3188
G01 X-0.5784 Y41.2141
G01 X-0.5942 Y41.1073
G01 X-0.5995 Y40.9995
G01 X-0.5995 Y23.1000
G00 Z2.0000
G00 X22.1000 Y42.0995
G01 F200.00
G01 Z-1.0000
G01 F200.00
G01 X39.4995 Y42.0995
G01 X39.6073 Y42.0942
G01 X39.7141 Y42.0784
G01 X39.8188 Y42.0521
G01 X39.9205 Y42.0158
G01 X40.0180 Y41.9696
G01 X40.1106 Y41.9141
G01 X40.1973 Y41.8498
G01 X40.2773 Y41.7773
G01 X40.3498 Y41.6973
G01 X40.4141 Y41.6106
G01 X40.4696 Y41.5180
G01 X40.5158 Y41.4205
G01 X40.5521 Y41.3188
G01 X40.5784 Y41.2141
G01 X40.5942 Y41.1073
G01 X40.5995 Y40.9995
G01 X40.5995 Y23.1000
G00 X40.5995 Y23.1000
G01 F200.00
G01 Z-2.0000
G01 F200.00
G01 X40.5995 Y40.9995
G01 X40.5942 Y41.1073
G01 X40.5784 Y41.2141
G01 X40.5521 Y41.3188
G01 X40.5158 Y41.4205
G01 X40.4696 Y41.5180
G01 X40.4141 Y41.6106
G01 X40.3498 Y41.6973
G01 X40.2773 Y41.7773
G01 X40.1973 Y41.8498
G01 X40.1106 Y41.9141
G01 X40.0180 Y41.9696
G01 X39.9205 Y42.0158
G01 X39.8188 Y42.0521
G01 X39.7141 Y42.0784
G01 X39.6073 Y42.0942
G01 X39.4995 Y42.0995
G01 X22.1000 Y42.0995
G00 Z2.0000
G00 X40.5995 Y19.1000
G01 F200.00
G01 Z-1.0000
G01 F200.00
G01 X40.5995 Y1.0005
G01 X40.5942 Y0.8927
G01 X40.5784 Y0.7859
G01 X40.5521 Y0.6812
G01 X40.5158 Y0.5795
G01 X40.4696 Y0.4820
G01 X40.4141 Y0.3894
G01 X40.3498 Y0.3027
G01 X40.2773 Y0.2227
G01 X40.1973 Y0.1502
G01 X40.1106 Y0.0859
G01 X40.0180 Y0.0304
G01 X39.9205 Y-0.0158
G01 X39.8188 Y-0.0521
G01 X39.7141 Y-0.0784
G01 X39.6073 Y-0.0942
G01 X39.4995 Y-0.0995
G01 X22.1000 Y-0.0995
G00 X22.1000 Y-0.0995
G01 F200.00
G01 Z-2.0000
G01 F200.00
G01 X39.4995 Y-0.0995
G01 X39.6073 Y-0.0942
G01 X39.7141 Y-0.0784
G01 X39.8188 Y-0.0521
G01 X39.9205 Y-0.0158
G01 X40.0180 Y0.0304
G01 X40.1106 Y0.0859
G01 X40.1973 Y0.1502
G01 X40.2773 Y0.2227
G01 X40.3498 Y0.3027
G01 X40.4141 Y0.3894
G01 X40.4696 Y0.4820
G01 X40.5158 Y0.5795
G01 X40.5521 Y0.6812
G01 X40.5784 Y0.7859
G01 X40.5942 Y0.8927
G01 X40.5995 Y1.0005
G01 X40.5995 Y19.1000
G00 Z2.0000
M05
G00 Z2.0000
G00 Z15.00


