(G-CODE GENERATED BY FLATCAM v8.994 - www.flatcam.org - Version Date: 2020/11/7)

(Name: led_tester-PTH.drl_cnc)
(Type: G-code from Geometry)
(Units: MM)

(Created on Saturday, 06 July 2024 at 10:38)

(This preprocessor is the default preprocessor used by FlatCAM.)
(It is made to work with MACH3 compatible motion controllers.)


(TOOLS DIAMETER: )
(Tool: 1 -> Dia: 0.8000999999999999)
(Tool: 2 -> Dia: 1.0007599999999999)
(Tool: 3 -> Dia: 2.9997399999999996)

(FEEDRATE Z: )
(Tool: 1 -> Feedrate: 300)
(Tool: 2 -> Feedrate: 300)
(Tool: 3 -> Feedrate: 300)

(FEEDRATE RAPIDS: )
(Tool: 1 -> Feedrate Rapids: 1500)
(Tool: 2 -> Feedrate Rapids: 1500)
(Tool: 3 -> Feedrate Rapids: 1500)

(Z_CUT: )
(Tool: 1 -> Z_Cut: -2.2)
(Tool: 2 -> Z_Cut: -2.2)
(Tool: 3 -> Z_Cut: -2.2)

(Tools Offset: )
(Tool: 2 -> Offset Z: 0.0)
(Tool: 3 -> Offset Z: 0.0)
(Tool: 1 -> Offset Z: 0.0)

(Z_MOVE: )
(Tool: 1 -> Z_Move: 2.0)
(Tool: 2 -> Z_Move: 2.0)
(Tool: 3 -> Z_Move: 2.0)

(Z Toolchange: 15.0 mm)
(X,Y Toolchange: 0.0000, 0.0000 mm)
(Z Start: None mm)
(Z End: 5.0 mm)
(X,Y End: None mm)
(Steps per circle: 64)
(Preprocessor Excellon: default)

(X range:   10.5992 ...   33.0008  mm)
(Y range:    4.2513 ...   37.4999  mm)

(Spindle Speed: 24000 RPM)
G21
G90
G94

G01 F300.00

M5
G00 Z15.0000
T1
G00 X0.0000 Y0.0000                
M6
(MSG, Change to Tool Dia = 0.8001 ||| Total drills for tool T1 = 15)
M0
G00 Z15.0000

G01 F300.00
M03 S24000
G00 X10.9993 Y19.5002
G01 Z-2.2000
G01 Z0
G00 Z2.0000
G00 X10.9993 Y19.5002
G01 Z-2.2000
G01 Z0
G00 Z2.0000
G00 X16.5009 Y19.5002
G01 Z-2.2000
G01 Z0
G00 Z2.0000
G00 X20.4989 Y21.4992
G01 Z-2.2000
G01 Z0
G00 Z2.0000
G00 X20.4989 Y16.5005
G01 Z-2.2000
G01 Z0
G00 Z2.0000
G00 X25.7338 Y19.5002
G01 Z-2.2000
G01 Z0
G00 Z2.0000
G00 X28.2738 Y19.5002
G01 Z-2.2000
G01 Z0
G00 Z2.0000
G00 X28.2738 Y23.5007
G01 Z-2.2000
G01 Z0
G00 Z2.0000
G00 X25.7338 Y23.5007
G01 Z-2.2000
G01 Z0
G00 Z2.0000
G00 X29.0003 Y27.9991
G01 Z-2.2000
G01 Z0
G00 Z2.0000
G00 X32.5004 Y23.0410
G01 Z-2.2000
G01 Z0
G00 Z2.0000
G00 X32.5004 Y20.5010
G01 Z-2.2000
G01 Z0
G00 Z2.0000
G00 X20.4989 Y27.9991
G01 Z-2.2000
G01 Z0
G00 Z2.0000
G00 X20.4989 Y36.0001
G01 Z-2.2000
G01 Z0
G00 Z2.0000
G00 X20.4989 Y10.0006
G01 Z-2.2000
G01 Z0
G00 Z2.0000
G00 X20.4989 Y5.7512
G01 Z-2.2000
G01 Z0
G00 Z2.0000
M05
G00 Z5.00


