(G-CODE GENERATED BY FLATCAM v8.994 - www.flatcam.org - Version Date: 2020/11/7)

(Name: led_tester-F_Cu.gbr_ncc_cnc)
(Type: G-code from Geometry)
(Units: MM)

(Created on Saturday, 06 July 2024 at 10:37)

(This preprocessor is the default preprocessor used by FlatCAM.)
(It is made to work with MACH3 compatible motion controllers.)

(TOOL DIAMETER: 0.1402 mm)
(Feedrate_XY: 400.0 mm/min)
(Feedrate_Z: 400.0 mm/min)
(Feedrate rapids 1500.0 mm/min)

(Z_Cut: -0.075 mm)
(Z_Move: 2.0 mm)
(Z Start: None mm)
(Z End: 15.0 mm)
(X,Y End: None mm)
(Steps per circle: 64)
(Preprocessor Geometry: default)

(X range:    0.0701 ...   39.4299  mm)
(Y range:    1.0701 ...   40.9299  mm)

(Spindle Speed: 24000.0 RPM)
G21
G90
G94

G01 F400.00

M5
G00 Z15.0000
G00 X0.0000 Y0.0000
T1
M6    
(MSG, Change to Tool Dia = 0.1402)
M0
G00 Z15.0000

M03 S24000.0
G01 F400.00
G00 X0.9117 Y3.7500
G01 F400.00
G01 Z-0.0750
G01 F400.00
G01 X0.9119 Y3.7393
G01 X0.9127 Y3.7277
G01 X0.9141 Y3.7161
G01 X0.9160 Y3.7045
G01 X0.9183 Y3.6941
G01 X0.9213 Y3.6828
G01 X0.9249 Y3.6717
G01 X0.9290 Y3.6607
G01 X0.9337 Y3.6500
G01 X0.9388 Y3.6395
G01 X0.9445 Y3.6292
G01 X0.9507 Y3.6193
G01 X0.9634 Y3.6017
G01 X0.9709 Y3.5928
G01 X0.9788 Y3.5842
G01 X0.9872 Y3.5760
G01 X0.9959 Y3.5682
G01 X1.0050 Y3.5608
G01 X1.0145 Y3.5540
G01 X1.0242 Y3.5475
G01 X1.0343 Y3.5416
G01 X1.0447 Y3.5362
G01 X1.0544 Y3.5317
G01 X1.0652 Y3.5273
G01 X1.0762 Y3.5234
G01 X1.0874 Y3.5200
G01 X1.0988 Y3.5172
G01 X1.1103 Y3.5150
G01 X1.1219 Y3.5133
G01 X1.1431 Y3.5118
G01 X3.6607 Y3.5119
G01 X3.6771 Y3.5132
G01 X3.6945 Y3.5158
G01 X3.7116 Y3.5198
G01 X3.7267 Y3.5243
G01 X3.7431 Y3.5306
G01 X3.7590 Y3.5380
G01 X3.7743 Y3.5466
G01 X3.7881 Y3.5557
G01 X3.8020 Y3.5664
G01 X3.8136 Y3.5767
G01 X3.8259 Y3.5892
G01 X3.8373 Y3.6026
G01 X3.8470 Y3.6159
G01 X3.8563 Y3.6307
G01 X3.8646 Y3.6462
G01 X3.8711 Y3.6611
G01 X4.3015 Y3.6615
G01 X4.3615 Y3.6644
G01 X4.3615 Y2.9995
G01 X4.3637 Y2.9491
G01 X4.3647 Y2.9354
G01 X4.3720 Y2.8849
G01 X4.3759 Y2.8655
G01 X4.3887 Y2.8156
G01 X4.3921 Y2.8050
G01 X4.4060 Y2.7661
G01 X4.4132 Y2.7484
G01 X4.4359 Y2.7008
G01 X4.4418 Y2.6901
G01 X4.4628 Y2.6551
G01 X4.4712 Y2.6421
G01 X4.4995 Y2.6037
G01 X4.5071 Y2.5941
G01 X4.5404 Y2.5570
G01 X4.5481 Y2.5489
G01 X5.5485 Y1.5485
G01 X5.5897 Y1.5108
G01 X5.6011 Y1.5015
G01 X5.6361 Y1.4755
G01 X5.6538 Y1.4636
G01 X5.6901 Y1.4418
G01 X5.6999 Y1.4364
G01 X5.7547 Y1.4105
G01 X5.7666 Y1.4059
G01 X5.8127 Y1.3896
G01 X5.8244 Y1.3862
G01 X5.8645 Y1.3762
G01 X5.8744 Y1.3739
G01 X5.8864 Y1.3718
G01 X5.9296 Y1.3654
G01 X5.9443 Y1.3640
G01 X6.0000 Y1.3615
G01 X34.0101 Y1.3617
G01 X34.0525 Y1.3638
G01 X34.0646 Y1.3647
G01 X34.1130 Y1.3717
G01 X34.1256 Y1.3739
G01 X34.1844 Y1.3887
G01 X34.1960 Y1.3925
G01 X34.2370 Y1.4072
G01 X34.2516 Y1.4132
G01 X34.2910 Y1.4318
G01 X34.3019 Y1.4374
G01 X34.3112 Y1.4426
G01 X34.3466 Y1.4639
G01 X34.3579 Y1.4712
G01 X34.3975 Y1.5004
G01 X34.4111 Y1.5115
G01 X34.4515 Y1.5485
G01 X35.4563 Y2.5534
G01 X35.4863 Y2.5864
G01 X35.4942 Y2.5957
G01 X35.5242 Y2.6357
G01 X35.5315 Y2.6461
G01 X35.5626 Y2.6981
G01 X35.5682 Y2.7090
G01 X35.5880 Y2.7512
G01 X35.5940 Y2.7661
G01 X35.6107 Y2.8137
G01 X35.6142 Y2.8259
G01 X35.6259 Y2.8734
G01 X35.6283 Y2.8870
G01 X35.6354 Y2.9364
G01 X35.6363 Y2.9486
G01 X35.6385 Y2.9952
G01 X35.6385 Y5.2355
G01 X35.7645 Y5.3615
G01 X36.1287 Y5.3615
G01 X36.1354 Y5.3462
G01 X36.1437 Y5.3307
G01 X36.1530 Y5.3159
G01 X36.1634 Y5.3017
G01 X36.1748 Y5.2884
G01 X36.1872 Y5.2760
G01 X36.2004 Y5.2645
G01 X36.2136 Y5.2545
G01 X36.2284 Y5.2450
G01 X36.2438 Y5.2367
G01 X36.2597 Y5.2294
G01 X36.2762 Y5.2234
G01 X36.2911 Y5.2191
G01 X36.3082 Y5.2154
G01 X36.3256 Y5.2129
G01 X36.3431 Y5.2118
G01 X38.8548 Y5.2117
G01 X38.8655 Y5.2122
G01 X38.8771 Y5.2132
G01 X38.8975 Y5.2164
G01 X38.9182 Y5.2216
G01 X38.9377 Y5.2284
G01 X38.9485 Y5.2330
G01 X38.9581 Y5.2376
G01 X38.9766 Y5.2481
G01 X38.9855 Y5.2540
G01 X38.9950 Y5.2608
G01 X39.0108 Y5.2741
G01 X39.0200 Y5.2829
G01 X39.0280 Y5.2915
G01 X39.0355 Y5.3004
G01 X39.0427 Y5.3097
G01 X39.0493 Y5.3193
G01 X39.0555 Y5.3292
G01 X39.0612 Y5.3395
G01 X39.0663 Y5.3500
G01 X39.0710 Y5.3607
G01 X39.0751 Y5.3717
G01 X39.0791 Y5.3844
G01 X39.0821 Y5.3958
G01 X39.0845 Y5.4072
G01 X39.0863 Y5.4188
G01 X39.0875 Y5.4304
G01 X39.0882 Y5.4421
G01 X39.0882 Y6.5569
G01 X39.0873 Y6.5723
G01 X39.0854 Y6.5870
G01 X39.0828 Y6.6012
G01 X39.0791 Y6.6156
G01 X39.0747 Y6.6293
G01 X39.0687 Y6.6447
G01 X39.0624 Y6.6581
G01 X39.0550 Y6.6716
G01 X39.0476 Y6.6833
G01 X39.0392 Y6.6950
G01 X39.0311 Y6.7049
G01 X39.0219 Y6.7151
G01 X39.0116 Y6.7252
G01 X39.0020 Y6.7336
G01 X38.9911 Y6.7420
G01 X38.9792 Y6.7502
G01 X38.9684 Y6.7569
G01 X38.9553 Y6.7638
G01 X38.9422 Y6.7698
G01 X38.9293 Y6.7747
G01 X38.9172 Y6.7787
G01 X38.9032 Y6.7823
G01 X38.8897 Y6.7850
G01 X38.8771 Y6.7868
G01 X38.8638 Y6.7879
G01 X38.8500 Y6.7883
G01 X38.0385 Y6.7883
G01 X38.0385 Y6.9117
G01 X38.8500 Y6.9117
G01 X38.8627 Y6.9120
G01 X38.8744 Y6.9129
G01 X38.8870 Y6.9146
G01 X38.9002 Y6.9170
G01 X38.9116 Y6.9198
G01 X38.9238 Y6.9234
G01 X38.9348 Y6.9273
G01 X38.9475 Y6.9325
G01 X38.9590 Y6.9380
G01 X38.9693 Y6.9437
G01 X38.9807 Y6.9507
G01 X38.9911 Y6.9580
G01 X39.0004 Y6.9651
G01 X39.0108 Y6.9741
G01 X39.0200 Y6.9829
G01 X39.0280 Y6.9915
G01 X39.0366 Y7.0017
G01 X39.0437 Y7.0111
G01 X39.0534 Y7.0257
G01 X39.0620 Y7.0410
G01 X39.0694 Y7.0569
G01 X39.0760 Y7.0743
G01 X39.0809 Y7.0911
G01 X39.0846 Y7.1082
G01 X39.0873 Y7.1277
G01 X39.0883 Y7.1452
G01 X39.0883 Y8.2538
G01 X39.0878 Y8.2655
G01 X39.0868 Y8.2771
G01 X39.0833 Y8.2985
G01 X39.0807 Y8.3099
G01 X39.0775 Y8.3212
G01 X39.0737 Y8.3322
G01 X39.0694 Y8.3431
G01 X39.0633 Y8.3562
G01 X39.0555 Y8.3708
G01 X39.0476 Y8.3833
G01 X39.0385 Y8.3958
G01 X39.0280 Y8.4085
G01 X39.0178 Y8.4193
G01 X39.0065 Y8.4298
G01 X38.9950 Y8.4392
G01 X38.9833 Y8.4476
G01 X38.9693 Y8.4563
G01 X38.9562 Y8.4633
G01 X38.9422 Y8.4698
G01 X38.9283 Y8.4751
G01 X38.9126 Y8.4800
G01 X38.8975 Y8.4836
G01 X38.8829 Y8.4861
G01 X38.8665 Y8.4878
G01 X38.8500 Y8.4883
G01 X38.0385 Y8.4883
G01 X38.0384 Y10.6069
G01 X38.0361 Y10.6547
G01 X38.0341 Y10.6737
G01 X38.0265 Y10.7236
G01 X38.0241 Y10.7345
G01 X38.0142 Y10.7741
G01 X38.0086 Y10.7929
G01 X37.9914 Y10.8408
G01 X37.9858 Y10.8537
G01 X37.9663 Y10.8949
G01 X37.9593 Y10.9079
G01 X37.9369 Y10.9453
G01 X37.9251 Y10.9631
G01 X37.8999 Y10.9971
G01 X37.8929 Y11.0059
G01 X37.8526 Y11.0504
G01 X35.6385 Y13.2645
G01 X35.6385 Y35.3615
G01 X36.1287 Y35.3615
G01 X36.1354 Y35.3462
G01 X36.1437 Y35.3307
G01 X36.1530 Y35.3159
G01 X36.1627 Y35.3026
G01 X36.1727 Y35.2907
G01 X36.1849 Y35.2781
G01 X36.1980 Y35.2664
G01 X36.2119 Y35.2557
G01 X36.2257 Y35.2466
G01 X36.2410 Y35.2380
G01 X36.2569 Y35.2306
G01 X36.2733 Y35.2243
G01 X36.2901 Y35.2193
G01 X36.3072 Y35.2155
G01 X36.3246 Y35.2130
G01 X36.3404 Y35.2119
G01 X38.8505 Y35.2117
G01 X38.8696 Y35.2125
G01 X38.8897 Y35.2150
G01 X38.9099 Y35.2193
G01 X38.9293 Y35.2253
G01 X38.9447 Y35.2313
G01 X38.9605 Y35.2388
G01 X38.9743 Y35.2466
G01 X38.9881 Y35.2557
G01 X39.0004 Y35.2651
G01 X39.0136 Y35.2767
G01 X39.0252 Y35.2884
G01 X39.0366 Y35.3017
G01 X39.0460 Y35.3145
G01 X39.0550 Y35.3284
G01 X39.0633 Y35.3438
G01 X39.0698 Y35.3578
G01 X39.0757 Y35.3733
G01 X39.0807 Y35.3901
G01 X39.0845 Y35.4072
G01 X39.0868 Y35.4229
G01 X39.0879 Y35.4362
G01 X39.0883 Y35.4500
G01 X39.0883 Y36.5500
G01 X39.0880 Y36.5627
G01 X39.0870 Y36.5754
G01 X39.0840 Y36.5955
G01 X39.0817 Y36.6059
G01 X39.0787 Y36.6172
G01 X39.0720 Y36.6367
G01 X39.0633 Y36.6562
G01 X39.0534 Y36.6743
G01 X39.0470 Y36.6841
G01 X39.0408 Y36.6928
G01 X39.0273 Y36.7093
G01 X39.0128 Y36.7240
G01 X39.0041 Y36.7318
G01 X38.9958 Y36.7385
G01 X38.9792 Y36.7502
G01 X38.9614 Y36.7607
G01 X38.9422 Y36.7698
G01 X38.9228 Y36.7769
G01 X38.9116 Y36.7802
G01 X38.9012 Y36.7828
G01 X38.8812 Y36.7863
G01 X38.8607 Y36.7881
G01 X36.3500 Y36.7883
G01 X36.3373 Y36.7880
G01 X36.3219 Y36.7867
G01 X36.3045 Y36.7840
G01 X36.2874 Y36.7800
G01 X36.2707 Y36.7747
G01 X36.2553 Y36.7687
G01 X36.2395 Y36.7612
G01 X36.2257 Y36.7534
G01 X36.2111 Y36.7437
G01 X36.1972 Y36.7329
G01 X36.1849 Y36.7219
G01 X36.1741 Y36.7108
G01 X36.1627 Y36.6974
G01 X36.1530 Y36.6841
G01 X36.1437 Y36.6693
G01 X36.1354 Y36.6538
G01 X36.1289 Y36.6389
G01 X35.6385 Y36.6386
G01 X35.6385 Y36.7355
G01 X35.9645 Y37.0615
G01 X36.1287 Y37.0615
G01 X36.1354 Y37.0462
G01 X36.1437 Y37.0307
G01 X36.1530 Y37.0159
G01 X36.1627 Y37.0026
G01 X36.1727 Y36.9907
G01 X36.1849 Y36.9781
G01 X36.1980 Y36.9664
G01 X36.2119 Y36.9557
G01 X36.2257 Y36.9466
G01 X36.2410 Y36.9380
G01 X36.2569 Y36.9306
G01 X36.2733 Y36.9243
G01 X36.2901 Y36.9193
G01 X36.3072 Y36.9155
G01 X36.3246 Y36.9130
G01 X36.3404 Y36.9119
G01 X38.8521 Y36.9117
G01 X38.8655 Y36.9122
G01 X38.8781 Y36.9133
G01 X38.8918 Y36.9154
G01 X38.9059 Y36.9183
G01 X38.9182 Y36.9216
G01 X38.9313 Y36.9259
G01 X38.9431 Y36.9306
G01 X38.9553 Y36.9362
G01 X38.9693 Y36.9437
G01 X38.9833 Y36.9524
G01 X38.9958 Y36.9615
G01 X39.0072 Y36.9709
G01 X39.0193 Y36.9822
G01 X39.0298 Y36.9935
G01 X39.0402 Y37.0064
G01 X39.0493 Y37.0193
G01 X39.0579 Y37.0334
G01 X39.0650 Y37.0472
G01 X39.0716 Y37.0623
G01 X39.0769 Y37.0772
G01 X39.0814 Y37.0931
G01 X39.0846 Y37.1082
G01 X39.0870 Y37.1246
G01 X39.0881 Y37.1393
G01 X39.0881 Y38.2607
G01 X39.0863 Y38.2812
G01 X39.0845 Y38.2928
G01 X39.0823 Y38.3032
G01 X39.0769 Y38.3228
G01 X39.0698 Y38.3422
G01 X39.0612 Y38.3605
G01 X39.0508 Y38.3784
G01 X39.0392 Y38.3950
G01 X39.0259 Y38.4108
G01 X39.0171 Y38.4200
G01 X39.0085 Y38.4280
G01 X38.9996 Y38.4355
G01 X38.9903 Y38.4427
G01 X38.9807 Y38.4493
G01 X38.9708 Y38.4555
G01 X38.9590 Y38.4620
G01 X38.9485 Y38.4670
G01 X38.9377 Y38.4716
G01 X38.9267 Y38.4757
G01 X38.9156 Y38.4791
G01 X38.9042 Y38.4821
G01 X38.8928 Y38.4845
G01 X38.8812 Y38.4863
G01 X38.8696 Y38.4875
G01 X38.8569 Y38.4882
G01 X36.3452 Y38.4883
G01 X36.3287 Y38.4874
G01 X36.3113 Y38.4852
G01 X36.2941 Y38.4817
G01 X36.2772 Y38.4769
G01 X36.2607 Y38.4710
G01 X36.2447 Y38.4638
G01 X36.2292 Y38.4555
G01 X36.2145 Y38.4460
G01 X36.2004 Y38.4355
G01 X36.1872 Y38.4240
G01 X36.1748 Y38.4116
G01 X36.1634 Y38.3983
G01 X36.1530 Y38.3841
G01 X36.1437 Y38.3693
G01 X36.1354 Y38.3538
G01 X36.1289 Y38.3389
G01 X35.6985 Y38.3385
G01 X35.6385 Y38.3356
G01 X35.6385 Y39.0005
G01 X35.6363 Y39.0509
G01 X35.6353 Y39.0646
G01 X35.6280 Y39.1151
G01 X35.6241 Y39.1345
G01 X35.6113 Y39.1844
G01 X35.6079 Y39.1950
G01 X35.5940 Y39.2339
G01 X35.5868 Y39.2516
G01 X35.5641 Y39.2992
G01 X35.5582 Y39.3099
G01 X35.5372 Y39.3449
G01 X35.5288 Y39.3579
G01 X35.5005 Y39.3963
G01 X35.4929 Y39.4059
G01 X35.4596 Y39.4430
G01 X35.4519 Y39.4511
G01 X34.4515 Y40.4515
G01 X34.4103 Y40.4892
G01 X34.3989 Y40.4985
G01 X34.3639 Y40.5245
G01 X34.3539 Y40.5315
G01 X34.3453 Y40.5369
G01 X34.3099 Y40.5582
G01 X34.2992 Y40.5641
G01 X34.2551 Y40.5852
G01 X34.2434 Y40.5903
G01 X34.1863 Y40.6107
G01 X34.1756 Y40.6138
G01 X34.1345 Y40.6241
G01 X34.1130 Y40.6283
G01 X34.0704 Y40.6346
G01 X34.0547 Y40.6361
G01 X34.0000 Y40.6385
G01 X6.0000 Y40.6385
G01 X5.9883 Y40.6383
G01 X5.9475 Y40.6362
G01 X5.9354 Y40.6353
G01 X5.8870 Y40.6283
G01 X5.8744 Y40.6261
G01 X5.8156 Y40.6113
G01 X5.8040 Y40.6075
G01 X5.7630 Y40.5928
G01 X5.7484 Y40.5868
G01 X5.7090 Y40.5682
G01 X5.6981 Y40.5626
G01 X5.6888 Y40.5574
G01 X5.6534 Y40.5361
G01 X5.6421 Y40.5288
G01 X5.6025 Y40.4996
G01 X5.5889 Y40.4885
G01 X5.5485 Y40.4515
G01 X4.5437 Y39.4466
G01 X4.5137 Y39.4136
G01 X4.5058 Y39.4043
G01 X4.4758 Y39.3643
G01 X4.4685 Y39.3539
G01 X4.4374 Y39.3019
G01 X4.4318 Y39.2910
G01 X4.4120 Y39.2488
G01 X4.4060 Y39.2339
G01 X4.3893 Y39.1863
G01 X4.3858 Y39.1741
G01 X4.3741 Y39.1266
G01 X4.3717 Y39.1130
G01 X4.3646 Y39.0636
G01 X4.3637 Y39.0514
G01 X4.3615 Y39.0048
G01 X4.3615 Y36.7645
G01 X4.2355 Y36.6385
G01 X3.8713 Y36.6385
G01 X3.8646 Y36.6538
G01 X3.8563 Y36.6693
G01 X3.8470 Y36.6841
G01 X3.8373 Y36.6974
G01 X3.8259 Y36.7108
G01 X3.8136 Y36.7233
G01 X3.8020 Y36.7336
G01 X3.7881 Y36.7443
G01 X3.7743 Y36.7534
G01 X3.7590 Y36.7620
G01 X3.7431 Y36.7694
G01 X3.7283 Y36.7751
G01 X3.7116 Y36.7802
G01 X3.6945 Y36.7842
G01 X3.6771 Y36.7868
G01 X3.6607 Y36.7881
G01 X1.1431 Y36.7882
G01 X1.1314 Y36.7876
G01 X1.1198 Y36.7864
G01 X1.1082 Y36.7846
G01 X1.0968 Y36.7823
G01 X1.0854 Y36.7794
G01 X1.0743 Y36.7760
G01 X1.0544 Y36.7683
G01 X1.0447 Y36.7638
G01 X1.0343 Y36.7584
G01 X1.0242 Y36.7525
G01 X1.0145 Y36.7460
G01 X1.0050 Y36.7392
G01 X0.9959 Y36.7318
G01 X0.9872 Y36.7240
G01 X0.9788 Y36.7158
G01 X0.9709 Y36.7072
G01 X0.9634 Y36.6983
G01 X0.9563 Y36.6889
G01 X0.9498 Y36.6792
G01 X0.9388 Y36.6605
G01 X0.9337 Y36.6500
G01 X0.9290 Y36.6393
G01 X0.9249 Y36.6283
G01 X0.9213 Y36.6172
G01 X0.9183 Y36.6059
G01 X0.9160 Y36.5955
G01 X0.9141 Y36.5839
G01 X0.9127 Y36.5723
G01 X0.9119 Y36.5607
G01 X0.9117 Y36.5500
G01 X0.9119 Y35.4404
G01 X0.9133 Y35.4219
G01 X0.9164 Y35.4025
G01 X0.9209 Y35.3844
G01 X0.9263 Y35.3678
G01 X0.9337 Y35.3500
G01 X0.9421 Y35.3334
G01 X0.9513 Y35.3184
G01 X0.9627 Y35.3026
G01 X0.9709 Y35.2928
G01 X0.9788 Y35.2842
G01 X0.9872 Y35.2760
G01 X0.9972 Y35.2671
G01 X1.0064 Y35.2598
G01 X1.0159 Y35.2530
G01 X1.0257 Y35.2466
G01 X1.0367 Y35.2403
G01 X1.0472 Y35.2350
G01 X1.0578 Y35.2302
G01 X1.0687 Y35.2259
G01 X1.0818 Y35.2216
G01 X1.0941 Y35.2183
G01 X1.1055 Y35.2158
G01 X1.1171 Y35.2139
G01 X1.1287 Y35.2126
G01 X1.1500 Y35.2117
G01 X1.9615 Y35.2117
G01 X1.9615 Y35.0883
G01 X1.1500 Y35.0883
G01 X1.1373 Y35.0880
G01 X1.1256 Y35.0871
G01 X1.1130 Y35.0854
G01 X1.0998 Y35.0830
G01 X1.0884 Y35.0802
G01 X1.0762 Y35.0766
G01 X1.0652 Y35.0727
G01 X1.0525 Y35.0675
G01 X1.0410 Y35.0620
G01 X1.0307 Y35.0563
G01 X1.0208 Y35.0502
G01 X1.0097 Y35.0427
G01 X1.0004 Y35.0355
G01 X0.9907 Y35.0273
G01 X0.9822 Y35.0193
G01 X0.9727 Y35.0093
G01 X0.9645 Y34.9996
G01 X0.9563 Y34.9889
G01 X0.9466 Y34.9743
G01 X0.9380 Y34.9590
G01 X0.9306 Y34.9431
G01 X0.9243 Y34.9267
G01 X0.9193 Y34.9099
G01 X0.9155 Y34.8928
G01 X0.9130 Y34.8754
G01 X0.9118 Y34.8579
G01 X0.9117 Y33.7500
G01 X0.9125 Y33.7304
G01 X0.9150 Y33.7103
G01 X0.9191 Y33.6911
G01 X0.9249 Y33.6717
G01 X0.9325 Y33.6525
G01 X0.9416 Y33.6343
G01 X0.9513 Y33.6184
G01 X0.9634 Y33.6017
G01 X0.9767 Y33.5864
G01 X0.9915 Y33.5720
G01 X1.0072 Y33.5592
G01 X1.0234 Y33.5481
G01 X1.0410 Y33.5380
G01 X1.0597 Y33.5294
G01 X1.0788 Y33.5225
G01 X1.0968 Y33.5177
G01 X1.1103 Y33.5150
G01 X1.1229 Y33.5132
G01 X1.1362 Y33.5121
G01 X1.1485 Y33.5117
G01 X1.9615 Y33.5117
G01 X1.9615 Y13.4000
G01 X1.9638 Y13.3475
G01 X1.9654 Y13.3296
G01 X1.9735 Y13.2764
G01 X1.9762 Y13.2645
G01 X1.9868 Y13.2223
G01 X1.9914 Y13.2071
G01 X2.0060 Y13.1661
G01 X2.0105 Y13.1547
G01 X2.0148 Y13.1449
G01 X2.0323 Y13.1080
G01 X2.0378 Y13.0972
G01 X2.0628 Y13.0551
G01 X2.0697 Y13.0444
G01 X2.1058 Y12.9957
G01 X2.1137 Y12.9864
G01 X2.1418 Y12.9554
G01 X4.3615 Y10.7355
G01 X4.3615 Y6.6385
G01 X3.8713 Y6.6385
G01 X3.8646 Y6.6538
G01 X3.8563 Y6.6693
G01 X3.8470 Y6.6841
G01 X3.8373 Y6.6974
G01 X3.8259 Y6.7108
G01 X3.8151 Y6.7219
G01 X3.8020 Y6.7336
G01 X3.7881 Y6.7443
G01 X3.7743 Y6.7534
G01 X3.7590 Y6.7620
G01 X3.7431 Y6.7694
G01 X3.7267 Y6.7757
G01 X3.7099 Y6.7807
G01 X3.6928 Y6.7845
G01 X3.6771 Y6.7868
G01 X3.6596 Y6.7881
G01 X1.1495 Y6.7883
G01 X1.1304 Y6.7875
G01 X1.1103 Y6.7850
G01 X1.0911 Y6.7809
G01 X1.0717 Y6.7751
G01 X1.0569 Y6.7694
G01 X1.0410 Y6.7620
G01 X1.0257 Y6.7534
G01 X1.0119 Y6.7443
G01 X0.9980 Y6.7336
G01 X0.9864 Y6.7233
G01 X0.9748 Y6.7116
G01 X0.9645 Y6.6996
G01 X0.9540 Y6.6855
G01 X0.9450 Y6.6716
G01 X0.9376 Y6.6581
G01 X0.9302 Y6.6422
G01 X0.9243 Y6.6267
G01 X0.9193 Y6.6099
G01 X0.9158 Y6.5945
G01 X0.9133 Y6.5781
G01 X0.9121 Y6.5638
G01 X0.9117 Y6.5500
G01 X0.9117 Y5.4500
G01 X0.9119 Y5.4393
G01 X0.9127 Y5.4277
G01 X0.9139 Y5.4171
G01 X0.9158 Y5.4055
G01 X0.9183 Y5.3941
G01 X0.9213 Y5.3828
G01 X0.9284 Y5.3623
G01 X0.9330 Y5.3515
G01 X0.9380 Y5.3410
G01 X0.9437 Y5.3307
G01 X0.9492 Y5.3216
G01 X0.9615 Y5.3042
G01 X0.9689 Y5.2951
G01 X0.9767 Y5.2864
G01 X0.9842 Y5.2788
G01 X0.9928 Y5.2709
G01 X1.0017 Y5.2634
G01 X1.0111 Y5.2563
G01 X1.0292 Y5.2445
G01 X1.0395 Y5.2388
G01 X1.0500 Y5.2337
G01 X1.0607 Y5.2290
G01 X1.0717 Y5.2249
G01 X1.0828 Y5.2213
G01 X1.0931 Y5.2186
G01 X1.1140 Y5.2144
G01 X1.1256 Y5.2129
G01 X1.1373 Y5.2120
G01 X1.1500 Y5.2117
G01 X3.6500 Y5.2117
G01 X3.6627 Y5.2120
G01 X3.6781 Y5.2133
G01 X3.6955 Y5.2160
G01 X3.7126 Y5.2200
G01 X3.7293 Y5.2253
G01 X3.7447 Y5.2313
G01 X3.7605 Y5.2388
G01 X3.7743 Y5.2466
G01 X3.7889 Y5.2563
G01 X3.8028 Y5.2671
G01 X3.8151 Y5.2781
G01 X3.8259 Y5.2892
G01 X3.8373 Y5.3026
G01 X3.8470 Y5.3159
G01 X3.8563 Y5.3307
G01 X3.8646 Y5.3462
G01 X3.8711 Y5.3611
G01 X4.3615 Y5.3614
G01 X4.3615 Y5.2645
G01 X4.0355 Y4.9385
G01 X3.8713 Y4.9385
G01 X3.8646 Y4.9538
G01 X3.8563 Y4.9693
G01 X3.8470 Y4.9841
G01 X3.8373 Y4.9974
G01 X3.8259 Y5.0108
G01 X3.8151 Y5.0219
G01 X3.8020 Y5.0336
G01 X3.7881 Y5.0443
G01 X3.7743 Y5.0534
G01 X3.7590 Y5.0620
G01 X3.7431 Y5.0694
G01 X3.7267 Y5.0757
G01 X3.7099 Y5.0807
G01 X3.6928 Y5.0845
G01 X3.6771 Y5.0868
G01 X3.6596 Y5.0881
G01 X1.1479 Y5.0883
G01 X1.1345 Y5.0878
G01 X1.1219 Y5.0867
G01 X1.1082 Y5.0846
G01 X1.0941 Y5.0817
G01 X1.0818 Y5.0784
G01 X1.0687 Y5.0741
G01 X1.0569 Y5.0694
G01 X1.0447 Y5.0638
G01 X1.0316 Y5.0569
G01 X1.0193 Y5.0493
G01 X1.0072 Y5.0408
G01 X0.9951 Y5.0311
G01 X0.9842 Y5.0212
G01 X0.9741 Y5.0108
G01 X0.9634 Y4.9983
G01 X0.9545 Y4.9864
G01 X0.9461 Y4.9734
G01 X0.9388 Y4.9605
G01 X0.9325 Y4.9475
G01 X0.9269 Y4.9338
G01 X0.9216 Y4.9182
G01 X0.9179 Y4.9042
G01 X0.9150 Y4.8897
G01 X0.9129 Y4.8744
G01 X0.9120 Y4.8627
G01 X0.9117 Y4.8500
G01 X0.9117 Y3.7500
G01 X0.9958 Y3.7500
G01 X0.9960 Y3.7414
G01 X0.9968 Y3.7321
G01 X0.9998 Y3.7152
G01 X1.0045 Y3.6990
G01 X1.0110 Y3.6831
G01 X1.0192 Y3.6684
G01 X1.0291 Y3.6543
G01 X1.0402 Y3.6417
G01 X1.0530 Y3.6301
G01 X1.0620 Y3.6233
G01 X1.0731 Y3.6163
G01 X1.0850 Y3.6102
G01 X1.0971 Y3.6051
G01 X1.1099 Y3.6011
G01 X1.1226 Y3.5982
G01 X1.1339 Y3.5966
G01 X1.1472 Y3.5958
G01 X3.6565 Y3.5959
G01 X3.6716 Y3.5973
G01 X3.6848 Y3.5998
G01 X3.6974 Y3.6032
G01 X3.7115 Y3.6086
G01 X3.7251 Y3.6153
G01 X3.7380 Y3.6233
G01 X3.7486 Y3.6314
G01 X3.7598 Y3.6417
G01 X3.7686 Y3.6514
G01 X3.7777 Y3.6635
G01 X3.7855 Y3.6764
G01 X3.7921 Y3.6900
G01 X3.7973 Y3.7042
G01 X3.8007 Y3.7172
G01 X3.8032 Y3.7321
G01 X3.8042 Y3.7456
G01 X4.3048 Y3.7457
G01 X4.3478 Y3.7477
G01 X4.3608 Y3.7490
G01 X4.4071 Y3.7560
G01 X4.4456 Y3.7654
G01 X4.4456 Y3.0000
G01 X4.4480 Y2.9484
G01 X4.4492 Y2.9381
G01 X4.4564 Y2.8908
G01 X4.4677 Y2.8454
G01 X4.4718 Y2.8319
G01 X4.4882 Y2.7869
G01 X4.5076 Y2.7454
G01 X4.5143 Y2.7330
G01 X4.5375 Y2.6943
G01 X4.5434 Y2.6858
G01 X4.5708 Y2.6491
G01 X4.6080 Y2.6080
G01 X5.6080 Y1.6080
G01 X5.6446 Y1.5745
G01 X5.6534 Y1.5674
G01 X5.6858 Y1.5434
G01 X5.6984 Y1.5350
G01 X5.7396 Y1.5106
G01 X5.7869 Y1.4882
G01 X5.8381 Y1.4698
G01 X5.8845 Y1.4579
G01 X5.8993 Y1.4549
G01 X5.9392 Y1.4490
G01 X5.9505 Y1.4479
G01 X6.0000 Y1.4456
G01 X34.0076 Y1.4458
G01 X34.0554 Y1.4484
G01 X34.1092 Y1.4564
G01 X34.1599 Y1.4692
G01 X34.2077 Y1.4860
G01 X34.2182 Y1.4904
G01 X34.2604 Y1.5106
G01 X34.3016 Y1.5350
G01 X34.3142 Y1.5434
G01 X34.3466 Y1.5674
G01 X34.3567 Y1.5757
G01 X34.3920 Y1.6080
G01 X35.3940 Y2.6099
G01 X35.4292 Y2.6491
G01 X35.4604 Y2.6911
G01 X35.4885 Y2.7377
G01 X35.5111 Y2.7853
G01 X35.5149 Y2.7949
G01 X35.5302 Y2.8381
G01 X35.5436 Y2.8908
G01 X35.5516 Y2.9446
G01 X35.5544 Y2.9972
G01 X35.5544 Y5.2704
G01 X35.7296 Y5.4456
G01 X36.1958 Y5.4456
G01 X36.1968 Y5.4321
G01 X36.1993 Y5.4172
G01 X36.2027 Y5.4042
G01 X36.2079 Y5.3900
G01 X36.2135 Y5.3782
G01 X36.2212 Y5.3652
G01 X36.2301 Y5.3530
G01 X36.2402 Y5.3417
G01 X36.2514 Y5.3314
G01 X36.2635 Y5.3223
G01 X36.2764 Y5.3145
G01 X36.2885 Y5.3086
G01 X36.3026 Y5.3032
G01 X36.3172 Y5.2993
G01 X36.3321 Y5.2968
G01 X36.3452 Y5.2959
G01 X38.8528 Y5.2958
G01 X38.8679 Y5.2968
G01 X38.8811 Y5.2990
G01 X38.8938 Y5.3021
G01 X38.9065 Y5.3065
G01 X38.9203 Y5.3127
G01 X38.9316 Y5.3192
G01 X38.9427 Y5.3267
G01 X38.9528 Y5.3350
G01 X38.9650 Y5.3472
G01 X38.9745 Y5.3590
G01 X38.9828 Y5.3716
G01 X38.9898 Y5.3850
G01 X38.9955 Y5.3990
G01 X39.0002 Y5.4152
G01 X39.0032 Y5.4321
G01 X39.0042 Y5.4472
G01 X39.0042 Y6.5528
G01 X39.0037 Y6.5624
G01 X39.0027 Y6.5716
G01 X39.0007 Y6.5828
G01 X38.9984 Y6.5921
G01 X38.9955 Y6.6010
G01 X38.9914 Y6.6115
G01 X38.9865 Y6.6218
G01 X38.9817 Y6.6302
G01 X38.9722 Y6.6441
G01 X38.9661 Y6.6515
G01 X38.9598 Y6.6583
G01 X38.9528 Y6.6650
G01 X38.9457 Y6.6709
G01 X38.9380 Y6.6767
G01 X38.9302 Y6.6817
G01 X38.9218 Y6.6865
G01 X38.9134 Y6.6906
G01 X38.9045 Y6.6943
G01 X38.8958 Y6.6973
G01 X38.8791 Y6.7015
G01 X38.8699 Y6.7029
G01 X38.8603 Y6.7039
G01 X38.8500 Y6.7042
G01 X37.9544 Y6.7042
G01 X37.9544 Y6.9958
G01 X38.8586 Y6.9960
G01 X38.8736 Y6.9976
G01 X38.8901 Y7.0011
G01 X38.9045 Y7.0057
G01 X38.9203 Y7.0127
G01 X38.9348 Y7.0212
G01 X38.9470 Y7.0301
G01 X38.9598 Y7.0417
G01 X38.9709 Y7.0543
G01 X38.9788 Y7.0652
G01 X38.9855 Y7.0764
G01 X38.9906 Y7.0866
G01 X38.9955 Y7.0990
G01 X38.9993 Y7.1115
G01 X39.0018 Y7.1226
G01 X39.0036 Y7.1359
G01 X39.0042 Y7.1472
G01 X39.0042 Y8.2510
G01 X39.0034 Y8.2661
G01 X39.0010 Y8.2811
G01 X38.9968 Y8.2974
G01 X38.9914 Y8.3115
G01 X38.9865 Y8.3218
G01 X38.9817 Y8.3302
G01 X38.9755 Y8.3396
G01 X38.9699 Y8.3470
G01 X38.9636 Y8.3543
G01 X38.9556 Y8.3624
G01 X38.9486 Y8.3686
G01 X38.9410 Y8.3745
G01 X38.9316 Y8.3808
G01 X38.9236 Y8.3855
G01 X38.9134 Y8.3906
G01 X38.9045 Y8.3943
G01 X38.8958 Y8.3973
G01 X38.8848 Y8.4002
G01 X38.8753 Y8.4021
G01 X38.8641 Y8.4036
G01 X38.8500 Y8.4042
G01 X37.9544 Y8.4042
G01 X37.9543 Y10.6048
G01 X37.9521 Y10.6495
G01 X37.9508 Y10.6619
G01 X37.9436 Y10.7092
G01 X37.9326 Y10.7536
G01 X37.9285 Y10.7672
G01 X37.9126 Y10.8112
G01 X37.8912 Y10.8571
G01 X37.8857 Y10.8670
G01 X37.8650 Y10.9016
G01 X37.8566 Y10.9142
G01 X37.8279 Y10.9525
G01 X37.7928 Y10.9913
G01 X35.5544 Y13.2296
G01 X35.5544 Y35.4456
G01 X36.1958 Y35.4456
G01 X36.1968 Y35.4321
G01 X36.1993 Y35.4172
G01 X36.2027 Y35.4042
G01 X36.2079 Y35.3900
G01 X36.2135 Y35.3782
G01 X36.2212 Y35.3652
G01 X36.2301 Y35.3530
G01 X36.2402 Y35.3417
G01 X36.2514 Y35.3314
G01 X36.2620 Y35.3233
G01 X36.2749 Y35.3153
G01 X36.2866 Y35.3094
G01 X36.3006 Y35.3039
G01 X36.3152 Y35.2998
G01 X36.3284 Y35.2973
G01 X36.3435 Y35.2959
G01 X38.8500 Y35.2958
G01 X38.8624 Y35.2963
G01 X38.8736 Y35.2976
G01 X38.8865 Y35.3002
G01 X38.8974 Y35.3032
G01 X38.9081 Y35.3071
G01 X38.9184 Y35.3118
G01 X38.9284 Y35.3172
G01 X38.9380 Y35.3233
G01 X38.9470 Y35.3301
G01 X38.9556 Y35.3376
G01 X38.9636 Y35.3457
G01 X38.9709 Y35.3543
G01 X38.9777 Y35.3635
G01 X38.9837 Y35.3731
G01 X38.9890 Y35.3831
G01 X38.9935 Y35.3935
G01 X38.9973 Y35.4042
G01 X39.0002 Y35.4152
G01 X39.0024 Y35.4264
G01 X39.0037 Y35.4376
G01 X39.0042 Y35.4500
G01 X39.0042 Y36.5500
G01 X39.0034 Y36.5661
G01 X39.0015 Y36.5791
G01 X38.9984 Y36.5921
G01 X38.9943 Y36.6045
G01 X38.9890 Y36.6169
G01 X38.9828 Y36.6284
G01 X38.9745 Y36.6410
G01 X38.9661 Y36.6515
G01 X38.9571 Y36.6610
G01 X38.9470 Y36.6699
G01 X38.9365 Y36.6777
G01 X38.9236 Y36.6855
G01 X38.9115 Y36.6914
G01 X38.8994 Y36.6961
G01 X38.8848 Y36.7002
G01 X38.8716 Y36.7027
G01 X38.8586 Y36.7040
G01 X36.3500 Y36.7042
G01 X36.3359 Y36.7036
G01 X36.3209 Y36.7015
G01 X36.3062 Y36.6979
G01 X36.2919 Y36.6929
G01 X36.2782 Y36.6865
G01 X36.2666 Y36.6797
G01 X36.2543 Y36.6709
G01 X36.2429 Y36.6610
G01 X36.2326 Y36.6499
G01 X36.2233 Y36.6380
G01 X36.2153 Y36.6251
G01 X36.2086 Y36.6115
G01 X36.2032 Y36.5974
G01 X36.1993 Y36.5828
G01 X36.1968 Y36.5679
G01 X36.1958 Y36.5544
G01 X35.5544 Y36.5544
G01 X35.5544 Y36.7704
G01 X35.9296 Y37.1456
G01 X36.1958 Y37.1456
G01 X36.1968 Y37.1321
G01 X36.1993 Y37.1172
G01 X36.2027 Y37.1042
G01 X36.2079 Y37.0900
G01 X36.2135 Y37.0782
G01 X36.2212 Y37.0652
G01 X36.2301 Y37.0530
G01 X36.2402 Y37.0417
G01 X36.2514 Y37.0314
G01 X36.2620 Y37.0233
G01 X36.2749 Y37.0153
G01 X36.2866 Y37.0094
G01 X36.3006 Y37.0039
G01 X36.3152 Y36.9998
G01 X36.3284 Y36.9973
G01 X36.3435 Y36.9959
G01 X38.8500 Y36.9958
G01 X38.8661 Y36.9966
G01 X38.8828 Y36.9993
G01 X38.8994 Y37.0039
G01 X38.9150 Y37.0102
G01 X38.9251 Y37.0153
G01 X38.9334 Y37.0203
G01 X38.9427 Y37.0267
G01 X38.9499 Y37.0326
G01 X38.9583 Y37.0402
G01 X38.9661 Y37.0485
G01 X38.9722 Y37.0559
G01 X38.9788 Y37.0652
G01 X38.9837 Y37.0731
G01 X38.9890 Y37.0831
G01 X38.9935 Y37.0935
G01 X38.9973 Y37.1042
G01 X39.0002 Y37.1152
G01 X39.0021 Y37.1247
G01 X39.0036 Y37.1359
G01 X39.0041 Y37.1452
G01 X39.0041 Y38.2548
G01 X39.0029 Y38.2699
G01 X39.0007 Y38.2828
G01 X38.9973 Y38.2958
G01 X38.9921 Y38.3100
G01 X38.9855 Y38.3236
G01 X38.9788 Y38.3348
G01 X38.9709 Y38.3457
G01 X38.9624 Y38.3556
G01 X38.9515 Y38.3661
G01 X38.9396 Y38.3755
G01 X38.9269 Y38.3837
G01 X38.9134 Y38.3906
G01 X38.8994 Y38.3961
G01 X38.8828 Y38.4007
G01 X38.8679 Y38.4032
G01 X38.8528 Y38.4042
G01 X36.3452 Y38.4041
G01 X36.3321 Y38.4032
G01 X36.3172 Y38.4007
G01 X36.3026 Y38.3968
G01 X36.2885 Y38.3914
G01 X36.2764 Y38.3855
G01 X36.2635 Y38.3777
G01 X36.2514 Y38.3686
G01 X36.2402 Y38.3583
G01 X36.2301 Y38.3470
G01 X36.2212 Y38.3348
G01 X36.2135 Y38.3218
G01 X36.2079 Y38.3100
G01 X36.2027 Y38.2958
G01 X36.1993 Y38.2828
G01 X36.1968 Y38.2679
G01 X36.1958 Y38.2544
G01 X35.6952 Y38.2543
G01 X35.6522 Y38.2523
G01 X35.6392 Y38.2510
G01 X35.5929 Y38.2440
G01 X35.5544 Y38.2346
G01 X35.5544 Y39.0000
G01 X35.5520 Y39.0516
G01 X35.5508 Y39.0619
G01 X35.5436 Y39.1092
G01 X35.5323 Y39.1546
G01 X35.5282 Y39.1681
G01 X35.5118 Y39.2131
G01 X35.4924 Y39.2546
G01 X35.4857 Y39.2670
G01 X35.4625 Y39.3057
G01 X35.4566 Y39.3142
G01 X35.4292 Y39.3509
G01 X35.3920 Y39.3920
G01 X34.3920 Y40.3920
G01 X34.3554 Y40.4255
G01 X34.3466 Y40.4326
G01 X34.3142 Y40.4566
G01 X34.3016 Y40.4650
G01 X34.2604 Y40.4894
G01 X34.2131 Y40.5118
G01 X34.1619 Y40.5302
G01 X34.1155 Y40.5421
G01 X34.1007 Y40.5451
G01 X34.0608 Y40.5510
G01 X34.0495 Y40.5521
G01 X34.0000 Y40.5544
G01 X5.9935 Y40.5543
G01 X5.9446 Y40.5516
G01 X5.8929 Y40.5440
G01 X5.8401 Y40.5308
G01 X5.7939 Y40.5146
G01 X5.7818 Y40.5096
G01 X5.7454 Y40.4924
G01 X5.7321 Y40.4852
G01 X5.6975 Y40.4645
G01 X5.6897 Y40.4594
G01 X5.6534 Y40.4326
G01 X5.6433 Y40.4243
G01 X5.6080 Y40.3920
G01 X4.6060 Y39.3901
G01 X4.5708 Y39.3509
G01 X4.5396 Y39.3089
G01 X4.5115 Y39.2623
G01 X4.4889 Y39.2147
G01 X4.4851 Y39.2051
G01 X4.4698 Y39.1619
G01 X4.4564 Y39.1092
G01 X4.4484 Y39.0554
G01 X4.4456 Y39.0028
G01 X4.4456 Y36.7296
G01 X4.2704 Y36.5544
G01 X3.8042 Y36.5544
G01 X3.8032 Y36.5679
G01 X3.8007 Y36.5828
G01 X3.7968 Y36.5974
G01 X3.7914 Y36.6116
G01 X3.7847 Y36.6251
G01 X3.7767 Y36.6380
G01 X3.7674 Y36.6499
G01 X3.7571 Y36.6610
G01 X3.7457 Y36.6709
G01 X3.7334 Y36.6797
G01 X3.7218 Y36.6865
G01 X3.7081 Y36.6929
G01 X3.6938 Y36.6979
G01 X3.6791 Y36.7015
G01 X3.6641 Y36.7036
G01 X3.6500 Y36.7042
G01 X1.1414 Y36.7040
G01 X1.1284 Y36.7027
G01 X1.1152 Y36.7002
G01 X1.1026 Y36.6968
G01 X1.0900 Y36.6921
G01 X1.0782 Y36.6865
G01 X1.0666 Y36.6797
G01 X1.0543 Y36.6709
G01 X1.0444 Y36.6624
G01 X1.0350 Y36.6528
G01 X1.0267 Y36.6427
G01 X1.0192 Y36.6316
G01 X1.0127 Y36.6203
G01 X1.0071 Y36.6081
G01 X1.0027 Y36.5958
G01 X0.9993 Y36.5828
G01 X0.9971 Y36.5699
G01 X0.9961 Y36.5603
G01 X0.9958 Y36.5500
G01 X0.9959 Y35.4452
G01 X0.9968 Y35.4321
G01 X0.9990 Y35.4189
G01 X1.0016 Y35.4079
G01 X1.0057 Y35.3955
G01 X1.0102 Y35.3850
G01 X1.0163 Y35.3731
G01 X1.0233 Y35.3620
G01 X1.0314 Y35.3514
G01 X1.0417 Y35.3402
G01 X1.0543 Y35.3291
G01 X1.0666 Y35.3203
G01 X1.0797 Y35.3127
G01 X1.0955 Y35.3057
G01 X1.1099 Y35.3011
G01 X1.1264 Y35.2976
G01 X1.1414 Y35.2960
G01 X2.0456 Y35.2958
G01 X2.0456 Y35.0042
G01 X1.1500 Y35.0042
G01 X1.1397 Y35.0039
G01 X1.1226 Y35.0018
G01 X1.1135 Y34.9998
G01 X1.1042 Y34.9973
G01 X1.0885 Y34.9914
G01 X1.0731 Y34.9837
G01 X1.0590 Y34.9745
G01 X1.0457 Y34.9636
G01 X1.0390 Y34.9571
G01 X1.0326 Y34.9499
G01 X1.0223 Y34.9365
G01 X1.0163 Y34.9269
G01 X1.0118 Y34.9184
G01 X1.0071 Y34.9081
G01 X1.0032 Y34.8974
G01 X1.0002 Y34.8865
G01 X0.9979 Y34.8753
G01 X0.9964 Y34.8641
G01 X0.9958 Y34.8528
G01 X0.9958 Y33.7500
G01 X0.9964 Y33.7359
G01 X0.9982 Y33.7226
G01 X1.0011 Y33.7099
G01 X1.0057 Y33.6955
G01 X1.0110 Y33.6831
G01 X1.0183 Y33.6698
G01 X1.0255 Y33.6590
G01 X1.0339 Y33.6485
G01 X1.0429 Y33.6390
G01 X1.0543 Y33.6291
G01 X1.0652 Y33.6212
G01 X1.0764 Y33.6145
G01 X1.0900 Y33.6079
G01 X1.1026 Y33.6032
G01 X1.1152 Y33.5998
G01 X1.1284 Y33.5973
G01 X1.1397 Y33.5961
G01 X1.1500 Y33.5958
G01 X2.0456 Y33.5958
G01 X2.0456 Y13.4000
G01 X2.0477 Y13.3532
G01 X2.0485 Y13.3429
G01 X2.0560 Y13.2929
G01 X2.0677 Y13.2454
G01 X2.0715 Y13.2328
G01 X2.0851 Y13.1949
G01 X2.0909 Y13.1809
G01 X2.1115 Y13.1377
G01 X2.1396 Y13.0911
G01 X2.1708 Y13.0491
G01 X2.2046 Y13.0114
G01 X4.4456 Y10.7704
G01 X4.4456 Y6.5544
G01 X3.8042 Y6.5544
G01 X3.8032 Y6.5679
G01 X3.8007 Y6.5828
G01 X3.7973 Y6.5958
G01 X3.7921 Y6.6100
G01 X3.7855 Y6.6236
G01 X3.7777 Y6.6365
G01 X3.7699 Y6.6470
G01 X3.7598 Y6.6583
G01 X3.7499 Y6.6674
G01 X3.7380 Y6.6767
G01 X3.7269 Y6.6837
G01 X3.7134 Y6.6906
G01 X3.6994 Y6.6961
G01 X3.6848 Y6.7002
G01 X3.6716 Y6.7027
G01 X3.6565 Y6.7041
G01 X1.1500 Y6.7042
G01 X1.1376 Y6.7037
G01 X1.1264 Y6.7024
G01 X1.1135 Y6.6998
G01 X1.1026 Y6.6968
G01 X1.0919 Y6.6929
G01 X1.0816 Y6.6882
G01 X1.0716 Y6.6828
G01 X1.0620 Y6.6767
G01 X1.0530 Y6.6699
G01 X1.0444 Y6.6624
G01 X1.0364 Y6.6543
G01 X1.0291 Y6.6457
G01 X1.0223 Y6.6365
G01 X1.0163 Y6.6269
G01 X1.0110 Y6.6169
G01 X1.0065 Y6.6065
G01 X1.0027 Y6.5958
G01 X0.9998 Y6.5848
G01 X0.9976 Y6.5736
G01 X0.9963 Y6.5624
G01 X0.9958 Y6.5500
G01 X0.9958 Y5.4500
G01 X0.9966 Y5.4339
G01 X0.9985 Y5.4209
G01 X1.0016 Y5.4079
G01 X1.0057 Y5.3955
G01 X1.0110 Y5.3831
G01 X1.0172 Y5.3716
G01 X1.0245 Y5.3604
G01 X1.0339 Y5.3485
G01 X1.0429 Y5.3390
G01 X1.0530 Y5.3301
G01 X1.0635 Y5.3223
G01 X1.0749 Y5.3153
G01 X1.0885 Y5.3086
G01 X1.1006 Y5.3039
G01 X1.1135 Y5.3002
G01 X1.1264 Y5.2976
G01 X1.1414 Y5.2960
G01 X3.6500 Y5.2958
G01 X3.6641 Y5.2964
G01 X3.6791 Y5.2985
G01 X3.6938 Y5.3021
G01 X3.7081 Y5.3071
G01 X3.7218 Y5.3135
G01 X3.7348 Y5.3212
G01 X3.7470 Y5.3301
G01 X3.7571 Y5.3390
G01 X3.7674 Y5.3501
G01 X3.7767 Y5.3620
G01 X3.7847 Y5.3749
G01 X3.7914 Y5.3885
G01 X3.7968 Y5.4026
G01 X3.8007 Y5.4172
G01 X3.8032 Y5.4321
G01 X3.8042 Y5.4456
G01 X4.4456 Y5.4456
G01 X4.4456 Y5.2296
G01 X4.0704 Y4.8544
G01 X3.8042 Y4.8544
G01 X3.8032 Y4.8679
G01 X3.8007 Y4.8828
G01 X3.7973 Y4.8958
G01 X3.7921 Y4.9100
G01 X3.7855 Y4.9236
G01 X3.7777 Y4.9365
G01 X3.7699 Y4.9470
G01 X3.7598 Y4.9583
G01 X3.7499 Y4.9674
G01 X3.7380 Y4.9767
G01 X3.7269 Y4.9837
G01 X3.7134 Y4.9906
G01 X3.6994 Y4.9961
G01 X3.6848 Y5.0002
G01 X3.6716 Y5.0027
G01 X3.6565 Y5.0041
G01 X1.1500 Y5.0042
G01 X1.1339 Y5.0034
G01 X1.1189 Y5.0010
G01 X1.1042 Y4.9973
G01 X1.0885 Y4.9914
G01 X1.0797 Y4.9873
G01 X1.0698 Y4.9817
G01 X1.0620 Y4.9767
G01 X1.0530 Y4.9699
G01 X1.0457 Y4.9636
G01 X1.0376 Y4.9556
G01 X1.0301 Y4.9470
G01 X1.0245 Y4.9396
G01 X1.0192 Y4.9316
G01 X1.0135 Y4.9218
G01 X1.0086 Y4.9115
G01 X1.0051 Y4.9029
G01 X1.0021 Y4.8938
G01 X0.9993 Y4.8828
G01 X0.9976 Y4.8736
G01 X0.9963 Y4.8624
G01 X0.9958 Y4.8500
G01 X0.9958 Y3.7500
G01 X1.0799 Y3.7500
G01 X1.0802 Y3.7431
G01 X1.0812 Y3.7363
G01 X1.0829 Y3.7297
G01 X1.0852 Y3.7232
G01 X1.0882 Y3.7170
G01 X1.0917 Y3.7111
G01 X1.0958 Y3.7055
G01 X1.1004 Y3.7004
G01 X1.1055 Y3.6958
G01 X1.1111 Y3.6917
G01 X1.1170 Y3.6882
G01 X1.1232 Y3.6852
G01 X1.1297 Y3.6829
G01 X1.1363 Y3.6812
G01 X1.1431 Y3.6802
G01 X1.1483 Y3.6799
G01 X3.6534 Y3.6800
G01 X3.6620 Y3.6809
G01 X3.6720 Y3.6834
G01 X3.6815 Y3.6874
G01 X3.6904 Y3.6927
G01 X3.6971 Y3.6981
G01 X3.7042 Y3.7055
G01 X3.7092 Y3.7125
G01 X3.7141 Y3.7216
G01 X3.7166 Y3.7280
G01 X3.7184 Y3.7346
G01 X3.7193 Y3.7397
G01 X3.7200 Y3.7466
G01 X3.7201 Y3.8297
G01 X4.3000 Y3.8297
G01 X4.3444 Y3.8318
G01 X4.3918 Y3.8387
G01 X4.4365 Y3.8500
G01 X4.4816 Y3.8662
G01 X4.5202 Y3.8844
G01 X4.5297 Y3.8899
G01 X4.5297 Y3.0000
G01 X4.5318 Y2.9556
G01 X4.5387 Y2.9082
G01 X4.5490 Y2.8668
G01 X4.5510 Y2.8602
G01 X4.5655 Y2.8200
G01 X4.5837 Y2.7814
G01 X4.5869 Y2.7753
G01 X4.6071 Y2.7416
G01 X4.6109 Y2.7359
G01 X4.6365 Y2.7016
G01 X4.6674 Y2.6674
G01 X5.6674 Y1.6674
G01 X5.6990 Y1.6387
G01 X5.7044 Y1.6343
G01 X5.7359 Y1.6109
G01 X5.7416 Y1.6071
G01 X5.7783 Y1.5852
G01 X5.8200 Y1.5655
G01 X5.8635 Y1.5500
G01 X5.9049 Y1.5395
G01 X5.9116 Y1.5381
G01 X5.9556 Y1.5318
G01 X6.0000 Y1.5297
G01 X34.0034 Y1.5298
G01 X34.0461 Y1.5320
G01 X34.0918 Y1.5387
G01 X34.1365 Y1.5500
G01 X34.1768 Y1.5643
G01 X34.1831 Y1.5669
G01 X34.2186 Y1.5837
G01 X34.2247 Y1.5869
G01 X34.2613 Y1.6090
G01 X34.2956 Y1.6343
G01 X34.3010 Y1.6387
G01 X34.3326 Y1.6674
G01 X35.3338 Y2.6687
G01 X35.3635 Y2.7016
G01 X35.3910 Y2.7387
G01 X35.4148 Y2.7783
G01 X35.4345 Y2.8200
G01 X35.4500 Y2.8635
G01 X35.4613 Y2.9082
G01 X35.4680 Y2.9539
G01 X35.4703 Y2.9983
G01 X35.4703 Y5.3052
G01 X35.6948 Y5.5297
G01 X36.2799 Y5.5297
G01 X36.2800 Y5.4466
G01 X36.2807 Y5.4397
G01 X36.2820 Y5.4330
G01 X36.2840 Y5.4264
G01 X36.2859 Y5.4216
G01 X36.2908 Y5.4125
G01 X36.2958 Y5.4055
G01 X36.3029 Y5.3981
G01 X36.3111 Y5.3917
G01 X36.3200 Y5.3866
G01 X36.3297 Y5.3829
G01 X36.3397 Y5.3807
G01 X36.3483 Y5.3799
G01 X38.8517 Y5.3799
G01 X38.8586 Y5.3804
G01 X38.8637 Y5.3812
G01 X38.8687 Y5.3824
G01 X38.8752 Y5.3846
G01 X38.8815 Y5.3874
G01 X38.8860 Y5.3899
G01 X38.8904 Y5.3927
G01 X38.8958 Y5.3969
G01 X38.9008 Y5.4017
G01 X38.9042 Y5.4055
G01 X38.9073 Y5.4096
G01 X38.9110 Y5.4154
G01 X38.9134 Y5.4200
G01 X38.9160 Y5.4264
G01 X38.9180 Y5.4330
G01 X38.9193 Y5.4397
G01 X38.9201 Y5.4500
G01 X38.9201 Y6.5517
G01 X38.9196 Y6.5586
G01 X38.9188 Y6.5637
G01 X38.9171 Y6.5703
G01 X38.9148 Y6.5768
G01 X38.9118 Y6.5830
G01 X38.9092 Y6.5875
G01 X38.9053 Y6.5931
G01 X38.9019 Y6.5971
G01 X38.8971 Y6.6019
G01 X38.8918 Y6.6063
G01 X38.8860 Y6.6101
G01 X38.8800 Y6.6134
G01 X38.8736 Y6.6160
G01 X38.8670 Y6.6180
G01 X38.8603 Y6.6193
G01 X38.8517 Y6.6201
G01 X37.8703 Y6.6201
G01 X37.8703 Y7.0799
G01 X38.8517 Y7.0799
G01 X38.8603 Y7.0807
G01 X38.8687 Y7.0824
G01 X38.8768 Y7.0852
G01 X38.8846 Y7.0890
G01 X38.8918 Y7.0937
G01 X38.8983 Y7.0992
G01 X38.9042 Y7.1055
G01 X38.9092 Y7.1125
G01 X38.9134 Y7.1200
G01 X38.9171 Y7.1297
G01 X38.9193 Y7.1397
G01 X38.9201 Y7.1500
G01 X38.9201 Y8.2500
G01 X38.9198 Y8.2569
G01 X38.9191 Y8.2620
G01 X38.9176 Y8.2687
G01 X38.9154 Y8.2752
G01 X38.9126 Y8.2815
G01 X38.9092 Y8.2875
G01 X38.9053 Y8.2931
G01 X38.9019 Y8.2971
G01 X38.8971 Y8.3019
G01 X38.8918 Y8.3063
G01 X38.8860 Y8.3101
G01 X38.8800 Y8.3134
G01 X38.8736 Y8.3160
G01 X38.8670 Y8.3180
G01 X38.8620 Y8.3191
G01 X38.8552 Y8.3199
G01 X37.8703 Y8.3201
G01 X37.8703 Y10.6017
G01 X37.8680 Y10.6461
G01 X37.8613 Y10.6918
G01 X37.8500 Y10.7365
G01 X37.8338 Y10.7816
G01 X37.8148 Y10.8217
G01 X37.7910 Y10.8613
G01 X37.7635 Y10.8984
G01 X37.7326 Y10.9326
G01 X35.4703 Y13.1948
G01 X35.4703 Y35.5297
G01 X36.2799 Y35.5297
G01 X36.2800 Y35.4466
G01 X36.2804 Y35.4414
G01 X36.2816 Y35.4346
G01 X36.2834 Y35.4280
G01 X36.2859 Y35.4216
G01 X36.2899 Y35.4140
G01 X36.2958 Y35.4055
G01 X36.3017 Y35.3992
G01 X36.3096 Y35.3927
G01 X36.3185 Y35.3874
G01 X36.3280 Y35.3834
G01 X36.3380 Y35.3809
G01 X36.3466 Y35.3800
G01 X38.8500 Y35.3799
G01 X38.8603 Y35.3807
G01 X38.8703 Y35.3829
G01 X38.8800 Y35.3866
G01 X38.8846 Y35.3890
G01 X38.8904 Y35.3927
G01 X38.8983 Y35.3992
G01 X38.9053 Y35.4069
G01 X38.9110 Y35.4154
G01 X38.9134 Y35.4200
G01 X38.9160 Y35.4264
G01 X38.9188 Y35.4363
G01 X38.9200 Y35.4466
G01 X38.9201 Y36.5500
G01 X38.9198 Y36.5569
G01 X38.9188 Y36.5637
G01 X38.9171 Y36.5703
G01 X38.9148 Y36.5768
G01 X38.9118 Y36.5830
G01 X38.9083 Y36.5889
G01 X38.9042 Y36.5945
G01 X38.8996 Y36.5996
G01 X38.8945 Y36.6042
G01 X38.8904 Y36.6073
G01 X38.8846 Y36.6110
G01 X38.8784 Y36.6141
G01 X38.8720 Y36.6166
G01 X38.8654 Y36.6184
G01 X38.8586 Y36.6196
G01 X38.8517 Y36.6201
G01 X36.3483 Y36.6201
G01 X36.3397 Y36.6193
G01 X36.3297 Y36.6171
G01 X36.3200 Y36.6134
G01 X36.3111 Y36.6083
G01 X36.3029 Y36.6019
G01 X36.2969 Y36.5958
G01 X36.2908 Y36.5875
G01 X36.2859 Y36.5784
G01 X36.2834 Y36.5720
G01 X36.2816 Y36.5654
G01 X36.2807 Y36.5603
G01 X36.2800 Y36.5534
G01 X36.2799 Y36.4703
G01 X35.4703 Y36.4703
G01 X35.4703 Y36.8052
G01 X35.8948 Y37.2297
G01 X36.2799 Y37.2297
G01 X36.2800 Y37.1466
G01 X36.2804 Y37.1414
G01 X36.2816 Y37.1346
G01 X36.2834 Y37.1280
G01 X36.2859 Y37.1216
G01 X36.2899 Y37.1140
G01 X36.2958 Y37.1055
G01 X36.3017 Y37.0992
G01 X36.3096 Y37.0927
G01 X36.3185 Y37.0874
G01 X36.3280 Y37.0834
G01 X36.3380 Y37.0809
G01 X36.3466 Y37.0800
G01 X38.8500 Y37.0799
G01 X38.8569 Y37.0802
G01 X38.8637 Y37.0812
G01 X38.8720 Y37.0834
G01 X38.8784 Y37.0859
G01 X38.8875 Y37.0908
G01 X38.8945 Y37.0958
G01 X38.9019 Y37.1029
G01 X38.9083 Y37.1111
G01 X38.9134 Y37.1200
G01 X38.9171 Y37.1297
G01 X38.9193 Y37.1397
G01 X38.9201 Y37.1483
G01 X38.9201 Y38.2517
G01 X38.9196 Y38.2586
G01 X38.9184 Y38.2654
G01 X38.9171 Y38.2703
G01 X38.9148 Y38.2768
G01 X38.9126 Y38.2815
G01 X38.9092 Y38.2875
G01 X38.9053 Y38.2931
G01 X38.9008 Y38.2983
G01 X38.8958 Y38.3031
G01 X38.8904 Y38.3073
G01 X38.8846 Y38.3110
G01 X38.8784 Y38.3141
G01 X38.8720 Y38.3166
G01 X38.8654 Y38.3184
G01 X38.8586 Y38.3196
G01 X38.8500 Y38.3201
G01 X36.3466 Y38.3200
G01 X36.3363 Y38.3188
G01 X36.3280 Y38.3166
G01 X36.3200 Y38.3134
G01 X36.3111 Y38.3083
G01 X36.3029 Y38.3019
G01 X36.2969 Y38.2958
G01 X36.2908 Y38.2875
G01 X36.2859 Y38.2784
G01 X36.2834 Y38.2720
G01 X36.2816 Y38.2654
G01 X36.2807 Y38.2603
G01 X36.2800 Y38.2534
G01 X36.2799 Y38.1703
G01 X35.7000 Y38.1703
G01 X35.6556 Y38.1682
G01 X35.6082 Y38.1613
G01 X35.5635 Y38.1500
G01 X35.5184 Y38.1338
G01 X35.4798 Y38.1156
G01 X35.4703 Y38.1101
G01 X35.4703 Y39.0000
G01 X35.4682 Y39.0444
G01 X35.4613 Y39.0918
G01 X35.4510 Y39.1332
G01 X35.4490 Y39.1398
G01 X35.4345 Y39.1800
G01 X35.4163 Y39.2186
G01 X35.4131 Y39.2247
G01 X35.3929 Y39.2584
G01 X35.3891 Y39.2641
G01 X35.3635 Y39.2984
G01 X35.3326 Y39.3326
G01 X34.3326 Y40.3326
G01 X34.3010 Y40.3613
G01 X34.2956 Y40.3657
G01 X34.2641 Y40.3891
G01 X34.2584 Y40.3929
G01 X34.2217 Y40.4148
G01 X34.1800 Y40.4345
G01 X34.1365 Y40.4500
G01 X34.0951 Y40.4605
G01 X34.0884 Y40.4619
G01 X34.0444 Y40.4682
G01 X34.0000 Y40.4703
G01 X5.9966 Y40.4702
G01 X5.9539 Y40.4680
G01 X5.9082 Y40.4613
G01 X5.8635 Y40.4500
G01 X5.8232 Y40.4357
G01 X5.8169 Y40.4331
G01 X5.7814 Y40.4163
G01 X5.7753 Y40.4131
G01 X5.7387 Y40.3910
G01 X5.7044 Y40.3657
G01 X5.6990 Y40.3613
G01 X5.6674 Y40.3326
G01 X4.6662 Y39.3313
G01 X4.6365 Y39.2984
G01 X4.6090 Y39.2613
G01 X4.5852 Y39.2217
G01 X4.5655 Y39.1800
G01 X4.5500 Y39.1365
G01 X4.5387 Y39.0918
G01 X4.5320 Y39.0461
G01 X4.5297 Y39.0017
G01 X4.5297 Y36.6948
G01 X4.3052 Y36.4703
G01 X3.7201 Y36.4703
G01 X3.7200 Y36.5534
G01 X3.7193 Y36.5603
G01 X3.7180 Y36.5670
G01 X3.7166 Y36.5720
G01 X3.7141 Y36.5784
G01 X3.7092 Y36.5875
G01 X3.7031 Y36.5958
G01 X3.6958 Y36.6031
G01 X3.6889 Y36.6083
G01 X3.6800 Y36.6134
G01 X3.6720 Y36.6166
G01 X3.6620 Y36.6191
G01 X3.6517 Y36.6201
G01 X1.1483 Y36.6201
G01 X1.1431 Y36.6198
G01 X1.1363 Y36.6188
G01 X1.1297 Y36.6171
G01 X1.1248 Y36.6154
G01 X1.1200 Y36.6134
G01 X1.1140 Y36.6101
G01 X1.1096 Y36.6073
G01 X1.1042 Y36.6031
G01 X1.1004 Y36.5996
G01 X1.0958 Y36.5945
G01 X1.0927 Y36.5904
G01 X1.0890 Y36.5846
G01 X1.0859 Y36.5784
G01 X1.0834 Y36.5720
G01 X1.0820 Y36.5670
G01 X1.0807 Y36.5603
G01 X1.0799 Y36.5500
G01 X1.0799 Y35.4483
G01 X1.0802 Y35.4431
G01 X1.0812 Y35.4363
G01 X1.0824 Y35.4313
G01 X1.0846 Y35.4248
G01 X1.0874 Y35.4185
G01 X1.0908 Y35.4125
G01 X1.0937 Y35.4082
G01 X1.0981 Y35.4029
G01 X1.1029 Y35.3981
G01 X1.1082 Y35.3937
G01 X1.1140 Y35.3899
G01 X1.1200 Y35.3866
G01 X1.1264 Y35.3840
G01 X1.1346 Y35.3816
G01 X1.1414 Y35.3804
G01 X1.1483 Y35.3799
G01 X2.1297 Y35.3799
G01 X2.1297 Y34.9201
G01 X1.1483 Y34.9201
G01 X1.1397 Y34.9193
G01 X1.1313 Y34.9176
G01 X1.1232 Y34.9148
G01 X1.1154 Y34.9110
G01 X1.1082 Y34.9063
G01 X1.1017 Y34.9008
G01 X1.0958 Y34.8945
G01 X1.0908 Y34.8875
G01 X1.0859 Y34.8784
G01 X1.0829 Y34.8703
G01 X1.0807 Y34.8603
G01 X1.0799 Y34.8500
G01 X1.0799 Y33.7500
G01 X1.0802 Y33.7431
G01 X1.0809 Y33.7380
G01 X1.0824 Y33.7313
G01 X1.0846 Y33.7248
G01 X1.0874 Y33.7185
G01 X1.0908 Y33.7125
G01 X1.0937 Y33.7082
G01 X1.0981 Y33.7029
G01 X1.1029 Y33.6981
G01 X1.1082 Y33.6937
G01 X1.1140 Y33.6899
G01 X1.1200 Y33.6866
G01 X1.1264 Y33.6840
G01 X1.1330 Y33.6820
G01 X1.1397 Y33.6807
G01 X1.1448 Y33.6801
G01 X2.1297 Y33.6799
G01 X2.1297 Y13.4000
G01 X2.1322 Y13.3522
G01 X2.1387 Y13.3082
G01 X2.1500 Y13.2635
G01 X2.1655 Y13.2200
G01 X2.1837 Y13.1814
G01 X2.1869 Y13.1753
G01 X2.2071 Y13.1416
G01 X2.2109 Y13.1359
G01 X2.2365 Y13.1016
G01 X2.2662 Y13.0687
G01 X4.5297 Y10.8052
G01 X4.5297 Y6.4703
G01 X3.7201 Y6.4703
G01 X3.7200 Y6.5534
G01 X3.7193 Y6.5603
G01 X3.7184 Y6.5654
G01 X3.7166 Y6.5720
G01 X3.7141 Y6.5784
G01 X3.7092 Y6.5875
G01 X3.7042 Y6.5945
G01 X3.6971 Y6.6019
G01 X3.6889 Y6.6083
G01 X3.6800 Y6.6134
G01 X3.6720 Y6.6166
G01 X3.6620 Y6.6191
G01 X3.6534 Y6.6200
G01 X1.1500 Y6.6201
G01 X1.1397 Y6.6193
G01 X1.1297 Y6.6171
G01 X1.1200 Y6.6134
G01 X1.1154 Y6.6110
G01 X1.1096 Y6.6073
G01 X1.1017 Y6.6008
G01 X1.0947 Y6.5931
G01 X1.0890 Y6.5846
G01 X1.0846 Y6.5752
G01 X1.0816 Y6.5654
G01 X1.0807 Y6.5603
G01 X1.0800 Y6.5534
G01 X1.0799 Y5.4500
G01 X1.0802 Y5.4431
G01 X1.0809 Y5.4380
G01 X1.0824 Y5.4313
G01 X1.0840 Y5.4264
G01 X1.0866 Y5.4200
G01 X1.0890 Y5.4154
G01 X1.0927 Y5.4096
G01 X1.0969 Y5.4042
G01 X1.1017 Y5.3992
G01 X1.1069 Y5.3947
G01 X1.1111 Y5.3917
G01 X1.1170 Y5.3882
G01 X1.1232 Y5.3852
G01 X1.1280 Y5.3834
G01 X1.1346 Y5.3816
G01 X1.1414 Y5.3804
G01 X1.1483 Y5.3799
G01 X3.6517 Y5.3799
G01 X3.6603 Y5.3807
G01 X3.6703 Y5.3829
G01 X3.6800 Y5.3866
G01 X3.6889 Y5.3917
G01 X3.6971 Y5.3981
G01 X3.7042 Y5.4055
G01 X3.7092 Y5.4125
G01 X3.7141 Y5.4216
G01 X3.7166 Y5.4280
G01 X3.7184 Y5.4346
G01 X3.7193 Y5.4397
G01 X3.7200 Y5.4466
G01 X3.7201 Y5.5297
G01 X4.5297 Y5.5297
G01 X4.5297 Y5.1948
G01 X4.1052 Y4.7703
G01 X3.7201 Y4.7703
G01 X3.7200 Y4.8534
G01 X3.7193 Y4.8603
G01 X3.7184 Y4.8654
G01 X3.7166 Y4.8720
G01 X3.7141 Y4.8784
G01 X3.7092 Y4.8875
G01 X3.7042 Y4.8945
G01 X3.6971 Y4.9019
G01 X3.6889 Y4.9083
G01 X3.6800 Y4.9134
G01 X3.6720 Y4.9166
G01 X3.6620 Y4.9191
G01 X3.6534 Y4.9200
G01 X1.1500 Y4.9201
G01 X1.1431 Y4.9198
G01 X1.1363 Y4.9188
G01 X1.1297 Y4.9171
G01 X1.1232 Y4.9148
G01 X1.1140 Y4.9101
G01 X1.1055 Y4.9042
G01 X1.0992 Y4.8983
G01 X1.0927 Y4.8904
G01 X1.0874 Y4.8815
G01 X1.0834 Y4.8720
G01 X1.0812 Y4.8637
G01 X1.0800 Y4.8534
G01 X1.0799 Y3.7500
G01 X0.5748 Y4.1035
G01 X0.5748 Y7.6367
G01 X0.5752 Y7.1461
G01 X0.5761 Y7.1172
G01 X0.5785 Y7.0883
G01 X0.5828 Y7.0566
G01 X0.5888 Y7.0258
G01 X0.5966 Y6.9945
G01 X0.6059 Y6.9646
G01 X0.6171 Y6.9346
G01 X0.6296 Y6.9059
G01 X0.6439 Y6.8775
G01 X0.6597 Y6.8500
G01 X0.6508 Y6.8349
G01 X0.6422 Y6.8194
G01 X0.6344 Y6.8041
G01 X0.6267 Y6.7879
G01 X0.6199 Y6.7722
G01 X0.6131 Y6.7552
G01 X0.6072 Y6.7391
G01 X0.6016 Y6.7221
G01 X0.5966 Y6.7056
G01 X0.5920 Y6.6880
G01 X0.5881 Y6.6712
G01 X0.5846 Y6.6537
G01 X0.5818 Y6.6367
G01 X0.5793 Y6.6186
G01 X0.5775 Y6.6015
G01 X0.5762 Y6.5839
G01 X0.5752 Y6.5501
G01 X0.5752 Y5.4500
G01 X0.5755 Y5.4305
G01 X0.5764 Y5.4119
G01 X0.5781 Y5.3926
G01 X0.5801 Y5.3748
G01 X0.5828 Y5.3566
G01 X0.5860 Y5.3389
G01 X0.5901 Y5.3200
G01 X0.5945 Y5.3022
G01 X0.5994 Y5.2849
G01 X0.6050 Y5.2673
G01 X0.6109 Y5.2506
G01 X0.6178 Y5.2327
G01 X0.6252 Y5.2155
G01 X0.6328 Y5.1992
G01 X0.6411 Y5.1827
G01 X0.6505 Y5.1656
G01 X0.6597 Y5.1500
G01 X0.6510 Y5.1354
G01 X0.6426 Y5.1201
G01 X0.6280 Y5.0907
G01 X0.6148 Y5.0596
G01 X0.6034 Y5.0279
G01 X0.5939 Y4.9955
G01 X0.5865 Y4.9634
G01 X0.5808 Y4.9301
G01 X0.5771 Y4.8965
G01 X0.5757 Y4.8736
G01 X0.5752 Y4.8508
G01 X0.5752 Y4.1035
G01 X0.5748 Y4.1035
G01 X0.4907 Y4.0064
G01 X0.4907 Y7.9901
G01 X0.5106 Y7.9861
G01 X0.5318 Y7.9827
G01 X0.5526 Y7.9804
G01 X0.5733 Y7.9789
G01 X0.5928 Y7.9783
G01 X0.6125 Y7.9785
G01 X0.6286 Y7.9792
G01 X0.6587 Y7.9813
G01 X0.6593 Y7.1493
G01 X0.6598 Y7.1275
G01 X0.6613 Y7.1056
G01 X0.6633 Y7.0879
G01 X0.6657 Y7.0711
G01 X0.6689 Y7.0533
G01 X0.6724 Y7.0376
G01 X0.6765 Y7.0211
G01 X0.6816 Y7.0037
G01 X0.6871 Y6.9871
G01 X0.6931 Y6.9710
G01 X0.6999 Y6.9546
G01 X0.7073 Y6.9383
G01 X0.7153 Y6.9223
G01 X0.7236 Y6.9072
G01 X0.7318 Y6.8933
G01 X0.7414 Y6.8784
G01 X0.7512 Y6.8641
G01 X0.7617 Y6.8500
G01 X0.7510 Y6.8356
G01 X0.7406 Y6.8206
G01 X0.7311 Y6.8055
G01 X0.7218 Y6.7897
G01 X0.7134 Y6.7740
G01 X0.7054 Y6.7576
G01 X0.6981 Y6.7412
G01 X0.6914 Y6.7246
G01 X0.6853 Y6.7077
G01 X0.6798 Y6.6903
G01 X0.6750 Y6.6731
G01 X0.6708 Y6.6555
G01 X0.6672 Y6.6378
G01 X0.6643 Y6.6200
G01 X0.6621 Y6.6022
G01 X0.6605 Y6.5847
G01 X0.6596 Y6.5671
G01 X0.6593 Y6.5501
G01 X0.6593 Y5.4500
G01 X0.6596 Y5.4328
G01 X0.6607 Y5.4129
G01 X0.6624 Y5.3945
G01 X0.6650 Y5.3756
G01 X0.6682 Y5.3568
G01 X0.6721 Y5.3385
G01 X0.6768 Y5.3202
G01 X0.6825 Y5.3010
G01 X0.6885 Y5.2832
G01 X0.6952 Y5.2657
G01 X0.7029 Y5.2479
G01 X0.7108 Y5.2312
G01 X0.7196 Y5.2143
G01 X0.7296 Y5.1968
G01 X0.7394 Y5.1813
G01 X0.7502 Y5.1655
G01 X0.7617 Y5.1500
G01 X0.7512 Y5.1359
G01 X0.7414 Y5.1216
G01 X0.7318 Y5.1067
G01 X0.7236 Y5.0928
G01 X0.7153 Y5.0777
G01 X0.7073 Y5.0617
G01 X0.6999 Y5.0454
G01 X0.6931 Y5.0290
G01 X0.6871 Y5.0129
G01 X0.6816 Y4.9963
G01 X0.6765 Y4.9789
G01 X0.6724 Y4.9624
G01 X0.6689 Y4.9467
G01 X0.6657 Y4.9289
G01 X0.6633 Y4.9121
G01 X0.6613 Y4.8944
G01 X0.6598 Y4.8720
G01 X0.6593 Y4.8506
G01 X0.6593 Y4.8501
G01 X0.6593 Y4.0230
G01 X0.6427 Y4.0233
G01 X0.6260 Y4.0231
G01 X0.6102 Y4.0223
G01 X0.5940 Y4.0210
G01 X0.5731 Y4.0185
G01 X0.4907 Y4.0064
G01 X0.4066 Y3.8937
G01 X0.4066 Y8.1103
G01 X0.4243 Y8.1014
G01 X0.4425 Y8.0933
G01 X0.4604 Y8.0864
G01 X0.4788 Y8.0803
G01 X0.4980 Y8.0749
G01 X0.5156 Y8.0708
G01 X0.5347 Y8.0673
G01 X0.5547 Y8.0647
G01 X0.5708 Y8.0633
G01 X0.5878 Y8.0625
G01 X0.6036 Y8.0624
G01 X0.6192 Y8.0629
G01 X0.7051 Y8.0691
G01 X0.7238 Y8.0712
G01 X0.7434 Y8.0744
G01 X0.7434 Y7.1495
G01 X0.7440 Y7.1280
G01 X0.7458 Y7.1063
G01 X0.7483 Y7.0873
G01 X0.7515 Y7.0694
G01 X0.7554 Y7.0522
G01 X0.7603 Y7.0340
G01 X0.7659 Y7.0167
G01 X0.7722 Y6.9998
G01 X0.7796 Y6.9824
G01 X0.7874 Y6.9660
G01 X0.7957 Y6.9505
G01 X0.8054 Y6.9342
G01 X0.8154 Y6.9191
G01 X0.8259 Y6.9045
G01 X0.8377 Y6.8897
G01 X0.8496 Y6.8760
G01 X0.8618 Y6.8632
G01 X0.8756 Y6.8500
G01 X0.8618 Y6.8368
G01 X0.8494 Y6.8238
G01 X0.8370 Y6.8095
G01 X0.8253 Y6.7947
G01 X0.8143 Y6.7793
G01 X0.8043 Y6.7640
G01 X0.7947 Y6.7477
G01 X0.7859 Y6.7310
G01 X0.7779 Y6.7138
G01 X0.7710 Y6.6973
G01 X0.7646 Y6.6795
G01 X0.7590 Y6.6614
G01 X0.7542 Y6.6431
G01 X0.7505 Y6.6253
G01 X0.7474 Y6.6066
G01 X0.7452 Y6.5878
G01 X0.7439 Y6.5687
G01 X0.7434 Y6.5501
G01 X0.7434 Y5.4500
G01 X0.7438 Y5.4319
G01 X0.7452 Y5.4119
G01 X0.7476 Y5.3921
G01 X0.7509 Y5.3725
G01 X0.7552 Y5.3530
G01 X0.7604 Y5.3337
G01 X0.7666 Y5.3147
G01 X0.7737 Y5.2961
G01 X0.7817 Y5.2778
G01 X0.7906 Y5.2599
G01 X0.8003 Y5.2425
G01 X0.8109 Y5.2256
G01 X0.8224 Y5.2093
G01 X0.8346 Y5.1935
G01 X0.8475 Y5.1783
G01 X0.8612 Y5.1638
G01 X0.8756 Y5.1500
G01 X0.8618 Y5.1368
G01 X0.8496 Y5.1240
G01 X0.8377 Y5.1103
G01 X0.8259 Y5.0955
G01 X0.8154 Y5.0809
G01 X0.8054 Y5.0658
G01 X0.7957 Y5.0495
G01 X0.7874 Y5.0340
G01 X0.7796 Y5.0176
G01 X0.7722 Y5.0002
G01 X0.7659 Y4.9833
G01 X0.7603 Y4.9660
G01 X0.7554 Y4.9478
G01 X0.7515 Y4.9306
G01 X0.7483 Y4.9127
G01 X0.7458 Y4.8937
G01 X0.7440 Y4.8720
G01 X0.7434 Y4.8505
G01 X0.7434 Y4.8500
G01 X0.7434 Y3.9264
G01 X0.7261 Y3.9304
G01 X0.7084 Y3.9338
G01 X0.6911 Y3.9363
G01 X0.6731 Y3.9380
G01 X0.6561 Y3.9390
G01 X0.6380 Y3.9392
G01 X0.6206 Y3.9386
G01 X0.6025 Y3.9373
G01 X0.5854 Y3.9352
G01 X0.5125 Y3.9248
G01 X0.4983 Y3.9223
G01 X0.4841 Y3.9194
G01 X0.4640 Y3.9144
G01 X0.4447 Y3.9085
G01 X0.4254 Y3.9015
G01 X0.4066 Y3.8937
G00 Z2.0000
G00 X0.9117 Y7.1500
G01 F400.00
G01 Z-0.0750
G01 F400.00
G01 X0.9119 Y7.1393
G01 X0.9127 Y7.1277
G01 X0.9139 Y7.1171
G01 X0.9158 Y7.1055
G01 X0.9209 Y7.0844
G01 X0.9243 Y7.0733
G01 X0.9280 Y7.0633
G01 X0.9325 Y7.0525
G01 X0.9376 Y7.0419
G01 X0.9481 Y7.0234
G01 X0.9540 Y7.0145
G01 X0.9608 Y7.0050
G01 X0.9748 Y6.9884
G01 X0.9829 Y6.9800
G01 X0.9915 Y6.9720
G01 X1.0004 Y6.9645
G01 X1.0089 Y6.9580
G01 X1.0266 Y6.9461
G01 X1.0358 Y6.9408
G01 X1.0462 Y6.9354
G01 X1.0662 Y6.9269
G01 X1.0772 Y6.9231
G01 X1.0874 Y6.9200
G01 X1.1082 Y6.9154
G01 X1.1198 Y6.9136
G01 X1.1314 Y6.9124
G01 X1.1500 Y6.9117
G01 X3.6515 Y6.9117
G01 X3.6627 Y6.9120
G01 X3.6744 Y6.9129
G01 X3.6955 Y6.9160
G01 X3.7059 Y6.9183
G01 X3.7172 Y6.9213
G01 X3.7283 Y6.9249
G01 X3.7393 Y6.9290
G01 X3.7538 Y6.9354
G01 X3.7684 Y6.9431
G01 X3.7816 Y6.9513
G01 X3.7950 Y6.9608
G01 X3.8072 Y6.9709
G01 X3.8193 Y6.9822
G01 X3.8298 Y6.9935
G01 X3.8408 Y7.0072
G01 X3.8502 Y7.0208
G01 X3.8592 Y7.0358
G01 X3.8663 Y7.0500
G01 X3.8727 Y7.0652
G01 X3.8778 Y7.0798
G01 X3.8821 Y7.0958
G01 X3.8852 Y7.1113
G01 X3.8873 Y7.1277
G01 X3.8881 Y7.1393
G01 X3.8883 Y7.1500
G01 X3.8883 Y8.2538
G01 X3.8870 Y8.2754
G01 X3.8854 Y8.2870
G01 X3.8836 Y8.2975
G01 X3.8784 Y8.3182
G01 X3.8751 Y8.3283
G01 X3.8710 Y8.3393
G01 X3.8646 Y8.3538
G01 X3.8563 Y8.3693
G01 X3.8470 Y8.3841
G01 X3.8373 Y8.3974
G01 X3.8273 Y8.4093
G01 X3.8151 Y8.4219
G01 X3.8028 Y8.4329
G01 X3.7889 Y8.4437
G01 X3.7758 Y8.4525
G01 X3.7605 Y8.4612
G01 X3.7447 Y8.4687
G01 X3.7293 Y8.4747
G01 X3.7126 Y8.4800
G01 X3.6955 Y8.4840
G01 X3.6802 Y8.4864
G01 X3.6627 Y8.4880
G01 X3.6500 Y8.4883
G01 X1.1462 Y8.4883
G01 X1.1256 Y8.4871
G01 X1.1055 Y8.4842
G01 X1.0854 Y8.4794
G01 X1.0652 Y8.4727
G01 X1.0462 Y8.4646
G01 X1.0284 Y8.4550
G01 X1.0111 Y8.4437
G01 X1.0017 Y8.4366
G01 X0.9935 Y8.4298
G01 X0.9781 Y8.4151
G01 X0.9645 Y8.3996
G01 X0.9524 Y8.3833
G01 X0.9416 Y8.3657
G01 X0.9325 Y8.3475
G01 X0.9249 Y8.3283
G01 X0.9191 Y8.3089
G01 X0.9148 Y8.2887
G01 X0.9125 Y8.2696
G01 X0.9117 Y8.2500
G01 X0.9117 Y7.1500
G01 X0.9958 Y7.1500
G01 X0.9961 Y7.1397
G01 X0.9973 Y7.1284
G01 X0.9993 Y7.1172
G01 X1.0021 Y7.1062
G01 X1.0057 Y7.0955
G01 X1.0102 Y7.0850
G01 X1.0145 Y7.0764
G01 X1.0203 Y7.0666
G01 X1.0267 Y7.0573
G01 X1.0339 Y7.0485
G01 X1.0417 Y7.0402
G01 X1.0485 Y7.0339
G01 X1.0573 Y7.0267
G01 X1.0652 Y7.0212
G01 X1.0749 Y7.0153
G01 X1.0850 Y7.0102
G01 X1.1006 Y7.0039
G01 X1.1172 Y6.9993
G01 X1.1339 Y6.9966
G01 X1.1500 Y6.9958
G01 X3.6528 Y6.9958
G01 X3.6661 Y6.9966
G01 X3.6811 Y6.9990
G01 X3.6938 Y7.0021
G01 X3.7081 Y7.0071
G01 X3.7218 Y7.0135
G01 X3.7334 Y7.0203
G01 X3.7457 Y7.0291
G01 X3.7571 Y7.0390
G01 X3.7674 Y7.0501
G01 X3.7755 Y7.0604
G01 X3.7837 Y7.0731
G01 X3.7906 Y7.0866
G01 X3.7961 Y7.1006
G01 X3.8002 Y7.1152
G01 X3.8027 Y7.1284
G01 X3.8041 Y7.1435
G01 X3.8042 Y8.2500
G01 X3.8037 Y8.2624
G01 X3.8024 Y8.2736
G01 X3.8007 Y8.2828
G01 X3.7979 Y8.2938
G01 X3.7943 Y8.3045
G01 X3.7898 Y8.3150
G01 X3.7847 Y8.3251
G01 X3.7788 Y8.3348
G01 X3.7733 Y8.3427
G01 X3.7661 Y8.3515
G01 X3.7598 Y8.3583
G01 X3.7515 Y8.3661
G01 X3.7427 Y8.3733
G01 X3.7334 Y8.3797
G01 X3.7236 Y8.3855
G01 X3.7150 Y8.3898
G01 X3.7045 Y8.3943
G01 X3.6901 Y8.3989
G01 X3.6774 Y8.4018
G01 X3.6641 Y8.4036
G01 X3.6500 Y8.4042
G01 X1.1414 Y8.4040
G01 X1.1264 Y8.4024
G01 X1.1135 Y8.3998
G01 X1.1006 Y8.3961
G01 X1.0866 Y8.3906
G01 X1.0749 Y8.3847
G01 X1.0620 Y8.3767
G01 X1.0501 Y8.3674
G01 X1.0402 Y8.3583
G01 X1.0314 Y8.3486
G01 X1.0223 Y8.3365
G01 X1.0153 Y8.3251
G01 X1.0086 Y8.3115
G01 X1.0039 Y8.2994
G01 X0.9998 Y8.2848
G01 X0.9973 Y8.2716
G01 X0.9959 Y8.2565
G01 X0.9958 Y8.2500
G01 X0.9958 Y7.1500
G01 X1.0799 Y7.1500
G01 X1.0807 Y7.1397
G01 X1.0829 Y7.1297
G01 X1.0866 Y7.1200
G01 X1.0908 Y7.1125
G01 X1.0969 Y7.1042
G01 X1.1042 Y7.0969
G01 X1.1125 Y7.0908
G01 X1.1216 Y7.0859
G01 X1.1280 Y7.0834
G01 X1.1346 Y7.0816
G01 X1.1431 Y7.0802
G01 X1.1500 Y7.0799
G01 X3.6534 Y7.0800
G01 X3.6603 Y7.0807
G01 X3.6670 Y7.0820
G01 X3.6720 Y7.0834
G01 X3.6784 Y7.0859
G01 X3.6846 Y7.0890
G01 X3.6904 Y7.0927
G01 X3.6958 Y7.0969
G01 X3.7008 Y7.1017
G01 X3.7053 Y7.1069
G01 X3.7083 Y7.1111
G01 X3.7118 Y7.1170
G01 X3.7148 Y7.1232
G01 X3.7171 Y7.1297
G01 X3.7188 Y7.1363
G01 X3.7196 Y7.1414
G01 X3.7201 Y7.1483
G01 X3.7200 Y8.2534
G01 X3.7188 Y8.2637
G01 X3.7160 Y8.2736
G01 X3.7118 Y8.2830
G01 X3.7063 Y8.2918
G01 X3.6996 Y8.2996
G01 X3.6918 Y8.3063
G01 X3.6830 Y8.3118
G01 X3.6736 Y8.3160
G01 X3.6687 Y8.3176
G01 X3.6620 Y8.3191
G01 X3.6569 Y8.3198
G01 X3.6500 Y8.3201
G01 X1.1500 Y8.3201
G01 X1.1431 Y8.3198
G01 X1.1363 Y8.3188
G01 X1.1280 Y8.3166
G01 X1.1216 Y8.3141
G01 X1.1125 Y8.3092
G01 X1.1042 Y8.3031
G01 X1.0981 Y8.2971
G01 X1.0917 Y8.2889
G01 X1.0866 Y8.2800
G01 X1.0829 Y8.2703
G01 X1.0807 Y8.2603
G01 X1.0799 Y8.2517
G01 X1.0799 Y7.1500
G01 X0.3225 Y8.2615
G01 X0.3332 Y8.2524
G01 X0.3445 Y8.2436
G01 X0.3571 Y8.2347
G01 X0.3693 Y8.2269
G01 X0.3816 Y8.2198
G01 X0.4436 Y8.1859
G01 X0.4588 Y8.1782
G01 X0.4700 Y8.1730
G01 X0.4823 Y8.1680
G01 X0.5055 Y8.1601
G01 X0.5189 Y8.1564
G01 X0.5304 Y8.1537
G01 X0.5429 Y8.1512
G01 X0.5557 Y8.1493
G01 X0.5683 Y8.1479
G01 X0.5827 Y8.1469
G01 X0.5961 Y8.1465
G01 X0.6105 Y8.1467
G01 X0.6937 Y8.1525
G01 X0.7078 Y8.1540
G01 X0.7200 Y8.1557
G01 X0.7336 Y8.1582
G01 X0.7476 Y8.1615
G01 X0.7606 Y8.1651
G01 X0.7753 Y8.1699
G01 X0.7888 Y8.1750
G01 X0.8019 Y8.1807
G01 X0.8149 Y8.1870
G01 X0.8275 Y8.1938
G01 X0.8275 Y7.1500
G01 X0.8275 Y7.1492
G01 X0.8285 Y7.1247
G01 X0.8313 Y7.1012
G01 X0.8352 Y7.0804
G01 X0.8405 Y7.0594
G01 X0.8469 Y7.0399
G01 X0.8546 Y7.0207
G01 X0.8634 Y7.0023
G01 X0.8740 Y6.9833
G01 X0.8855 Y6.9656
G01 X0.8977 Y6.9492
G01 X0.9118 Y6.9327
G01 X0.9265 Y6.9175
G01 X0.9417 Y6.9038
G01 X0.9587 Y6.8904
G01 X0.9762 Y6.8784
G01 X0.9938 Y6.8679
G01 X1.0131 Y6.8581
G01 X1.0318 Y6.8500
G01 X1.0131 Y6.8419
G01 X0.9938 Y6.8321
G01 X0.9762 Y6.8216
G01 X0.9587 Y6.8096
G01 X0.9417 Y6.7962
G01 X0.9258 Y6.7818
G01 X0.9118 Y6.7673
G01 X0.8974 Y6.7504
G01 X0.8846 Y6.7331
G01 X0.8729 Y6.7149
G01 X0.8627 Y6.6964
G01 X0.8540 Y6.6778
G01 X0.8460 Y6.6577
G01 X0.8396 Y6.6375
G01 X0.8347 Y6.6176
G01 X0.8308 Y6.5958
G01 X0.8283 Y6.5727
G01 X0.8275 Y6.5503
G01 X0.8275 Y5.4500
G01 X0.8282 Y5.4289
G01 X0.8306 Y5.4058
G01 X0.8344 Y5.3841
G01 X0.8399 Y5.3615
G01 X0.8469 Y5.3399
G01 X0.8556 Y5.3184
G01 X0.8651 Y5.2989
G01 X0.8767 Y5.2788
G01 X0.8895 Y5.2600
G01 X0.9038 Y5.2417
G01 X0.9186 Y5.2254
G01 X0.9354 Y5.2094
G01 X0.9528 Y5.1948
G01 X0.9717 Y5.1813
G01 X0.9902 Y5.1699
G01 X1.0107 Y5.1592
G01 X1.0318 Y5.1500
G01 X1.0131 Y5.1419
G01 X0.9938 Y5.1321
G01 X0.9762 Y5.1216
G01 X0.9587 Y5.1096
G01 X0.9417 Y5.0962
G01 X0.9265 Y5.0825
G01 X0.9118 Y5.0673
G01 X0.8977 Y5.0508
G01 X0.8855 Y5.0344
G01 X0.8740 Y5.0167
G01 X0.8634 Y4.9977
G01 X0.8546 Y4.9793
G01 X0.8469 Y4.9601
G01 X0.8405 Y4.9406
G01 X0.8352 Y4.9196
G01 X0.8313 Y4.8988
G01 X0.8285 Y4.8753
G01 X0.8275 Y4.8508
G01 X0.8275 Y3.8025
G01 X0.7742 Y3.8268
G01 X0.7585 Y3.8334
G01 X0.7473 Y3.8375
G01 X0.7341 Y3.8417
G01 X0.7103 Y3.8478
G01 X0.6968 Y3.8504
G01 X0.6825 Y3.8526
G01 X0.6671 Y3.8541
G01 X0.6537 Y3.8549
G01 X0.6393 Y3.8551
G01 X0.6255 Y3.8547
G01 X0.6111 Y3.8536
G01 X0.5973 Y3.8520
G01 X0.5248 Y3.8415
G01 X0.5045 Y3.8378
G01 X0.4894 Y3.8341
G01 X0.4741 Y3.8296
G01 X0.4590 Y3.8243
G01 X0.4441 Y3.8183
G01 X0.4296 Y3.8115
G01 X0.4150 Y3.8038
G01 X0.4012 Y3.7956
G01 X0.3862 Y3.7855
G01 X0.3762 Y3.7782
G01 X0.3659 Y3.7699
G01 X0.3225 Y3.7323
G01 X0.3225 Y8.2615
G00 Z2.0000
G00 X3.7682 Y6.8500
G01 F400.00
G01 Z-0.0750
G01 F400.00
G01 X3.7869 Y6.8581
G01 X3.8067 Y6.8682
G01 X3.8251 Y6.8792
G01 X3.8433 Y6.8919
G01 X3.8598 Y6.9052
G01 X3.8762 Y6.9202
G01 X3.8910 Y6.9358
G01 X3.9048 Y6.9524
G01 X3.9172 Y6.9696
G01 X3.9290 Y6.9884
G01 X3.9387 Y7.0064
G01 X3.9475 Y7.0256
G01 X3.9552 Y7.0459
G01 X3.9615 Y7.0665
G01 X3.9665 Y7.0881
G01 X3.9698 Y7.1090
G01 X3.9718 Y7.1294
G01 X3.9725 Y7.1497
G01 X3.9724 Y8.2523
G01 X3.9715 Y8.2748
G01 X3.9691 Y8.2963
G01 X3.9650 Y8.3191
G01 X3.9593 Y8.3412
G01 X3.9778 Y8.3419
G01 X3.9970 Y8.3436
G01 X4.0818 Y8.3559
G01 X4.0981 Y8.3591
G01 X4.1136 Y8.3630
G01 X4.1289 Y8.3677
G01 X4.1435 Y8.3730
G01 X4.1602 Y8.3800
G01 X4.1766 Y8.3880
G01 X4.1937 Y8.3976
G01 X4.2085 Y8.4071
G01 X4.2207 Y8.4158
G01 X4.2329 Y8.4254
G01 X4.2773 Y8.4639
G01 X4.2773 Y6.7227
G01 X3.9223 Y6.7227
G01 X3.9081 Y6.7433
G01 X3.8921 Y6.7630
G01 X3.8746 Y6.7814
G01 X3.8558 Y6.7983
G01 X3.8459 Y6.8061
G01 X3.8348 Y6.8142
G01 X3.8136 Y6.8279
G01 X3.8029 Y6.8339
G01 X3.7907 Y6.8402
G01 X3.7682 Y6.8500
G01 X3.9244 Y6.8500
G01 X3.9437 Y6.8689
G01 X3.9623 Y6.8897
G01 X3.9716 Y6.9013
G01 X3.9800 Y6.9125
G01 X3.9951 Y6.9351
G01 X4.0092 Y6.9595
G01 X4.0210 Y6.9836
G01 X4.0315 Y7.0094
G01 X4.0402 Y7.0357
G01 X4.0471 Y7.0627
G01 X4.0520 Y7.0891
G01 X4.0552 Y7.1167
G01 X4.0565 Y7.1442
G01 X4.0566 Y8.2500
G01 X4.0562 Y8.2671
G01 X4.0982 Y8.2733
G01 X4.1134 Y8.2763
G01 X4.1286 Y8.2799
G01 X4.1452 Y8.2846
G01 X4.1612 Y8.2898
G01 X4.1781 Y8.2962
G01 X4.1932 Y8.3026
G01 X4.1932 Y6.8068
G01 X3.9652 Y6.8068
G01 X3.9557 Y6.8181
G01 X3.9457 Y6.8290
G01 X3.9351 Y6.8399
G01 X3.9244 Y6.8500
G01 X4.0667 Y6.8909
G01 X4.0789 Y6.9116
G01 X4.0900 Y6.9327
G01 X4.1001 Y6.9546
G01 X4.1090 Y6.9765
G01 X4.1090 Y6.8909
G01 X4.0667 Y6.8909
G00 Z2.0000
G00 X3.9244 Y5.1500
G01 F400.00
G01 Z-0.0750
G01 F400.00
G01 X3.9351 Y5.1601
G01 X3.9453 Y5.1706
G01 X3.9553 Y5.1815
G01 X3.9644 Y5.1922
G01 X4.0515 Y5.1924
G01 X3.9658 Y5.1068
G01 X3.9652 Y5.1068
G01 X3.9540 Y5.1200
G01 X3.9432 Y5.1317
G01 X3.9244 Y5.1500
G01 X3.7682 Y5.1500
G01 X3.7907 Y5.1598
G01 X3.8029 Y5.1661
G01 X3.8136 Y5.1721
G01 X3.8348 Y5.1858
G01 X3.8446 Y5.1929
G01 X3.8554 Y5.2014
G01 X3.8742 Y5.2182
G01 X3.8828 Y5.2269
G01 X3.8921 Y5.2370
G01 X3.9075 Y5.2558
G01 X3.9219 Y5.2767
G01 X4.2551 Y5.2771
G01 X4.0007 Y5.0227
G01 X3.9223 Y5.0227
G01 X3.9081 Y5.0433
G01 X3.8921 Y5.0630
G01 X3.8746 Y5.0814
G01 X3.8558 Y5.0983
G01 X3.8459 Y5.1061
G01 X3.8348 Y5.1142
G01 X3.8136 Y5.1279
G01 X3.8029 Y5.1339
G01 X3.7907 Y5.1402
G01 X3.7682 Y5.1500
G00 Z2.0000
G00 X4.2773 Y3.5360
G01 F400.00
G01 Z-0.0750
G01 F400.00
G01 X4.2533 Y3.5597
G01 X4.2433 Y3.5685
G01 X4.2325 Y3.5772
G01 X4.2773 Y3.5773
G01 X4.2773 Y3.5360
G00 Z2.0000
G00 X5.9645 Y3.1161
G01 F400.00
G01 Z-0.0750
G01 F400.00
G01 X5.9639 Y3.1054
G01 X5.9639 Y3.0935
G01 X5.9645 Y3.0817
G01 X5.9657 Y3.0699
G01 X5.9672 Y3.0593
G01 X5.9695 Y3.0476
G01 X5.9723 Y3.0361
G01 X5.9757 Y3.0248
G01 X5.9819 Y3.0082
G01 X5.9893 Y2.9920
G01 X6.0303 Y2.9169
G01 X6.0372 Y2.9059
G01 X6.0443 Y2.8958
G01 X6.0525 Y2.8853
G01 X6.0607 Y2.8760
G01 X6.1686 Y2.7679
G01 X6.1766 Y2.7603
G01 X6.1854 Y2.7527
G01 X6.2107 Y2.7323
G01 X6.2210 Y2.7247
G01 X6.2325 Y2.7172
G01 X6.2426 Y2.7113
G01 X6.2539 Y2.7054
G01 X6.2662 Y2.7000
G01 X6.2771 Y2.6958
G01 X6.2882 Y2.6921
G01 X6.3577 Y2.6717
G01 X6.3691 Y2.6686
G01 X6.3829 Y2.6658
G01 X6.3971 Y2.6637
G01 X6.4110 Y2.6625
G01 X6.4244 Y2.6622
G01 X20.4342 Y2.6622
G01 X20.4468 Y2.6625
G01 X20.4591 Y2.6635
G01 X20.4925 Y2.6673
G01 X20.5068 Y2.6696
G01 X20.5217 Y2.6663
G01 X20.5355 Y2.6641
G01 X20.5508 Y2.6626
G01 X20.5658 Y2.6622
G01 X33.5798 Y2.6622
G01 X33.6006 Y2.6635
G01 X33.6312 Y2.6668
G01 X33.6459 Y2.6691
G01 X33.6583 Y2.6717
G01 X33.6696 Y2.6748
G01 X33.6824 Y2.6790
G01 X33.6933 Y2.6832
G01 X33.7040 Y2.6879
G01 X33.7144 Y2.6932
G01 X33.7865 Y2.7328
G01 X33.7977 Y2.7400
G01 X33.8077 Y2.7472
G01 X33.8186 Y2.7560
G01 X33.8285 Y2.7650
G01 X33.9382 Y2.8749
G01 X33.9494 Y2.8870
G01 X33.9570 Y2.8961
G01 X33.9657 Y2.9077
G01 X33.9727 Y2.9184
G01 X33.9802 Y2.9313
G01 X33.9865 Y2.9439
G01 X34.0170 Y3.0107
G01 X34.0242 Y3.0289
G01 X34.0298 Y3.0468
G01 X34.0340 Y3.0662
G01 X34.0366 Y3.0848
G01 X34.0377 Y3.1025
G01 X34.0373 Y3.1220
G01 X34.0354 Y3.1413
G01 X34.0246 Y3.2158
G01 X34.0217 Y3.2304
G01 X34.0180 Y3.2446
G01 X34.0144 Y3.2558
G01 X34.0094 Y3.2688
G01 X34.0041 Y3.2806
G01 X33.9987 Y3.2911
G01 X33.9928 Y3.3014
G01 X33.9853 Y3.3127
G01 X33.9777 Y3.3231
G01 X33.9699 Y3.3327
G01 X33.9228 Y3.3871
G01 X33.9102 Y3.4003
G01 X33.8994 Y3.4102
G01 X33.8878 Y3.4196
G01 X33.8759 Y3.4281
G01 X33.8641 Y3.4355
G01 X33.8528 Y3.4417
G01 X33.8405 Y3.4476
G01 X33.8296 Y3.4521
G01 X33.8175 Y3.4564
G01 X33.7393 Y3.4795
G01 X33.7237 Y3.4831
G01 X33.7086 Y3.4857
G01 X33.6926 Y3.4873
G01 X33.6766 Y3.4878
G01 X31.1149 Y3.4878
G01 X31.0978 Y3.4897
G01 X31.0231 Y3.5175
G01 X30.9627 Y3.5627
G01 X30.9175 Y3.6231
G01 X30.8897 Y3.6978
G01 X30.8878 Y3.7149
G01 X30.8878 Y4.8851
G01 X30.8939 Y4.9415
G01 X30.8945 Y4.9521
G01 X30.8948 Y4.9637
G01 X30.8942 Y4.9783
G01 X30.8927 Y4.9936
G01 X30.8798 Y5.0728
G01 X30.8774 Y5.0840
G01 X30.8746 Y5.0941
G01 X30.8679 Y5.1138
G01 X30.8597 Y5.1324
G01 X30.8544 Y5.1425
G01 X30.8491 Y5.1516
G01 X30.8396 Y5.1659
G01 X30.8304 Y5.1779
G01 X30.7789 Y5.2375
G01 X30.7674 Y5.2496
G01 X30.7559 Y5.2602
G01 X30.7429 Y5.2707
G01 X30.7298 Y5.2798
G01 X30.7154 Y5.2884
G01 X30.7015 Y5.2956
G01 X30.6861 Y5.3021
G01 X30.6720 Y5.3071
G01 X30.5998 Y5.3283
G01 X30.5857 Y5.3320
G01 X30.5736 Y5.3344
G01 X30.5604 Y5.3363
G01 X30.5481 Y5.3374
G01 X30.5346 Y5.3378
G01 X26.9348 Y5.3378
G01 X26.8069 Y5.3633
G01 X26.6863 Y5.4132
G01 X26.5779 Y5.4857
G01 X25.9857 Y6.0779
G01 X25.9132 Y6.1864
G01 X25.8633 Y6.3069
G01 X25.8378 Y6.4348
G01 X25.8378 Y6.9919
G01 X25.8369 Y7.0091
G01 X25.8331 Y7.0444
G01 X25.8304 Y7.0607
G01 X25.8268 Y7.0761
G01 X25.8230 Y7.0890
G01 X25.8190 Y7.1000
G01 X25.8145 Y7.1108
G01 X25.8095 Y7.1213
G01 X25.7714 Y7.1914
G01 X25.7656 Y7.2012
G01 X25.7594 Y7.2107
G01 X25.7482 Y7.2256
G01 X25.7364 Y7.2392
G01 X25.6455 Y7.3302
G01 X25.5827 Y7.4321
G01 X25.5445 Y7.5474
G01 X25.5378 Y7.6121
G01 X25.5378 Y8.3879
G01 X25.5445 Y8.4526
G01 X25.5827 Y8.5679
G01 X25.6455 Y8.6698
G01 X25.6966 Y8.7209
G01 X25.7134 Y8.7391
G01 X25.7215 Y8.7491
G01 X25.7302 Y8.7612
G01 X25.7379 Y8.7735
G01 X25.7446 Y8.7856
G01 X25.7792 Y8.8607
G01 X25.7837 Y8.8717
G01 X25.7874 Y8.8818
G01 X25.7924 Y8.8988
G01 X25.7962 Y8.9162
G01 X25.7984 Y8.9317
G01 X25.7997 Y8.9494
G01 X25.7997 Y8.9672
G01 X25.7983 Y8.9849
G01 X25.7874 Y9.0614
G01 X25.7847 Y9.0764
G01 X25.7804 Y9.0936
G01 X25.7745 Y9.1114
G01 X25.7667 Y9.1296
G01 X25.7584 Y9.1454
G01 X25.7475 Y9.1627
G01 X25.7362 Y9.1778
G01 X25.6849 Y9.2371
G01 X25.6723 Y9.2503
G01 X25.6637 Y9.2584
G01 X25.6554 Y9.2654
G01 X25.6389 Y9.2775
G01 X25.6211 Y9.2884
G01 X25.6017 Y9.2980
G01 X25.5888 Y9.3032
G01 X25.5766 Y9.3074
G01 X25.4959 Y9.3309
G01 X25.4829 Y9.3337
G01 X25.4691 Y9.3359
G01 X25.4548 Y9.3373
G01 X25.4408 Y9.3378
G01 X21.6290 Y9.3378
G01 X21.6179 Y9.3376
G01 X21.6068 Y9.3368
G01 X21.5658 Y9.3317
G01 X21.5511 Y9.3292
G01 X21.5313 Y9.3244
G01 X21.5122 Y9.3180
G01 X21.4962 Y9.3112
G01 X21.4808 Y9.3032
G01 X21.4093 Y9.2602
G01 X21.3991 Y9.2533
G01 X21.3887 Y9.2455
G01 X21.3793 Y9.2375
G01 X21.3696 Y9.2284
G01 X21.2898 Y9.1420
G01 X21.1378 Y9.0237
G01 X20.9684 Y8.9321
G01 X20.7863 Y8.8695
G01 X20.5963 Y8.8378
G01 X20.5623 Y8.8378
G01 X20.5488 Y8.8372
G01 X20.5098 Y8.8330
G01 X20.4932 Y8.8304
G01 X20.4727 Y8.8347
G01 X20.4532 Y8.8371
G01 X20.4379 Y8.8378
G01 X20.4037 Y8.8378
G01 X20.2137 Y8.8695
G01 X20.0316 Y8.9321
G01 X19.8622 Y9.0237
G01 X19.7102 Y9.1420
G01 X19.5797 Y9.2837
G01 X19.4744 Y9.4450
G01 X19.3970 Y9.6214
G01 X19.3498 Y9.8081
G01 X19.3339 Y10.0000
G01 X19.3498 Y10.1919
G01 X19.3970 Y10.3786
G01 X19.4744 Y10.5550
G01 X19.5797 Y10.7163
G01 X19.7102 Y10.8580
G01 X19.8622 Y10.9763
G01 X20.0316 Y11.0679
G01 X20.2137 Y11.1305
G01 X20.4037 Y11.1622
G01 X20.5963 Y11.1622
G01 X20.6341 Y11.1559
G01 X20.7863 Y11.1305
G01 X20.9684 Y11.0679
G01 X21.1378 Y10.9763
G01 X21.2898 Y10.8580
G01 X21.3628 Y10.7787
G01 X21.3724 Y10.7688
G01 X21.3832 Y10.7591
G01 X21.4123 Y10.7347
G01 X21.4231 Y10.7264
G01 X21.4336 Y10.7194
G01 X21.4459 Y10.7120
G01 X21.4589 Y10.7053
G01 X21.4739 Y10.6987
G01 X21.4873 Y10.6938
G01 X21.5692 Y10.6698
G01 X21.5875 Y10.6658
G01 X21.6043 Y10.6634
G01 X21.6167 Y10.6625
G01 X21.6290 Y10.6622
G01 X25.4964 Y10.6623
G01 X25.5091 Y10.6631
G01 X25.5401 Y10.6664
G01 X25.5607 Y10.6696
G01 X25.5721 Y10.6722
G01 X25.5844 Y10.6756
G01 X25.5955 Y10.6793
G01 X25.6082 Y10.6844
G01 X25.6270 Y10.6934
G01 X25.6978 Y10.7323
G01 X25.7121 Y10.7415
G01 X25.7248 Y10.7511
G01 X25.8321 Y10.8173
G01 X25.9474 Y10.8555
G01 X26.0121 Y10.8622
G01 X26.9879 Y10.8622
G01 X27.0526 Y10.8555
G01 X27.1679 Y10.8173
G01 X27.2698 Y10.7545
G01 X27.3545 Y10.6698
G01 X27.4254 Y10.5548
G01 X27.4309 Y10.5447
G01 X27.4366 Y10.5353
G01 X27.4468 Y10.5205
G01 X27.4571 Y10.5076
G01 X27.5045 Y10.4530
G01 X27.5125 Y10.4445
G01 X27.5209 Y10.4364
G01 X27.5342 Y10.4251
G01 X27.5469 Y10.4157
G01 X27.5617 Y10.4063
G01 X27.5762 Y10.3984
G01 X27.5922 Y10.3912
G01 X27.6066 Y10.3859
G01 X27.6878 Y10.3614
G01 X27.7041 Y10.3577
G01 X27.7185 Y10.3554
G01 X27.7334 Y10.3539
G01 X27.7480 Y10.3534
G01 X27.7630 Y10.3538
G01 X27.7775 Y10.3551
G01 X27.7923 Y10.3574
G01 X27.8066 Y10.3605
G01 X27.8882 Y10.3837
G01 X27.9049 Y10.3897
G01 X27.9193 Y10.3960
G01 X27.9341 Y10.4037
G01 X27.9492 Y10.4131
G01 X27.9621 Y10.4224
G01 X27.9758 Y10.4338
G01 X27.9844 Y10.4420
G01 X27.9925 Y10.4505
G01 X28.0426 Y10.5073
G01 X28.0533 Y10.5206
G01 X28.0639 Y10.5360
G01 X28.0745 Y10.5547
G01 X28.1455 Y10.6698
G01 X28.2369 Y10.7614
G01 X28.2484 Y10.7746
G01 X28.2731 Y10.8058
G01 X28.2818 Y10.8186
G01 X28.2900 Y10.8329
G01 X28.2970 Y10.8471
G01 X28.3033 Y10.8624
G01 X28.3081 Y10.8766
G01 X28.3286 Y10.9465
G01 X28.3316 Y10.9580
G01 X28.3339 Y10.9691
G01 X28.3368 Y10.9906
G01 X28.3378 Y11.0122
G01 X28.3378 Y12.5756
G01 X28.3370 Y12.5959
G01 X28.3335 Y12.6290
G01 X28.3304 Y12.6486
G01 X28.3261 Y12.6666
G01 X28.3200 Y12.6853
G01 X28.3128 Y12.7024
G01 X28.3061 Y12.7158
G01 X28.2686 Y12.7842
G01 X28.2579 Y12.8008
G01 X28.2463 Y12.8158
G01 X28.2317 Y12.8319
G01 X27.8265 Y13.2369
G01 X27.8161 Y13.2461
G01 X27.7922 Y13.2654
G01 X27.7765 Y13.2771
G01 X27.7652 Y13.2843
G01 X27.7550 Y13.2900
G01 X27.7445 Y13.2953
G01 X27.7329 Y13.3004
G01 X27.7229 Y13.3042
G01 X27.7118 Y13.3079
G01 X27.6328 Y13.3309
G01 X27.6198 Y13.3337
G01 X27.6059 Y13.3359
G01 X27.5936 Y13.3372
G01 X27.5803 Y13.3378
G01 X14.5245 Y13.3378
G01 X14.5055 Y13.3371
G01 X14.4860 Y13.3347
G01 X14.4743 Y13.3325
G01 X14.4218 Y13.3211
G01 X14.4087 Y13.3178
G01 X14.3957 Y13.3137
G01 X14.3835 Y13.3092
G01 X14.3707 Y13.3036
G01 X14.3567 Y13.2963
G01 X14.3423 Y13.2876
G01 X14.3292 Y13.2783
G01 X14.3169 Y13.2684
G01 X14.2637 Y13.2223
G01 X14.2526 Y13.2120
G01 X14.2444 Y13.2035
G01 X14.2366 Y13.1946
G01 X14.2293 Y13.1853
G01 X14.2225 Y13.1756
G01 X14.2140 Y13.1620
G01 X14.2061 Y13.1473
G01 X14.1997 Y13.1330
G01 X14.1939 Y13.1173
G01 X14.1698 Y13.0353
G01 X14.1656 Y13.0160
G01 X14.1632 Y12.9972
G01 X14.1622 Y12.9755
G01 X14.1622 Y11.0070
G01 X14.1631 Y10.9909
G01 X14.1666 Y10.9583
G01 X14.1685 Y10.9451
G01 X14.1710 Y10.9326
G01 X14.1753 Y10.9166
G01 X14.1800 Y10.9026
G01 X14.1859 Y10.8883
G01 X14.1924 Y10.8750
G01 X14.2314 Y10.8037
G01 X14.2406 Y10.7893
G01 X14.2501 Y10.7764
G01 X14.2580 Y10.7670
G01 X14.2669 Y10.7574
G01 X14.3545 Y10.6698
G01 X14.4173 Y10.5679
G01 X14.4555 Y10.4526
G01 X14.4622 Y10.3879
G01 X14.4622 Y9.6121
G01 X14.4555 Y9.5474
G01 X14.4173 Y9.4321
G01 X14.3545 Y9.3302
G01 X14.2791 Y9.2548
G01 X14.2702 Y9.2453
G01 X14.2629 Y9.2366
G01 X14.2506 Y9.2196
G01 X14.2180 Y9.1689
G01 X14.2100 Y9.1550
G01 X14.2026 Y9.1398
G01 X14.1967 Y9.1252
G01 X14.1920 Y9.1109
G01 X14.1878 Y9.0946
G01 X14.1849 Y9.0791
G01 X14.1829 Y9.0619
G01 X14.1778 Y8.9906
G01 X14.1773 Y8.9691
G01 X14.1780 Y8.9541
G01 X14.1797 Y8.9396
G01 X14.1823 Y8.9249
G01 X14.1853 Y8.9123
G01 X14.1894 Y8.8983
G01 X14.1942 Y8.8852
G01 X14.2001 Y8.8718
G01 X14.2061 Y8.8599
G01 X14.2421 Y8.7940
G01 X14.2491 Y8.7826
G01 X14.2561 Y8.7724
G01 X14.2665 Y8.7590
G01 X14.2772 Y8.7471
G01 X14.3545 Y8.6698
G01 X14.4173 Y8.5679
G01 X14.4555 Y8.4526
G01 X14.4622 Y8.3879
G01 X14.4622 Y7.6121
G01 X14.4555 Y7.5474
G01 X14.4173 Y7.4321
G01 X14.3545 Y7.3302
G01 X14.2610 Y7.2364
G01 X14.2523 Y7.2263
G01 X14.2323 Y7.2014
G01 X14.2253 Y7.1920
G01 X14.2188 Y7.1823
G01 X14.2123 Y7.1713
G01 X14.2059 Y7.1591
G01 X14.2006 Y7.1475
G01 X14.1958 Y7.1350
G01 X14.1916 Y7.1225
G01 X14.1718 Y7.0549
G01 X14.1678 Y7.0394
G01 X14.1653 Y7.0263
G01 X14.1636 Y7.0141
G01 X14.1625 Y7.0011
G01 X14.1622 Y6.9883
G01 X14.1622 Y5.9348
G01 X14.1367 Y5.8069
G01 X14.0868 Y5.6863
G01 X14.0143 Y5.5779
G01 X12.2221 Y3.7857
G01 X12.1137 Y3.7132
G01 X11.9931 Y3.6633
G01 X11.8652 Y3.6378
G01 X9.2582 Y3.6378
G01 X9.2360 Y3.6371
G01 X9.2222 Y3.6360
G01 X9.2095 Y3.6342
G01 X9.1953 Y3.6313
G01 X9.1819 Y3.6278
G01 X9.1666 Y3.6227
G01 X9.0910 Y3.5943
G01 X9.0807 Y3.5896
G01 X9.0706 Y3.5844
G01 X9.0607 Y3.5788
G01 X9.0512 Y3.5727
G01 X9.0415 Y3.5659
G01 X8.9769 Y3.5175
G01 X8.9022 Y3.4897
G01 X8.8851 Y3.4878
G01 X6.3233 Y3.4878
G01 X6.3044 Y3.4873
G01 X6.2932 Y3.4866
G01 X6.2805 Y3.4851
G01 X6.2689 Y3.4831
G01 X6.2557 Y3.4801
G01 X6.2433 Y3.4766
G01 X6.2317 Y3.4727
G01 X6.1653 Y3.4479
G01 X6.1484 Y3.4408
G01 X6.1369 Y3.4351
G01 X6.1266 Y3.4292
G01 X6.1166 Y3.4229
G01 X6.1069 Y3.4161
G01 X6.0963 Y3.4077
G01 X6.0874 Y3.3999
G01 X6.0789 Y3.3916
G01 X6.0708 Y3.3830
G01 X6.0586 Y3.3680
G01 X6.0583 Y3.3676
G01 X6.0164 Y3.3117
G01 X6.0101 Y3.3029
G01 X6.0026 Y3.2911
G01 X5.9968 Y3.2808
G01 X5.9911 Y3.2693
G01 X5.9857 Y3.2568
G01 X5.9813 Y3.2447
G01 X5.9772 Y3.2314
G01 X5.9742 Y3.2189
G01 X5.9715 Y3.2045
G01 X5.9696 Y3.1874
G01 X5.9645 Y3.1161
G01 X6.0484 Y3.1101
G01 X6.0481 Y3.0938
G01 X6.0496 Y3.0768
G01 X6.0526 Y3.0618
G01 X6.0577 Y3.0452
G01 X6.0613 Y3.0365
G01 X6.0663 Y3.0262
G01 X6.1003 Y2.9639
G01 X6.1065 Y2.9536
G01 X6.1151 Y2.9417
G01 X6.1248 Y2.9307
G01 X6.2276 Y2.8278
G01 X6.2399 Y2.8167
G01 X6.2627 Y2.7984
G01 X6.2737 Y2.7906
G01 X6.2868 Y2.7831
G01 X6.3021 Y2.7762
G01 X6.3139 Y2.7722
G01 X6.3870 Y2.7509
G01 X6.3962 Y2.7489
G01 X6.4051 Y2.7475
G01 X6.4144 Y2.7466
G01 X6.4234 Y2.7463
G01 X20.4342 Y2.7463
G01 X20.4490 Y2.7470
G01 X20.4841 Y2.7510
G01 X20.4971 Y2.7535
G01 X20.5084 Y2.7566
G01 X20.5268 Y2.7513
G01 X20.5392 Y2.7486
G01 X20.5521 Y2.7469
G01 X20.5658 Y2.7463
G01 X33.5756 Y2.7463
G01 X33.5891 Y2.7469
G01 X33.6250 Y2.7508
G01 X33.6398 Y2.7538
G01 X33.6527 Y2.7577
G01 X33.6632 Y2.7618
G01 X33.6735 Y2.7667
G01 X33.7413 Y2.8038
G01 X33.7489 Y2.8085
G01 X33.7565 Y2.8140
G01 X33.7635 Y2.8196
G01 X33.7717 Y2.8271
G01 X33.8744 Y2.9298
G01 X33.8876 Y2.9441
G01 X33.8981 Y2.9579
G01 X33.9041 Y2.9676
G01 X33.9095 Y2.9777
G01 X33.9401 Y3.0447
G01 X33.9450 Y3.0570
G01 X33.9493 Y3.0717
G01 X33.9519 Y3.0850
G01 X33.9534 Y3.1003
G01 X33.9534 Y3.1156
G01 X33.9522 Y3.1288
G01 X33.9419 Y3.2000
G01 X33.9402 Y3.2092
G01 X33.9379 Y3.2187
G01 X33.9324 Y3.2348
G01 X33.9260 Y3.2487
G01 X33.9170 Y3.2637
G01 X33.9078 Y3.2759
G01 X33.8543 Y3.3372
G01 X33.8476 Y3.3438
G01 X33.8402 Y3.3501
G01 X33.8263 Y3.3600
G01 X33.8111 Y3.3685
G01 X33.8026 Y3.3724
G01 X33.7934 Y3.3758
G01 X33.7140 Y3.3991
G01 X33.7048 Y3.4011
G01 X33.6959 Y3.4025
G01 X33.6866 Y3.4034
G01 X33.6766 Y3.4037
G01 X31.1104 Y3.4037
G01 X31.0783 Y3.4072
G01 X30.9823 Y3.4430
G01 X30.9026 Y3.5026
G01 X30.8430 Y3.5823
G01 X30.8072 Y3.6783
G01 X30.8037 Y3.7104
G01 X30.8037 Y4.8896
G01 X30.8104 Y4.9543
G01 X30.8105 Y4.9693
G01 X30.8091 Y4.9842
G01 X30.7980 Y5.0527
G01 X30.7948 Y5.0672
G01 X30.7915 Y5.0778
G01 X30.7868 Y5.0897
G01 X30.7810 Y5.1015
G01 X30.7752 Y5.1110
G01 X30.7688 Y5.1201
G01 X30.7625 Y5.1280
G01 X30.7160 Y5.1816
G01 X30.7054 Y5.1926
G01 X30.6937 Y5.2025
G01 X30.6810 Y5.2111
G01 X30.6676 Y5.2185
G01 X30.6535 Y5.2245
G01 X30.6436 Y5.2278
G01 X30.5705 Y5.2491
G01 X30.5613 Y5.2511
G01 X30.5524 Y5.2525
G01 X30.5431 Y5.2534
G01 X30.5341 Y5.2537
G01 X26.9265 Y5.2537
G01 X26.7823 Y5.2824
G01 X26.6465 Y5.3387
G01 X26.5243 Y5.4203
G01 X25.9203 Y6.0243
G01 X25.8387 Y6.1465
G01 X25.7824 Y6.2823
G01 X25.7537 Y6.4265
G01 X25.7537 Y6.9889
G01 X25.7531 Y7.0013
G01 X25.7497 Y7.0333
G01 X25.7479 Y7.0446
G01 X25.7457 Y7.0539
G01 X25.7404 Y7.0700
G01 X25.7343 Y7.0838
G01 X25.6981 Y7.1502
G01 X25.6894 Y7.1641
G01 X25.6815 Y7.1744
G01 X25.6741 Y7.1826
G01 X25.5791 Y7.2776
G01 X25.5059 Y7.3963
G01 X25.4617 Y7.5297
G01 X25.4537 Y7.6078
G01 X25.4537 Y8.3922
G01 X25.4617 Y8.4703
G01 X25.5059 Y8.6037
G01 X25.5791 Y8.7224
G01 X25.6355 Y8.7788
G01 X25.6453 Y8.7892
G01 X25.6558 Y8.8017
G01 X25.6643 Y8.8143
G01 X25.6723 Y8.8293
G01 X25.7018 Y8.8938
G01 X25.7058 Y8.9034
G01 X25.7095 Y8.9143
G01 X25.7123 Y8.9255
G01 X25.7143 Y8.9368
G01 X25.7154 Y8.9482
G01 X25.7157 Y8.9618
G01 X25.7148 Y8.9750
G01 X25.7031 Y9.0555
G01 X25.7006 Y9.0667
G01 X25.6965 Y9.0796
G01 X25.6922 Y9.0903
G01 X25.6871 Y9.1006
G01 X25.6791 Y9.1137
G01 X25.6712 Y9.1243
G01 X25.6165 Y9.1872
G01 X25.6069 Y9.1963
G01 X25.5948 Y9.2058
G01 X25.5834 Y9.2131
G01 X25.5698 Y9.2201
G01 X25.5611 Y9.2238
G01 X25.5519 Y9.2270
G01 X25.4777 Y9.2487
G01 X25.4689 Y9.2507
G01 X25.4597 Y9.2523
G01 X25.4488 Y9.2534
G01 X25.4398 Y9.2537
G01 X21.6290 Y9.2537
G01 X21.6143 Y9.2530
G01 X21.5780 Y9.2484
G01 X21.5679 Y9.2468
G01 X21.5550 Y9.2437
G01 X21.5408 Y9.2388
G01 X21.5305 Y9.2343
G01 X21.5206 Y9.2290
G01 X21.4530 Y9.1883
G01 X21.4395 Y9.1784
G01 X21.4275 Y9.1673
G01 X21.3470 Y9.0799
G01 X21.1840 Y8.9531
G01 X21.0023 Y8.8548
G01 X20.8070 Y8.7877
G01 X20.6033 Y8.7537
G01 X20.5633 Y8.7537
G01 X20.5510 Y8.7530
G01 X20.5142 Y8.7487
G01 X20.5029 Y8.7465
G01 X20.4916 Y8.7434
G01 X20.4696 Y8.7496
G01 X20.4608 Y8.7514
G01 X20.4515 Y8.7527
G01 X20.4369 Y8.7537
G01 X20.3967 Y8.7537
G01 X20.1930 Y8.7877
G01 X19.9977 Y8.8548
G01 X19.8160 Y8.9531
G01 X19.6530 Y9.0799
G01 X19.5131 Y9.2319
G01 X19.4002 Y9.4048
G01 X19.3172 Y9.5939
G01 X19.2665 Y9.7942
G01 X19.2494 Y10.0000
G01 X19.2665 Y10.2058
G01 X19.3172 Y10.4061
G01 X19.4002 Y10.5952
G01 X19.5131 Y10.7681
G01 X19.6530 Y10.9201
G01 X19.8160 Y11.0469
G01 X19.9977 Y11.1452
G01 X20.1930 Y11.2123
G01 X20.3967 Y11.2463
G01 X20.6033 Y11.2463
G01 X20.6479 Y11.2388
G01 X20.8070 Y11.2123
G01 X21.0023 Y11.1452
G01 X21.1840 Y11.0469
G01 X21.3470 Y10.9201
G01 X21.4290 Y10.8312
G01 X21.4377 Y10.8232
G01 X21.4635 Y10.8015
G01 X21.4708 Y10.7958
G01 X21.4786 Y10.7904
G01 X21.4883 Y10.7847
G01 X21.4984 Y10.7797
G01 X21.5069 Y10.7761
G01 X21.5175 Y10.7725
G01 X21.5917 Y10.7509
G01 X21.6061 Y10.7480
G01 X21.6227 Y10.7464
G01 X25.4930 Y10.7464
G01 X25.5031 Y10.7471
G01 X25.5306 Y10.7500
G01 X25.5429 Y10.7518
G01 X25.5592 Y10.7559
G01 X25.5683 Y10.7590
G01 X25.5769 Y10.7625
G01 X25.5880 Y10.7680
G01 X25.6549 Y10.8046
G01 X25.6657 Y10.8118
G01 X25.6759 Y10.8198
G01 X25.7963 Y10.8941
G01 X25.9297 Y10.9383
G01 X26.0078 Y10.9463
G01 X26.9922 Y10.9463
G01 X27.0703 Y10.9383
G01 X27.2037 Y10.8941
G01 X27.3224 Y10.8209
G01 X27.4209 Y10.7224
G01 X27.4990 Y10.5958
G01 X27.5066 Y10.5820
G01 X27.5144 Y10.5706
G01 X27.5211 Y10.5623
G01 X27.5656 Y10.5110
G01 X27.5726 Y10.5034
G01 X27.5809 Y10.4956
G01 X27.5883 Y10.4896
G01 X27.5958 Y10.4841
G01 X27.6054 Y10.4782
G01 X27.6173 Y10.4720
G01 X27.6313 Y10.4663
G01 X27.7054 Y10.4438
G01 X27.7145 Y10.4414
G01 X27.7258 Y10.4393
G01 X27.7355 Y10.4381
G01 X27.7448 Y10.4376
G01 X27.7563 Y10.4377
G01 X27.7660 Y10.4385
G01 X27.7754 Y10.4398
G01 X27.7866 Y10.4422
G01 X27.8612 Y10.4634
G01 X27.8720 Y10.4671
G01 X27.8826 Y10.4717
G01 X27.8927 Y10.4770
G01 X27.9025 Y10.4831
G01 X27.9118 Y10.4898
G01 X27.9220 Y10.4987
G01 X27.9313 Y10.5082
G01 X27.9799 Y10.5634
G01 X27.9867 Y10.5721
G01 X27.9929 Y10.5812
G01 X28.0011 Y10.5958
G01 X28.0791 Y10.7224
G01 X28.1743 Y10.8176
G01 X28.1826 Y10.8269
G01 X28.2051 Y10.8553
G01 X28.2103 Y10.8630
G01 X28.2160 Y10.8728
G01 X28.2209 Y10.8830
G01 X28.2251 Y10.8936
G01 X28.2477 Y10.9697
G01 X28.2514 Y10.9857
G01 X28.2531 Y10.9986
G01 X28.2537 Y11.0122
G01 X28.2537 Y12.5756
G01 X28.2531 Y12.5891
G01 X28.2500 Y12.6185
G01 X28.2482 Y12.6307
G01 X28.2452 Y12.6435
G01 X28.2410 Y12.6562
G01 X28.2359 Y12.6682
G01 X28.1962 Y12.7413
G01 X28.1894 Y12.7520
G01 X28.1804 Y12.7636
G01 X28.1722 Y12.7724
G01 X27.7702 Y13.1743
G01 X27.7601 Y13.1833
G01 X27.7386 Y13.2005
G01 X27.7312 Y13.2061
G01 X27.7166 Y13.2152
G01 X27.7014 Y13.2224
G01 X27.6871 Y13.2275
G01 X27.6146 Y13.2487
G01 X27.6058 Y13.2507
G01 X27.5966 Y13.2523
G01 X27.5803 Y13.2536
G01 X14.5245 Y13.2537
G01 X14.5108 Y13.2531
G01 X14.4979 Y13.2514
G01 X14.4402 Y13.2390
G01 X14.4317 Y13.2369
G01 X14.4227 Y13.2341
G01 X14.4065 Y13.2274
G01 X14.3962 Y13.2221
G01 X14.3882 Y13.2171
G01 X14.3802 Y13.2115
G01 X14.3720 Y13.2048
G01 X14.3143 Y13.1547
G01 X14.3023 Y13.1420
G01 X14.2921 Y13.1284
G01 X14.2869 Y13.1201
G01 X14.2815 Y13.1100
G01 X14.2776 Y13.1014
G01 X14.2737 Y13.0906
G01 X14.2513 Y13.0144
G01 X14.2483 Y13.0001
G01 X14.2468 Y12.9875
G01 X14.2463 Y12.9755
G01 X14.2464 Y11.0070
G01 X14.2471 Y10.9969
G01 X14.2501 Y10.9684
G01 X14.2529 Y10.9517
G01 X14.2559 Y10.9408
G01 X14.2590 Y10.9317
G01 X14.2633 Y10.9212
G01 X14.2680 Y10.9120
G01 X14.3038 Y10.8466
G01 X14.3097 Y10.8373
G01 X14.3173 Y10.8271
G01 X14.3278 Y10.8155
G01 X14.4209 Y10.7224
G01 X14.4941 Y10.6037
G01 X14.5383 Y10.4703
G01 X14.5463 Y10.3922
G01 X14.5463 Y9.6078
G01 X14.5383 Y9.5297
G01 X14.4941 Y9.3963
G01 X14.4209 Y9.2776
G01 X14.3400 Y9.1967
G01 X14.3318 Y9.1879
G01 X14.3262 Y9.1809
G01 X14.3208 Y9.1733
G01 X14.2908 Y9.1267
G01 X14.2854 Y9.1177
G01 X14.2794 Y9.1054
G01 X14.2751 Y9.0947
G01 X14.2712 Y9.0820
G01 X14.2684 Y9.0686
G01 X14.2667 Y9.0543
G01 X14.2617 Y8.9836
G01 X14.2614 Y8.9704
G01 X14.2625 Y8.9551
G01 X14.2647 Y8.9417
G01 X14.2680 Y8.9289
G01 X14.2725 Y8.9161
G01 X14.2797 Y8.9007
G01 X14.3137 Y8.8384
G01 X14.3188 Y8.8298
G01 X14.3272 Y8.8178
G01 X14.3367 Y8.8066
G01 X14.4209 Y8.7224
G01 X14.4941 Y8.6037
G01 X14.5383 Y8.4703
G01 X14.5463 Y8.3922
G01 X14.5463 Y7.6078
G01 X14.5383 Y7.5297
G01 X14.4941 Y7.3963
G01 X14.4209 Y7.2776
G01 X14.3241 Y7.1807
G01 X14.3174 Y7.1731
G01 X14.2995 Y7.1508
G01 X14.2906 Y7.1385
G01 X14.2858 Y7.1305
G01 X14.2814 Y7.1220
G01 X14.2776 Y7.1135
G01 X14.2742 Y7.1045
G01 X14.2525 Y7.0312
G01 X14.2500 Y7.0215
G01 X14.2473 Y7.0051
G01 X14.2463 Y6.9878
G01 X14.2463 Y5.9265
G01 X14.2176 Y5.7823
G01 X14.1613 Y5.6465
G01 X14.0797 Y5.5243
G01 X12.2757 Y3.7203
G01 X12.1535 Y3.6387
G01 X12.0177 Y3.5824
G01 X11.8735 Y3.5537
G01 X9.2582 Y3.5537
G01 X9.2411 Y3.5532
G01 X9.2314 Y3.5524
G01 X9.2222 Y3.5510
G01 X9.2110 Y3.5486
G01 X9.2017 Y3.5458
G01 X9.1291 Y3.5189
G01 X9.1156 Y3.5130
G01 X9.1045 Y3.5070
G01 X9.0937 Y3.4998
G01 X9.0177 Y3.4430
G01 X8.9217 Y3.4072
G01 X8.8896 Y3.4037
G01 X6.3233 Y3.4037
G01 X6.3024 Y3.4029
G01 X6.2853 Y3.4006
G01 X6.2761 Y3.3986
G01 X6.2668 Y3.3958
G01 X6.1952 Y3.3693
G01 X6.1855 Y3.3653
G01 X6.1701 Y3.3572
G01 X6.1573 Y3.3487
G01 X6.1442 Y3.3379
G01 X6.1321 Y3.3253
G01 X6.1256 Y3.3172
G01 X6.0799 Y3.2559
G01 X6.0709 Y3.2410
G01 X6.0675 Y3.2341
G01 X6.0667 Y3.2325
G01 X6.0659 Y3.2306
G01 X6.0652 Y3.2290
G01 X6.0637 Y3.2255
G01 X6.0605 Y3.2163
G01 X6.0578 Y3.2073
G01 X6.0557 Y3.1978
G01 X6.0542 Y3.1885
G01 X6.0484 Y3.1101
G01 X6.1323 Y3.1041
G01 X6.1322 Y3.0954
G01 X6.1332 Y3.0868
G01 X6.1348 Y3.0800
G01 X6.1376 Y3.0718
G01 X6.1407 Y3.0656
G01 X6.1742 Y3.0042
G01 X6.1786 Y2.9972
G01 X6.1861 Y2.9883
G01 X6.2885 Y2.8859
G01 X6.3161 Y2.8635
G01 X6.3233 Y2.8589
G01 X6.3311 Y2.8552
G01 X6.3376 Y2.8529
G01 X6.4062 Y2.8328
G01 X6.4144 Y2.8311
G01 X6.4244 Y2.8304
G01 X20.4342 Y2.8304
G01 X20.4405 Y2.8307
G01 X20.4698 Y2.8340
G01 X20.4784 Y2.8355
G01 X20.4834 Y2.8369
G01 X20.4899 Y2.8394
G01 X20.5025 Y2.8460
G01 X20.5493 Y2.8324
G01 X20.5575 Y2.8309
G01 X20.5658 Y2.8304
G01 X33.5756 Y2.8304
G01 X33.5831 Y2.8308
G01 X33.6112 Y2.8338
G01 X33.6196 Y2.8355
G01 X33.6262 Y2.8375
G01 X33.6356 Y2.8418
G01 X33.6984 Y2.8761
G01 X33.7053 Y2.8807
G01 X33.7129 Y2.8872
G01 X33.8139 Y2.9883
G01 X33.8228 Y2.9978
G01 X33.8272 Y3.0032
G01 X33.8300 Y3.0075
G01 X33.8334 Y3.0136
G01 X33.8645 Y3.0819
G01 X33.8668 Y3.0885
G01 X33.8683 Y3.0953
G01 X33.8692 Y3.1022
G01 X33.8695 Y3.1092
G01 X33.8688 Y3.1178
G01 X33.8588 Y3.1870
G01 X33.8575 Y3.1938
G01 X33.8549 Y3.2021
G01 X33.8513 Y3.2100
G01 X33.8477 Y3.2160
G01 X33.8424 Y3.2229
G01 X33.7955 Y3.2770
G01 X33.7879 Y3.2842
G01 X33.7808 Y3.2893
G01 X33.7732 Y3.2934
G01 X33.7651 Y3.2966
G01 X33.6964 Y3.3168
G01 X33.6883 Y3.3186
G01 X33.6766 Y3.3196
G01 X31.1059 Y3.3196
G01 X31.0588 Y3.3247
G01 X30.9416 Y3.3684
G01 X30.8425 Y3.4425
G01 X30.7684 Y3.5416
G01 X30.7247 Y3.6588
G01 X30.7196 Y3.7059
G01 X30.7196 Y4.8941
G01 X30.7263 Y4.9564
G01 X30.7264 Y4.9667
G01 X30.7256 Y4.9735
G01 X30.7145 Y5.0415
G01 X30.7117 Y5.0513
G01 X30.7067 Y5.0619
G01 X30.7000 Y5.0716
G01 X30.6496 Y5.1295
G01 X30.6430 Y5.1353
G01 X30.6373 Y5.1393
G01 X30.6313 Y5.1426
G01 X30.6232 Y5.1460
G01 X30.5513 Y5.1672
G01 X30.5415 Y5.1691
G01 X30.5331 Y5.1696
G01 X26.9182 Y5.1696
G01 X26.7578 Y5.2015
G01 X26.6067 Y5.2641
G01 X26.4707 Y5.3550
G01 X25.8550 Y5.9706
G01 X25.7641 Y6.1067
G01 X25.7015 Y6.2578
G01 X25.6696 Y6.4182
G01 X25.6696 Y6.9878
G01 X25.6692 Y6.9953
G01 X25.6662 Y7.0233
G01 X25.6641 Y7.0334
G01 X25.6618 Y7.0399
G01 X25.6590 Y7.0462
G01 X25.6247 Y7.1090
G01 X25.6203 Y7.1161
G01 X25.6127 Y7.1250
G01 X25.5127 Y7.2251
G01 X25.4292 Y7.3605
G01 X25.3790 Y7.5120
G01 X25.3696 Y7.6036
G01 X25.3696 Y8.3964
G01 X25.3790 Y8.4880
G01 X25.4291 Y8.6395
G01 X25.5127 Y8.7749
G01 X25.5760 Y8.8383
G01 X25.5861 Y8.8491
G01 X25.5912 Y8.8561
G01 X25.5962 Y8.8652
G01 X25.6260 Y8.9303
G01 X25.6293 Y8.9402
G01 X25.6312 Y8.9505
G01 X25.6316 Y8.9592
G01 X25.6311 Y8.9661
G01 X25.6207 Y9.0387
G01 X25.6182 Y9.0488
G01 X25.6142 Y9.0585
G01 X25.6098 Y9.0660
G01 X25.6057 Y9.0716
G01 X25.5576 Y9.1270
G01 X25.5527 Y9.1319
G01 X25.5473 Y9.1363
G01 X25.5415 Y9.1402
G01 X25.5353 Y9.1434
G01 X25.5256 Y9.1471
G01 X25.4569 Y9.1672
G01 X25.4487 Y9.1689
G01 X25.4388 Y9.1696
G01 X21.6290 Y9.1696
G01 X21.6218 Y9.1692
G01 X21.5853 Y9.1645
G01 X21.5787 Y9.1630
G01 X21.5707 Y9.1602
G01 X21.5615 Y9.1556
G01 X21.4988 Y9.1178
G01 X21.4922 Y9.1127
G01 X21.4873 Y9.1082
G01 X21.4041 Y9.0178
G01 X21.2302 Y8.8824
G01 X21.0362 Y8.7775
G01 X20.8277 Y8.7059
G01 X20.6102 Y8.6696
G01 X20.5626 Y8.6695
G01 X20.5268 Y8.6655
G01 X20.5200 Y8.6641
G01 X20.5117 Y8.6613
G01 X20.5054 Y8.6584
G01 X20.4975 Y8.6540
G01 X20.4540 Y8.6668
G01 X20.4458 Y8.6686
G01 X20.4359 Y8.6696
G01 X20.3898 Y8.6696
G01 X20.1723 Y8.7059
G01 X19.9638 Y8.7775
G01 X19.7698 Y8.8824
G01 X19.5959 Y9.0178
G01 X19.4465 Y9.1801
G01 X19.3259 Y9.3646
G01 X19.2374 Y9.5665
G01 X19.1832 Y9.7803
G01 X19.1650 Y10.0000
G01 X19.1832 Y10.2197
G01 X19.2374 Y10.4335
G01 X19.3259 Y10.6354
G01 X19.4465 Y10.8199
G01 X19.5959 Y10.9822
G01 X19.7698 Y11.1176
G01 X19.9638 Y11.2225
G01 X20.1723 Y11.2941
G01 X20.3898 Y11.3304
G01 X20.6102 Y11.3304
G01 X20.6617 Y11.3218
G01 X20.8277 Y11.2941
G01 X21.0362 Y11.2225
G01 X21.2302 Y11.1176
G01 X21.4041 Y10.9822
G01 X21.4874 Y10.8917
G01 X21.4927 Y10.8869
G01 X21.5168 Y10.8665
G01 X21.5237 Y10.8614
G01 X21.5326 Y10.8565
G01 X21.5422 Y10.8529
G01 X21.6108 Y10.8328
G01 X21.6190 Y10.8311
G01 X21.6257 Y10.8305
G01 X25.4896 Y10.8304
G01 X25.5267 Y10.8344
G01 X25.5367 Y10.8370
G01 X25.5462 Y10.8410
G01 X25.6119 Y10.8770
G01 X25.6188 Y10.8817
G01 X25.6251 Y10.8874
G01 X25.7605 Y10.9708
G01 X25.9120 Y11.0210
G01 X26.0036 Y11.0304
G01 X26.9964 Y11.0304
G01 X27.0880 Y11.0210
G01 X27.2395 Y10.9709
G01 X27.3749 Y10.8874
G01 X27.4874 Y10.7749
G01 X27.5730 Y10.6360
G01 X27.5765 Y10.6290
G01 X27.5803 Y10.6230
G01 X27.5846 Y10.6174
G01 X27.6303 Y10.5648
G01 X27.6365 Y10.5588
G01 X27.6447 Y10.5527
G01 X27.6523 Y10.5485
G01 X27.6602 Y10.5454
G01 X27.7287 Y10.5246
G01 X27.7389 Y10.5224
G01 X27.7476 Y10.5216
G01 X27.7580 Y10.5222
G01 X27.7666 Y10.5239
G01 X27.8354 Y10.5435
G01 X27.8452 Y10.5471
G01 X27.8514 Y10.5503
G01 X27.8572 Y10.5540
G01 X27.8627 Y10.5584
G01 X27.8665 Y10.5620
G01 X27.9150 Y10.6170
G01 X27.9192 Y10.6222
G01 X27.9236 Y10.6292
G01 X27.9270 Y10.6360
G01 X28.0126 Y10.7749
G01 X28.1141 Y10.8763
G01 X28.1365 Y10.9039
G01 X28.1394 Y10.9082
G01 X28.1427 Y10.9142
G01 X28.1466 Y10.9238
G01 X28.1668 Y10.9925
G01 X28.1686 Y11.0006
G01 X28.1696 Y11.0122
G01 X28.1696 Y12.5756
G01 X28.1692 Y12.5831
G01 X28.1656 Y12.6146
G01 X28.1636 Y12.6229
G01 X28.1612 Y12.6294
G01 X28.1582 Y12.6356
G01 X28.1239 Y12.6984
G01 X28.1203 Y12.7040
G01 X28.1162 Y12.7092
G01 X27.7129 Y13.1127
G01 X27.7073 Y13.1178
G01 X27.6839 Y13.1365
G01 X27.6782 Y13.1403
G01 X27.6705 Y13.1442
G01 X27.6624 Y13.1471
G01 X27.5938 Y13.1672
G01 X27.5856 Y13.1689
G01 X27.5773 Y13.1696
G01 X14.5245 Y13.1696
G01 X14.5162 Y13.1691
G01 X14.5096 Y13.1680
G01 X14.4564 Y13.1564
G01 X14.4497 Y13.1544
G01 X14.4448 Y13.1525
G01 X14.4355 Y13.1475
G01 X14.4271 Y13.1413
G01 X14.3730 Y13.0944
G01 X14.3669 Y13.0881
G01 X14.3617 Y13.0812
G01 X14.3566 Y13.0721
G01 X14.3529 Y13.0623
G01 X14.3328 Y12.9936
G01 X14.3311 Y12.9855
G01 X14.3305 Y12.9788
G01 X14.3305 Y11.0085
G01 X14.3341 Y10.9750
G01 X14.3359 Y10.9666
G01 X14.3382 Y10.9601
G01 X14.3418 Y10.9523
G01 X14.3778 Y10.8867
G01 X14.3817 Y10.8812
G01 X14.3872 Y10.8750
G01 X14.4874 Y10.7749
G01 X14.5708 Y10.6395
G01 X14.6210 Y10.4880
G01 X14.6304 Y10.3964
G01 X14.6304 Y9.6036
G01 X14.6210 Y9.5120
G01 X14.5708 Y9.3605
G01 X14.4874 Y9.2251
G01 X14.3961 Y9.1336
G01 X14.3901 Y9.1256
G01 X14.3598 Y9.0782
G01 X14.3566 Y9.0720
G01 X14.3540 Y9.0655
G01 X14.3522 Y9.0587
G01 X14.3510 Y9.0518
G01 X14.3456 Y8.9786
G01 X14.3455 Y8.9717
G01 X14.3460 Y8.9647
G01 X14.3473 Y8.9579
G01 X14.3492 Y8.9512
G01 X14.3517 Y8.9447
G01 X14.3875 Y8.8787
G01 X14.3910 Y8.8730
G01 X14.3950 Y8.8677
G01 X14.3995 Y8.8628
G01 X14.4874 Y8.7749
G01 X14.5708 Y8.6395
G01 X14.6210 Y8.4880
G01 X14.6304 Y8.3964
G01 X14.6304 Y7.6036
G01 X14.6210 Y7.5120
G01 X14.5708 Y7.3605
G01 X14.4874 Y7.2251
G01 X14.3859 Y7.1237
G01 X14.3656 Y7.0988
G01 X14.3616 Y7.0932
G01 X14.3573 Y7.0858
G01 X14.3534 Y7.0762
G01 X14.3320 Y7.0027
G01 X14.3307 Y6.9944
G01 X14.3304 Y6.9878
G01 X14.3304 Y5.9182
G01 X14.2985 Y5.7578
G01 X14.2359 Y5.6067
G01 X14.1450 Y5.4706
G01 X12.3294 Y3.6550
G01 X12.1933 Y3.5641
G01 X12.0422 Y3.5015
G01 X11.8818 Y3.4696
G01 X9.2582 Y3.4696
G01 X9.2452 Y3.4692
G01 X9.2349 Y3.4678
G01 X9.2265 Y3.4654
G01 X9.1594 Y3.4404
G01 X9.1503 Y3.4363
G01 X9.1419 Y3.4309
G01 X9.0584 Y3.3684
G01 X8.9412 Y3.3247
G01 X8.8941 Y3.3196
G01 X6.3233 Y3.3196
G01 X6.3103 Y3.3192
G01 X6.3017 Y3.3181
G01 X6.2916 Y3.3155
G01 X6.2213 Y3.2892
G01 X6.2151 Y3.2861
G01 X6.2077 Y3.2814
G01 X6.2010 Y3.2759
G01 X6.1951 Y3.2695
G01 X6.1500 Y3.2094
G01 X6.1454 Y3.2020
G01 X6.1418 Y3.1941
G01 X6.1392 Y3.1859
G01 X6.1374 Y3.1756
G01 X6.1323 Y3.1041
G01 X5.8909 Y3.5768
G01 X5.8955 Y3.5650
G01 X5.8909 Y3.5602
G01 X5.8909 Y3.5768
G01 X6.1117 Y3.7500
G01 X6.1119 Y3.7393
G01 X6.1127 Y3.7277
G01 X6.1139 Y3.7171
G01 X6.1158 Y3.7055
G01 X6.1209 Y3.6844
G01 X6.1243 Y3.6733
G01 X6.1280 Y3.6633
G01 X6.1367 Y3.6438
G01 X6.1416 Y3.6343
G01 X6.1475 Y3.6242
G01 X6.1598 Y3.6064
G01 X6.1671 Y3.5972
G01 X6.1741 Y3.5892
G01 X6.1892 Y3.5741
G01 X6.1980 Y3.5664
G01 X6.2072 Y3.5592
G01 X6.2159 Y3.5530
G01 X6.2257 Y3.5466
G01 X6.2447 Y3.5362
G01 X6.2553 Y3.5313
G01 X6.2652 Y3.5273
G01 X6.2854 Y3.5206
G01 X6.2958 Y3.5179
G01 X6.3072 Y3.5155
G01 X6.3287 Y3.5126
G01 X6.3500 Y3.5117
G01 X8.8515 Y3.5117
G01 X8.8696 Y3.5125
G01 X8.8870 Y3.5146
G01 X8.9042 Y3.5179
G01 X8.9212 Y3.5225
G01 X8.9377 Y3.5284
G01 X8.9538 Y3.5354
G01 X8.9693 Y3.5437
G01 X8.9841 Y3.5530
G01 X8.9983 Y3.5634
G01 X9.0116 Y3.5748
G01 X9.0240 Y3.5872
G01 X9.0355 Y3.6004
G01 X9.0460 Y3.6145
G01 X9.0555 Y3.6292
G01 X9.0638 Y3.6447
G01 X9.0711 Y3.6611
G01 X11.8000 Y3.6615
G01 X11.8112 Y3.6617
G01 X11.8525 Y3.6638
G01 X11.8636 Y3.6646
G01 X11.9168 Y3.6723
G01 X11.9323 Y3.6754
G01 X11.9746 Y3.6860
G01 X11.9863 Y3.6893
G01 X11.9965 Y3.6926
G01 X12.0349 Y3.7064
G01 X12.0463 Y3.7109
G01 X12.0906 Y3.7316
G01 X12.1019 Y3.7374
G01 X12.1530 Y3.7679
G01 X12.1631 Y3.7749
G01 X12.1959 Y3.7992
G01 X12.2124 Y3.8127
G01 X12.2515 Y3.8485
G01 X13.9526 Y5.5496
G01 X13.9873 Y5.5876
G01 X13.9999 Y5.6029
G01 X14.0303 Y5.6444
G01 X14.0364 Y5.6538
G01 X14.0576 Y5.6893
G01 X14.0668 Y5.7060
G01 X14.0891 Y5.7537
G01 X14.0941 Y5.7666
G01 X14.1107 Y5.8137
G01 X14.1138 Y5.8244
G01 X14.1237 Y5.8640
G01 X14.1267 Y5.8775
G01 X14.1346 Y5.9296
G01 X14.1363 Y5.9486
G01 X14.1385 Y6.0000
G01 X14.1385 Y7.1995
G01 X14.1732 Y7.2157
G01 X14.1890 Y7.2243
G01 X14.2204 Y7.2434
G01 X14.2510 Y7.2656
G01 X14.2658 Y7.2776
G01 X14.2938 Y7.3032
G01 X14.3020 Y7.3116
G01 X14.3199 Y7.3313
G01 X14.3299 Y7.3431
G01 X14.3515 Y7.3722
G01 X14.3620 Y7.3881
G01 X14.3812 Y7.4207
G01 X14.3980 Y7.4559
G01 X14.4048 Y7.4726
G01 X14.4176 Y7.5092
G01 X14.4273 Y7.5470
G01 X14.4310 Y7.5663
G01 X14.4348 Y7.5926
G01 X14.4362 Y7.6042
G01 X14.4383 Y7.6495
G01 X14.4383 Y8.3505
G01 X14.4366 Y8.3900
G01 X14.4346 Y8.4090
G01 X14.4304 Y8.4375
G01 X14.4282 Y8.4490
G01 X14.4200 Y8.4820
G01 X14.4162 Y8.4954
G01 X14.4052 Y8.5265
G01 X14.4008 Y8.5378
G01 X14.3857 Y8.5702
G01 X14.3797 Y8.5820
G01 X14.3620 Y8.6119
G01 X14.3555 Y8.6222
G01 X14.3281 Y8.6590
G01 X14.3199 Y8.6687
G01 X14.2960 Y8.6946
G01 X14.2872 Y8.7030
G01 X14.2635 Y8.7244
G01 X14.2536 Y8.7324
G01 X14.2296 Y8.7502
G01 X14.2127 Y8.7615
G01 X14.1886 Y8.7760
G01 X14.1784 Y8.7816
G01 X14.1378 Y8.8008
G01 X14.1265 Y8.8052
G01 X14.0937 Y8.8167
G01 X14.0825 Y8.8199
G01 X14.0562 Y8.8265
G01 X14.0353 Y8.8307
G01 X14.0057 Y8.8351
G01 X13.9931 Y8.8364
G01 X13.9500 Y8.8383
G01 X13.0485 Y8.8383
G01 X13.0133 Y8.8368
G01 X13.0001 Y8.8358
G01 X12.9647 Y8.8307
G01 X12.9500 Y8.8280
G01 X12.9190 Y8.8203
G01 X12.9073 Y8.8170
G01 X12.8641 Y8.8016
G01 X12.8529 Y8.7966
G01 X12.8216 Y8.7816
G01 X12.8114 Y8.7760
G01 X12.7881 Y8.7620
G01 X12.7778 Y8.7555
G01 X12.7695 Y8.7496
G01 X12.7464 Y8.7324
G01 X12.7342 Y8.7224
G01 X12.7120 Y8.7023
G01 X12.7032 Y8.6938
G01 X12.6732 Y8.6606
G01 X12.6656 Y8.6510
G01 X12.6451 Y8.6230
G01 X12.6388 Y8.6132
G01 X12.6240 Y8.5886
G01 X12.6162 Y8.5741
G01 X12.6036 Y8.5476
G01 X12.5952 Y8.5274
G01 X12.5857 Y8.5009
G01 X12.5821 Y8.4898
G01 X12.5735 Y8.4562
G01 X12.5708 Y8.4443
G01 X12.5642 Y8.3999
G01 X12.5632 Y8.3877
G01 X12.5618 Y8.3579
G01 X12.5617 Y7.6452
G01 X12.5634 Y7.6100
G01 X12.5654 Y7.5910
G01 X12.5713 Y7.5537
G01 X12.5800 Y7.5180
G01 X12.5851 Y7.5007
G01 X12.5974 Y7.4666
G01 X12.6034 Y7.4529
G01 X12.6188 Y7.4207
G01 X12.6377 Y7.3886
G01 X12.6451 Y7.3770
G01 X12.6666 Y7.3478
G01 X12.6776 Y7.3342
G01 X12.6999 Y7.3096
G01 X12.7132 Y7.2966
G01 X12.7410 Y7.2719
G01 X12.7695 Y7.2504
G01 X12.7853 Y7.2397
G01 X12.8165 Y7.2211
G01 X12.8298 Y7.2143
G01 X12.8615 Y7.1995
G01 X12.8615 Y6.2645
G01 X11.5355 Y4.9385
G01 X9.0713 Y4.9385
G01 X9.0646 Y4.9538
G01 X9.0563 Y4.9693
G01 X9.0470 Y4.9841
G01 X9.0366 Y4.9983
G01 X9.0252 Y5.0116
G01 X9.0128 Y5.0240
G01 X8.9996 Y5.0355
G01 X8.9864 Y5.0455
G01 X8.9734 Y5.0539
G01 X8.9581 Y5.0624
G01 X8.9422 Y5.0698
G01 X8.9257 Y5.0760
G01 X8.9089 Y5.0809
G01 X8.8918 Y5.0846
G01 X8.8744 Y5.0871
G01 X8.8569 Y5.0882
G01 X6.3485 Y5.0883
G01 X6.3277 Y5.0873
G01 X6.3072 Y5.0845
G01 X6.2874 Y5.0800
G01 X6.2772 Y5.0769
G01 X6.2662 Y5.0731
G01 X6.2472 Y5.0650
G01 X6.2292 Y5.0555
G01 X6.2119 Y5.0443
G01 X6.1951 Y5.0311
G01 X6.1800 Y5.0171
G01 X6.1664 Y5.0020
G01 X6.1598 Y4.9936
G01 X6.1530 Y4.9841
G01 X6.1421 Y4.9666
G01 X6.1325 Y4.9475
G01 X6.1249 Y4.9283
G01 X6.1191 Y4.9089
G01 X6.1148 Y4.8887
G01 X6.1125 Y4.8696
G01 X6.1117 Y4.8500
G01 X6.1117 Y3.7500
G01 X6.1958 Y3.7500
G01 X6.1964 Y3.7359
G01 X6.1982 Y3.7226
G01 X6.2011 Y3.7099
G01 X6.2051 Y3.6971
G01 X6.2102 Y3.6850
G01 X6.2163 Y3.6731
G01 X6.2245 Y3.6604
G01 X6.2326 Y3.6501
G01 X6.2417 Y3.6402
G01 X6.2514 Y3.6314
G01 X6.2620 Y3.6233
G01 X6.2731 Y3.6163
G01 X6.2866 Y3.6094
G01 X6.2990 Y3.6045
G01 X6.3115 Y3.6007
G01 X6.3247 Y3.5979
G01 X6.3376 Y3.5963
G01 X6.3500 Y3.5958
G01 X8.8565 Y3.5959
G01 X8.8716 Y3.5973
G01 X8.8848 Y3.5998
G01 X8.8994 Y3.6039
G01 X8.9134 Y3.6094
G01 X8.9269 Y3.6163
G01 X8.9380 Y3.6233
G01 X8.9499 Y3.6326
G01 X8.9598 Y3.6417
G01 X8.9699 Y3.6530
G01 X8.9788 Y3.6652
G01 X8.9865 Y3.6782
G01 X8.9921 Y3.6900
G01 X8.9968 Y3.7026
G01 X9.0007 Y3.7172
G01 X9.0032 Y3.7321
G01 X9.0042 Y3.7456
G01 X11.8065 Y3.7457
G01 X11.8554 Y3.7484
G01 X11.9071 Y3.7560
G01 X11.9599 Y3.7692
G01 X12.0051 Y3.7851
G01 X12.0191 Y3.7909
G01 X12.0555 Y3.8081
G01 X12.0670 Y3.8143
G01 X12.1089 Y3.8396
G01 X12.1479 Y3.8684
G01 X12.1575 Y3.8764
G01 X12.1920 Y3.9080
G01 X13.8940 Y5.6099
G01 X13.9292 Y5.6491
G01 X13.9616 Y5.6928
G01 X13.9894 Y5.7396
G01 X14.0126 Y5.7888
G01 X14.0302 Y5.8381
G01 X14.0436 Y5.8908
G01 X14.0516 Y5.9446
G01 X14.0543 Y5.9952
G01 X14.0544 Y7.2598
G01 X14.0719 Y7.2647
G01 X14.0986 Y7.2742
G01 X14.1091 Y7.2785
G01 X14.1415 Y7.2940
G01 X14.1737 Y7.3133
G01 X14.2056 Y7.3369
G01 X14.2303 Y7.3590
G01 X14.2410 Y7.3697
G01 X14.2594 Y7.3899
G01 X14.2655 Y7.3973
G01 X14.2867 Y7.4263
G01 X14.3060 Y7.4585
G01 X14.3230 Y7.4944
G01 X14.3344 Y7.5255
G01 X14.3388 Y7.5400
G01 X14.3454 Y7.5664
G01 X14.3473 Y7.5759
G01 X14.3524 Y7.6114
G01 X14.3541 Y7.6452
G01 X14.3542 Y8.3510
G01 X14.3522 Y8.3906
G01 X14.3476 Y8.4224
G01 X14.3454 Y8.4336
G01 X14.3381 Y8.4627
G01 X14.3344 Y8.4745
G01 X14.3230 Y8.5056
G01 X14.3094 Y8.5347
G01 X14.3033 Y8.5462
G01 X14.2867 Y8.5737
G01 X14.2618 Y8.6072
G01 X14.2403 Y8.6311
G01 X14.2311 Y8.6403
G01 X14.2072 Y8.6618
G01 X14.1808 Y8.6817
G01 X14.1705 Y8.6887
G01 X14.1415 Y8.7060
G01 X14.1037 Y8.7238
G01 X14.0663 Y8.7371
G01 X14.0299 Y8.7462
G01 X13.9906 Y8.7522
G01 X13.9548 Y8.7541
G01 X13.0500 Y8.7542
G01 X13.0094 Y8.7522
G01 X12.9701 Y8.7462
G01 X12.9390 Y8.7386
G01 X12.9264 Y8.7348
G01 X12.8998 Y8.7252
G01 X12.8884 Y8.7204
G01 X12.8604 Y8.7070
G01 X12.8318 Y8.6901
G01 X12.8215 Y8.6834
G01 X12.7944 Y8.6631
G01 X12.7649 Y8.6366
G01 X12.7369 Y8.6056
G01 X12.7133 Y8.5737
G01 X12.6958 Y8.5448
G01 X12.6901 Y8.5338
G01 X12.6762 Y8.5037
G01 X12.6652 Y8.4736
G01 X12.6614 Y8.4610
G01 X12.6538 Y8.4299
G01 X12.6487 Y8.3971
G01 X12.6473 Y8.3848
G01 X12.6458 Y8.3500
G01 X12.6458 Y7.6500
G01 X12.6478 Y7.6094
G01 X12.6534 Y7.5722
G01 X12.6612 Y7.5400
G01 X12.6652 Y7.5264
G01 X12.6770 Y7.4944
G01 X12.6930 Y7.4604
G01 X12.7099 Y7.4318
G01 X12.7177 Y7.4201
G01 X12.7335 Y7.3987
G01 X12.7393 Y7.3915
G01 X12.7634 Y7.3649
G01 X12.7886 Y7.3418
G01 X12.7995 Y7.3329
G01 X12.8277 Y7.3124
G01 X12.8585 Y7.2940
G01 X12.8909 Y7.2785
G01 X12.9014 Y7.2742
G01 X12.9281 Y7.2647
G01 X12.9456 Y7.2598
G01 X12.9456 Y6.2296
G01 X11.5704 Y4.8544
G01 X9.0042 Y4.8544
G01 X9.0032 Y4.8679
G01 X9.0007 Y4.8828
G01 X8.9968 Y4.8974
G01 X8.9914 Y4.9116
G01 X8.9847 Y4.9251
G01 X8.9767 Y4.9380
G01 X8.9674 Y4.9499
G01 X8.9571 Y4.9610
G01 X8.9457 Y4.9709
G01 X8.9348 Y4.9788
G01 X8.9218 Y4.9865
G01 X8.9081 Y4.9929
G01 X8.8938 Y4.9979
G01 X8.8791 Y5.0015
G01 X8.8641 Y5.0036
G01 X8.8500 Y5.0042
G01 X6.3435 Y5.0041
G01 X6.3301 Y5.0029
G01 X6.3172 Y5.0007
G01 X6.3042 Y4.9973
G01 X6.2919 Y4.9929
G01 X6.2797 Y4.9873
G01 X6.2684 Y4.9808
G01 X6.2573 Y4.9733
G01 X6.2472 Y4.9650
G01 X6.2376 Y4.9556
G01 X6.2291 Y4.9457
G01 X6.2212 Y4.9348
G01 X6.2153 Y4.9251
G01 X6.2094 Y4.9134
G01 X6.2045 Y4.9010
G01 X6.2007 Y4.8885
G01 X6.1979 Y4.8753
G01 X6.1963 Y4.8624
G01 X6.1958 Y4.8500
G01 X6.1958 Y3.7500
G01 X6.2799 Y3.7500
G01 X6.2801 Y3.7448
G01 X6.2809 Y3.7380
G01 X6.2824 Y3.7313
G01 X6.2846 Y3.7248
G01 X6.2874 Y3.7185
G01 X6.2899 Y3.7140
G01 X6.2937 Y3.7082
G01 X6.2969 Y3.7042
G01 X6.3017 Y3.6992
G01 X6.3055 Y3.6958
G01 X6.3096 Y3.6927
G01 X6.3154 Y3.6890
G01 X6.3216 Y3.6859
G01 X6.3264 Y3.6840
G01 X6.3313 Y3.6824
G01 X6.3380 Y3.6809
G01 X6.3431 Y3.6802
G01 X6.3500 Y3.6799
G01 X8.8534 Y3.6800
G01 X8.8637 Y3.6812
G01 X8.8720 Y3.6834
G01 X8.8800 Y3.6866
G01 X8.8889 Y3.6917
G01 X8.8971 Y3.6981
G01 X8.9042 Y3.7055
G01 X8.9101 Y3.7140
G01 X8.9141 Y3.7216
G01 X8.9166 Y3.7280
G01 X8.9180 Y3.7330
G01 X8.9193 Y3.7397
G01 X8.9200 Y3.7466
G01 X8.9201 Y3.8297
G01 X11.8017 Y3.8297
G01 X11.8461 Y3.8320
G01 X11.8884 Y3.8381
G01 X11.8951 Y3.8395
G01 X11.9365 Y3.8500
G01 X11.9768 Y3.8643
G01 X11.9831 Y3.8669
G01 X12.0217 Y3.8852
G01 X12.0598 Y3.9080
G01 X12.0984 Y3.9365
G01 X12.1326 Y3.9674
G01 X13.8326 Y5.6674
G01 X13.8635 Y5.7016
G01 X13.8910 Y5.7387
G01 X13.9148 Y5.7783
G01 X13.9345 Y5.8200
G01 X13.9500 Y5.8635
G01 X13.9613 Y5.9082
G01 X13.9680 Y5.9539
G01 X13.9703 Y5.9983
G01 X13.9703 Y7.3308
G01 X13.9831 Y7.3316
G01 X14.0141 Y7.3364
G01 X14.0429 Y7.3437
G01 X14.0741 Y7.3549
G01 X14.1009 Y7.3677
G01 X14.1278 Y7.3838
G01 X14.1531 Y7.4026
G01 X14.1775 Y7.4249
G01 X14.1974 Y7.4469
G01 X14.2162 Y7.4722
G01 X14.2323 Y7.4991
G01 X14.2457 Y7.5275
G01 X14.2563 Y7.5571
G01 X14.2639 Y7.5876
G01 X14.2686 Y7.6186
G01 X14.2700 Y7.6466
G01 X14.2701 Y8.3500
G01 X14.2686 Y8.3814
G01 X14.2639 Y8.4124
G01 X14.2572 Y8.4396
G01 X14.2552 Y8.4462
G01 X14.2457 Y8.4725
G01 X14.2338 Y8.4978
G01 X14.2306 Y8.5039
G01 X14.2162 Y8.5278
G01 X14.1974 Y8.5531
G01 X14.1787 Y8.5739
G01 X14.1739 Y8.5787
G01 X14.1531 Y8.5974
G01 X14.1307 Y8.6142
G01 X14.1249 Y8.6180
G01 X14.1009 Y8.6323
G01 X14.0725 Y8.6457
G01 X14.0429 Y8.6563
G01 X14.0124 Y8.6639
G01 X13.9814 Y8.6686
G01 X13.9517 Y8.6701
G01 X13.0500 Y8.6701
G01 X13.0186 Y8.6686
G01 X12.9876 Y8.6639
G01 X12.9604 Y8.6572
G01 X12.9538 Y8.6552
G01 X12.9275 Y8.6457
G01 X12.9022 Y8.6338
G01 X12.8961 Y8.6306
G01 X12.8751 Y8.6180
G01 X12.8693 Y8.6142
G01 X12.8469 Y8.5974
G01 X12.8237 Y8.5763
G01 X12.8026 Y8.5531
G01 X12.7829 Y8.5264
G01 X12.7694 Y8.5039
G01 X12.7662 Y8.4978
G01 X12.7543 Y8.4725
G01 X12.7448 Y8.4462
G01 X12.7428 Y8.4396
G01 X12.7361 Y8.4124
G01 X12.7319 Y8.3848
G01 X12.7312 Y8.3779
G01 X12.7299 Y8.3500
G01 X12.7299 Y7.6500
G01 X12.7314 Y7.6186
G01 X12.7361 Y7.5876
G01 X12.7437 Y7.5571
G01 X12.7543 Y7.5275
G01 X12.7662 Y7.5022
G01 X12.7694 Y7.4961
G01 X12.7820 Y7.4751
G01 X12.7858 Y7.4693
G01 X12.8026 Y7.4469
G01 X12.8249 Y7.4225
G01 X12.8469 Y7.4026
G01 X12.8722 Y7.3838
G01 X12.8991 Y7.3677
G01 X12.9259 Y7.3549
G01 X12.9571 Y7.3437
G01 X12.9859 Y7.3364
G01 X13.0169 Y7.3316
G01 X13.0297 Y7.3308
G01 X13.0297 Y6.1948
G01 X11.6052 Y4.7703
G01 X8.9201 Y4.7703
G01 X8.9200 Y4.8534
G01 X8.9193 Y4.8603
G01 X8.9180 Y4.8670
G01 X8.9166 Y4.8720
G01 X8.9141 Y4.8784
G01 X8.9092 Y4.8875
G01 X8.9031 Y4.8958
G01 X8.8971 Y4.9019
G01 X8.8889 Y4.9083
G01 X8.8800 Y4.9134
G01 X8.8720 Y4.9166
G01 X8.8637 Y4.9188
G01 X8.8534 Y4.9200
G01 X6.3500 Y4.9201
G01 X6.3431 Y4.9198
G01 X6.3363 Y4.9188
G01 X6.3313 Y4.9176
G01 X6.3248 Y4.9154
G01 X6.3154 Y4.9110
G01 X6.3111 Y4.9083
G01 X6.3055 Y4.9042
G01 X6.3004 Y4.8996
G01 X6.2969 Y4.8958
G01 X6.2908 Y4.8875
G01 X6.2874 Y4.8815
G01 X6.2852 Y4.8768
G01 X6.2829 Y4.8703
G01 X6.2816 Y4.8654
G01 X6.2804 Y4.8586
G01 X6.2800 Y4.8534
G01 X6.2799 Y3.7500
G00 Z2.0000
G00 X5.8909 Y5.2768
G01 F400.00
G01 Z-0.0750
G01 F400.00
G01 X5.8976 Y5.2600
G01 X5.9049 Y5.2435
G01 X5.9129 Y5.2271
G01 X5.9218 Y5.2104
G01 X5.9311 Y5.1945
G01 X5.9406 Y5.1794
G01 X5.9510 Y5.1644
G01 X5.9617 Y5.1500
G01 X5.9510 Y5.1356
G01 X5.9406 Y5.1206
G01 X5.9311 Y5.1055
G01 X5.9218 Y5.0896
G01 X5.9129 Y5.0729
G01 X5.9049 Y5.0565
G01 X5.8976 Y5.0400
G01 X5.8909 Y5.0232
G01 X5.8909 Y5.2768
G01 X6.1117 Y5.4500
G01 X6.1119 Y5.4393
G01 X6.1127 Y5.4277
G01 X6.1141 Y5.4161
G01 X6.1160 Y5.4045
G01 X6.1186 Y5.3931
G01 X6.1216 Y5.3818
G01 X6.1253 Y5.3707
G01 X6.1294 Y5.3597
G01 X6.1341 Y5.3490
G01 X6.1393 Y5.3386
G01 X6.1450 Y5.3284
G01 X6.1513 Y5.3184
G01 X6.1580 Y5.3089
G01 X6.1651 Y5.2996
G01 X6.1727 Y5.2907
G01 X6.1807 Y5.2822
G01 X6.1892 Y5.2741
G01 X6.1980 Y5.2664
G01 X6.2072 Y5.2592
G01 X6.2167 Y5.2524
G01 X6.2266 Y5.2461
G01 X6.2367 Y5.2403
G01 X6.2472 Y5.2350
G01 X6.2578 Y5.2302
G01 X6.2687 Y5.2259
G01 X6.2798 Y5.2222
G01 X6.2911 Y5.2191
G01 X6.3025 Y5.2164
G01 X6.3140 Y5.2144
G01 X6.3256 Y5.2129
G01 X6.3373 Y5.2120
G01 X6.3500 Y5.2117
G01 X8.8500 Y5.2117
G01 X8.8627 Y5.2120
G01 X8.8802 Y5.2136
G01 X8.8955 Y5.2160
G01 X8.9126 Y5.2200
G01 X8.9293 Y5.2253
G01 X8.9447 Y5.2313
G01 X8.9605 Y5.2388
G01 X8.9743 Y5.2466
G01 X8.9889 Y5.2563
G01 X9.0028 Y5.2671
G01 X9.0151 Y5.2781
G01 X9.0259 Y5.2892
G01 X9.0373 Y5.3026
G01 X9.0470 Y5.3159
G01 X9.0563 Y5.3307
G01 X9.0646 Y5.3462
G01 X9.0711 Y5.3611
G01 X10.5000 Y5.3615
G01 X10.5112 Y5.3617
G01 X10.5616 Y5.3644
G01 X10.5727 Y5.3657
G01 X10.6130 Y5.3717
G01 X10.6323 Y5.3754
G01 X10.6761 Y5.3863
G01 X10.6945 Y5.3919
G01 X10.7434 Y5.4097
G01 X10.7537 Y5.4142
G01 X10.7906 Y5.4316
G01 X10.8043 Y5.4387
G01 X10.8481 Y5.4648
G01 X10.8643 Y5.4758
G01 X10.8971 Y5.5001
G01 X10.9059 Y5.5071
G01 X10.9466 Y5.5437
G01 X11.4582 Y6.0554
G01 X11.4885 Y6.0889
G01 X11.5008 Y6.1041
G01 X11.5303 Y6.1444
G01 X11.5364 Y6.1538
G01 X11.5574 Y6.1888
G01 X11.5668 Y6.2060
G01 X11.5885 Y6.2522
G01 X11.5936 Y6.2651
G01 X11.6086 Y6.3071
G01 X11.6142 Y6.3259
G01 X11.6246 Y6.3677
G01 X11.6277 Y6.3832
G01 X11.6341 Y6.4263
G01 X11.6356 Y6.4384
G01 X11.6384 Y6.4921
G01 X11.6385 Y7.1995
G01 X11.6732 Y7.2157
G01 X11.6899 Y7.2248
G01 X11.7222 Y7.2445
G01 X11.7536 Y7.2676
G01 X11.7675 Y7.2791
G01 X11.7960 Y7.3054
G01 X11.8224 Y7.3342
G01 X11.8347 Y7.3494
G01 X11.8566 Y7.3796
G01 X11.8768 Y7.4129
G01 X11.8853 Y7.4289
G01 X11.8973 Y7.4543
G01 X11.9019 Y7.4650
G01 X11.9149 Y7.5007
G01 X11.9204 Y7.5195
G01 X11.9292 Y7.5557
G01 X11.9355 Y7.5973
G01 X11.9368 Y7.6133
G01 X11.9383 Y7.6500
G01 X11.9383 Y8.3500
G01 X11.9368 Y8.3877
G01 X11.9351 Y8.4057
G01 X11.9297 Y8.4416
G01 X11.9265 Y8.4562
G01 X11.9176 Y8.4908
G01 X11.9136 Y8.5029
G01 X11.9008 Y8.5378
G01 X11.8853 Y8.5711
G01 X11.8784 Y8.5844
G01 X11.8598 Y8.6155
G01 X11.8493 Y8.6309
