(G-CODE GENERATED BY FLATCAM v8.994 - www.flatcam.org - Version Date: 2020/11/7)

(Name: esp_stepper-F_Cu.gbr_ncc_cnc)
(Type: G-code from Geometry)
(Units: MM)

(Created on Saturday, 05 April 2025 at 00:08)

(This preprocessor is the default preprocessor used by FlatCAM.)
(It is made to work with MACH3 compatible motion controllers.)

(TOOL DIAMETER: 0.1214 mm)
(Feedrate_XY: 400.0 mm/min)
(Feedrate_Z: 400.0 mm/min)
(Feedrate rapids 1500.0 mm/min)

(Z_Cut: -0.0399 mm)
(Z_Move: 2.0 mm)
(Z Start: None mm)
(Z End: 15.0 mm)
(X,Y End: None mm)
(Steps per circle: 64)
(Preprocessor Geometry: default)

(X range:    2.7542 ...   74.0874  mm)
(Y range:    1.3102 ...   90.1421  mm)

(Spindle Speed: 24000.0 RPM)
G21
G90
G94

G01 F400.00

M5
G00 Z15.0000
G00 X0.0000 Y0.0000
T1
M6    
(MSG, Change to Tool Dia = 0.1214)
M0
G00 Z15.0000

M03 S24000.0
G01 F400.00
G00 X10.8784 Y6.7675
G01 F400.00
G01 Z-0.0399
G01 F400.00
G01 X10.8843 Y6.7481
G01 X10.9277 Y6.6267
G01 X10.9348 Y6.6097
G01 X10.9896 Y6.4939
G01 X10.9945 Y6.4841
G01 X11.0696 Y6.3588
G01 X11.0759 Y6.3498
G01 X11.1524 Y6.2468
G01 X11.1648 Y6.2317
G01 X11.2505 Y6.1372
G01 X11.2581 Y6.1292
G01 X11.3663 Y6.0311
G01 X11.3750 Y6.0243
G01 X11.4778 Y5.9481
G01 X11.4943 Y5.9371
G01 X11.6037 Y5.8715
G01 X11.6133 Y5.8661
G01 X11.7453 Y5.8036
G01 X11.7556 Y5.7996
G01 X11.8762 Y5.7565
G01 X11.8951 Y5.7508
G01 X12.0189 Y5.7198
G01 X12.0296 Y5.7174
G01 X12.1741 Y5.6960
G01 X12.1851 Y5.6951
G01 X12.3129 Y5.6888
G01 X12.3327 Y5.6889
G01 X12.4602 Y5.6951
G01 X12.4712 Y5.6960
G01 X12.6156 Y5.7174
G01 X12.6264 Y5.7198
G01 X12.7506 Y5.7509
G01 X12.7695 Y5.7567
G01 X12.8896 Y5.7996
G01 X12.8999 Y5.8036
G01 X13.0319 Y5.8661
G01 X13.0415 Y5.8715
G01 X13.1513 Y5.9373
G01 X13.1678 Y5.9483
G01 X13.2703 Y6.0243
G01 X13.2789 Y6.0311
G01 X13.3872 Y6.1292
G01 X13.3948 Y6.1372
G01 X13.4807 Y6.2320
G01 X13.4933 Y6.2473
G01 X13.5749 Y6.3578
G01 X13.5805 Y6.3667
G01 X13.6482 Y6.4797
G01 X13.6555 Y6.4935
G01 X13.7102 Y6.6093
G01 X13.7180 Y6.6280
G01 X13.7610 Y6.7481
G01 X13.7644 Y6.7586
G01 X13.7999 Y6.9002
G01 X13.8018 Y6.9111
G01 X13.8206 Y7.0377
G01 X13.8225 Y7.0575
G01 X13.8287 Y7.1849
G01 X13.8290 Y7.1959
G01 X13.8219 Y7.3409
G01 X13.8205 Y7.3527
G01 X13.8002 Y7.4880
G01 X13.7978 Y7.4988
G01 X13.7644 Y7.6314
G01 X13.7610 Y7.6419
G01 X13.7147 Y7.7706
G01 X13.7102 Y7.7807
G01 X13.6531 Y7.9014
G01 X13.6461 Y7.9139
G01 X13.5756 Y8.0312
G01 X13.5693 Y8.0402
G01 X13.4897 Y8.1474
G01 X13.4804 Y8.1583
G01 X13.3901 Y8.2578
G01 X13.3808 Y8.2669
G01 X13.3294 Y8.3134
G01 X13.3294 Y10.0830
G01 X16.7255 Y13.4791
G01 X16.7903 Y13.5506
G01 X16.7968 Y13.5589
G01 X16.8442 Y13.6227
G01 X16.8551 Y13.6392
G01 X16.8962 Y13.7077
G01 X16.9036 Y13.7215
G01 X16.9387 Y13.7955
G01 X16.9431 Y13.8055
G01 X16.9729 Y13.8881
G01 X16.9763 Y13.8986
G01 X16.9999 Y13.9927
G01 X17.0018 Y14.0036
G01 X17.0145 Y14.0904
G01 X17.0153 Y14.1014
G01 X17.0194 Y14.1896
G01 X17.0194 Y15.1935
G01 X17.0320 Y15.2203
G01 X17.0370 Y15.2321
G01 X17.0704 Y15.3257
G01 X17.0739 Y15.3382
G01 X17.0955 Y15.4243
G01 X17.0990 Y15.4409
G01 X17.1136 Y15.5407
G01 X17.1144 Y15.5517
G01 X17.1188 Y15.6403
G01 X17.1187 Y15.6601
G01 X17.1144 Y15.7488
G01 X17.1130 Y15.7644
G01 X17.0993 Y15.8572
G01 X17.0955 Y15.8757
G01 X17.0716 Y15.9703
G01 X17.0682 Y15.9808
G01 X17.0384 Y16.0639
G01 X17.0312 Y16.0814
G01 X16.9888 Y16.1708
G01 X16.9834 Y16.1804
G01 X16.9380 Y16.2561
G01 X16.9320 Y16.2654
G01 X16.8741 Y16.3439
G01 X16.8673 Y16.3526
G01 X16.8010 Y16.4260
G01 X16.7876 Y16.4393
G01 X16.7219 Y16.4989
G01 X16.7140 Y16.5056
G01 X16.6356 Y16.5641
G01 X16.6199 Y16.5746
G01 X16.5378 Y16.6237
G01 X16.5251 Y16.6303
G01 X16.4368 Y16.6718
G01 X16.4266 Y16.6758
G01 X16.3430 Y16.7057
G01 X16.3253 Y16.7111
G01 X16.2383 Y16.7329
G01 X16.2185 Y16.7369
G01 X16.1311 Y16.7498
G01 X16.1202 Y16.7511
G01 X16.0227 Y16.7561
G01 X16.0117 Y16.7564
G01 X15.9051 Y16.7511
G01 X15.8941 Y16.7498
G01 X15.7977 Y16.7353
G01 X15.7869 Y16.7329
G01 X15.6923 Y16.7090
G01 X15.6818 Y16.7056
G01 X15.5983 Y16.6757
G01 X15.5812 Y16.6686
G01 X15.5001 Y16.6303
G01 X15.4826 Y16.6210
G01 X15.4065 Y16.5753
G01 X15.3973 Y16.5695
G01 X15.3187 Y16.5115
G01 X15.3101 Y16.5047
G01 X15.2309 Y16.4330
G01 X15.2233 Y16.4250
G01 X15.1629 Y16.3583
G01 X15.1520 Y16.3450
G01 X15.0985 Y16.2730
G01 X15.0875 Y16.2565
G01 X15.0419 Y16.1804
G01 X15.0365 Y16.1708
G01 X14.9908 Y16.0742
G01 X14.9868 Y16.0639
G01 X14.9541 Y15.9720
G01 X14.9512 Y15.9614
G01 X14.9297 Y15.8757
G01 X14.9258 Y15.8563
G01 X14.9127 Y15.7681
G01 X14.9114 Y15.7567
G01 X14.9064 Y15.6588
G01 X14.9065 Y15.6399
G01 X14.9108 Y15.5517
G01 X14.9117 Y15.5407
G01 X14.9264 Y15.4400
G01 X14.9297 Y15.4243
G01 X14.9513 Y15.3382
G01 X14.9549 Y15.3257
G01 X14.9883 Y15.2321
G01 X14.9932 Y15.2203
G01 X15.0058 Y15.1935
G01 X15.0058 Y14.6070
G01 X11.6078 Y11.2089
G01 X11.5501 Y11.1454
G01 X11.5381 Y11.1307
G01 X11.4911 Y11.0673
G01 X11.4850 Y11.0586
G01 X11.4395 Y10.9830
G01 X11.4307 Y10.9668
G01 X11.3928 Y10.8861
G01 X11.3890 Y10.8762
G01 X11.3623 Y10.8018
G01 X11.3586 Y10.7902
G01 X11.3371 Y10.7050
G01 X11.3335 Y10.6864
G01 X11.3219 Y10.6083
G01 X11.3206 Y10.5978
G01 X11.3159 Y10.5033
G01 X11.3158 Y8.3134
G01 X11.2645 Y8.2669
G01 X11.2551 Y8.2578
G01 X11.1620 Y8.1552
G01 X11.1519 Y8.1427
G01 X11.0757 Y8.0398
G01 X11.0678 Y8.0284
G01 X10.9945 Y7.9059
G01 X10.9896 Y7.8961
G01 X10.9350 Y7.7807
G01 X10.9274 Y7.7624
G01 X10.8841 Y7.6414
G01 X10.8801 Y7.6289
G01 X10.8454 Y7.4898
G01 X10.8435 Y7.4789
G01 X10.8247 Y7.3527
G01 X10.8228 Y7.3330
G01 X10.8162 Y7.1959
G01 X10.8165 Y7.1849
G01 X10.8228 Y7.0570
G01 X10.8247 Y7.0377
G01 X10.8450 Y6.9020
G01 X10.8474 Y6.8912
G01 X10.8784 Y6.7675
G01 X10.9491 Y6.7852
G01 X10.9529 Y6.7726
G01 X10.9958 Y6.6525
G01 X11.0009 Y6.6404
G01 X11.0588 Y6.5184
G01 X11.1302 Y6.3993
G01 X11.2140 Y6.2861
G01 X11.3044 Y6.1861
G01 X11.3137 Y6.1768
G01 X11.4082 Y6.0911
G01 X11.4165 Y6.0843
G01 X11.5254 Y6.0036
G01 X11.6411 Y5.9340
G01 X11.6527 Y5.9278
G01 X11.7749 Y5.8702
G01 X11.9059 Y5.8234
G01 X12.0366 Y5.7904
G01 X12.0494 Y5.7879
G01 X12.1830 Y5.7683
G01 X12.3217 Y5.7615
G01 X12.4566 Y5.7679
G01 X12.4696 Y5.7692
G01 X12.6032 Y5.7892
G01 X12.7379 Y5.8229
G01 X12.8651 Y5.8682
G01 X12.8772 Y5.8732
G01 X12.9976 Y5.9303
G01 X13.1135 Y5.9995
G01 X13.1244 Y6.0068
G01 X13.2327 Y6.0874
G01 X13.3356 Y6.1807
G01 X13.4265 Y6.2806
G01 X13.4348 Y6.2907
G01 X13.5142 Y6.3981
G01 X13.5857 Y6.5171
G01 X13.5898 Y6.5251
G01 X13.6444 Y6.6404
G01 X13.6494 Y6.6525
G01 X13.6947 Y6.7797
G01 X13.7284 Y6.9145
G01 X13.7485 Y7.0480
G01 X13.7497 Y7.0610
G01 X13.7562 Y7.1959
G01 X13.7493 Y7.3346
G01 X13.7288 Y7.4738
G01 X13.6947 Y7.6103
G01 X13.6474 Y7.7428
G01 X13.5873 Y7.8700
G01 X13.5151 Y7.9907
G01 X13.4313 Y8.1037
G01 X13.3369 Y8.2080
G01 X13.2566 Y8.2811
G01 X13.2566 Y10.1131
G01 X16.6747 Y13.5313
G01 X16.7303 Y13.5926
G01 X16.7386 Y13.6027
G01 X16.7887 Y13.6704
G01 X16.8330 Y13.7440
G01 X16.8392 Y13.7556
G01 X16.8751 Y13.8318
G01 X16.9043 Y13.9127
G01 X16.9075 Y13.9229
G01 X16.9274 Y14.0023
G01 X16.9297 Y14.0143
G01 X16.9421 Y14.0993
G01 X16.9465 Y14.1858
G01 X16.9466 Y15.2099
G01 X16.9684 Y15.2567
G01 X16.9996 Y15.3438
G01 X17.0023 Y15.3523
G01 X17.0261 Y15.4475
G01 X17.0409 Y15.5463
G01 X17.0417 Y15.5552
G01 X17.0460 Y15.6434
G01 X17.0460 Y15.6566
G01 X17.0411 Y15.7522
G01 X17.0274 Y15.8452
G01 X17.0258 Y15.8540
G01 X17.0019 Y15.9492
G01 X16.9698 Y16.0394
G01 X16.9648 Y16.0515
G01 X16.9245 Y16.1364
G01 X16.8755 Y16.2187
G01 X16.8682 Y16.2296
G01 X16.8110 Y16.3064
G01 X16.7480 Y16.3761
G01 X16.7387 Y16.3853
G01 X16.6677 Y16.4494
G01 X16.5922 Y16.5056
G01 X16.5813 Y16.5129
G01 X16.4990 Y16.5619
G01 X16.4141 Y16.6022
G01 X16.4020 Y16.6072
G01 X16.3189 Y16.6370
G01 X16.3086 Y16.6402
G01 X16.2151 Y16.6635
G01 X16.1204 Y16.6778
G01 X16.1074 Y16.6790
G01 X16.0117 Y16.6835
G01 X15.9122 Y16.6786
G01 X15.8174 Y16.6648
G01 X15.8046 Y16.6622
G01 X15.7117 Y16.6388
G01 X15.6179 Y16.6052
G01 X15.5313 Y16.5644
G01 X15.5197 Y16.5583
G01 X15.4377 Y16.5089
G01 X15.3621 Y16.4530
G01 X15.3520 Y16.4447
G01 X15.2812 Y16.3802
G01 X15.2144 Y16.3065
G01 X15.1570 Y16.2296
G01 X15.1498 Y16.2187
G01 X15.1007 Y16.1364
G01 X15.0574 Y16.0447
G01 X15.0238 Y15.9509
G01 X15.0004 Y15.8580
G01 X14.9978 Y15.8452
G01 X14.9849 Y15.7578
G01 X14.9838 Y15.7489
G01 X14.9792 Y15.6566
G01 X14.9792 Y15.6434
G01 X14.9841 Y15.5478
G01 X14.9985 Y15.4507
G01 X15.0004 Y15.4420
G01 X15.0218 Y15.3563
G01 X15.0249 Y15.3460
G01 X15.0569 Y15.2567
G01 X15.0787 Y15.2099
G01 X15.0787 Y14.5769
G01 X11.6606 Y11.1587
G01 X11.6050 Y11.0974
G01 X11.5966 Y11.0873
G01 X11.5466 Y11.0196
G01 X11.5022 Y10.9460
G01 X11.4960 Y10.9344
G01 X11.4601 Y10.8582
G01 X11.4309 Y10.7772
G01 X11.4282 Y10.7687
G01 X11.4068 Y10.6831
G01 X11.3940 Y10.5980
G01 X11.3927 Y10.5850
G01 X11.3887 Y10.5024
G01 X11.3887 Y8.2811
G01 X11.3083 Y8.2080
G01 X11.2182 Y8.1087
G01 X11.2104 Y8.0993
G01 X11.1302 Y7.9907
G01 X11.0588 Y7.8716
G01 X11.0009 Y7.7496
G01 X10.9958 Y7.7375
G01 X10.9505 Y7.6101
G01 X10.9168 Y7.4755
G01 X10.8968 Y7.3420
G01 X10.8955 Y7.3290
G01 X10.8891 Y7.1959
G01 X10.8955 Y7.0610
G01 X10.8968 Y7.0480
G01 X10.9165 Y6.9162
G01 X10.9491 Y6.7852
G01 X11.0197 Y6.8029
G01 X11.0214 Y6.7972
G01 X11.0644 Y6.6771
G01 X11.0667 Y6.6716
G01 X11.1226 Y6.5536
G01 X11.1912 Y6.4390
G01 X11.2708 Y6.3317
G01 X11.3584 Y6.2350
G01 X11.3626 Y6.2308
G01 X11.4606 Y6.1422
G01 X11.5667 Y6.0636
G01 X11.6786 Y5.9964
G01 X11.6838 Y5.9936
G01 X11.8019 Y5.9379
G01 X11.9248 Y5.8938
G01 X11.9305 Y5.8921
G01 X12.0572 Y5.8604
G01 X12.1892 Y5.8409
G01 X12.3196 Y5.8344
G01 X12.3256 Y5.8344
G01 X12.4560 Y5.8409
G01 X12.5881 Y5.8604
G01 X12.7176 Y5.8929
G01 X12.8406 Y5.9368
G01 X12.8461 Y5.9391
G01 X12.9640 Y5.9950
G01 X13.0786 Y6.0636
G01 X13.1835 Y6.1413
G01 X13.1881 Y6.1451
G01 X13.2848 Y6.2328
G01 X13.3725 Y6.3295
G01 X13.3763 Y6.3341
G01 X13.4541 Y6.4391
G01 X13.5226 Y6.5536
G01 X13.5785 Y6.6716
G01 X13.5808 Y6.6771
G01 X13.6247 Y6.8000
G01 X13.6572 Y6.9295
G01 X13.6764 Y7.0587
G01 X13.6770 Y7.0646
G01 X13.6833 Y7.1950
G01 X13.6768 Y7.3284
G01 X13.6572 Y7.4605
G01 X13.6247 Y7.5900
G01 X13.5797 Y7.7157
G01 X13.5226 Y7.8364
G01 X13.4540 Y7.9510
G01 X13.3745 Y8.0582
G01 X13.2848 Y8.1572
G01 X13.1881 Y8.2449
G01 X13.1837 Y8.2485
G01 X13.1837 Y10.1433
G01 X16.6215 Y13.5811
G01 X16.6783 Y13.6437
G01 X16.7269 Y13.7092
G01 X16.7302 Y13.7141
G01 X16.7706 Y13.7815
G01 X16.7734 Y13.7867
G01 X16.8082 Y13.8605
G01 X16.8366 Y13.9400
G01 X16.8572 Y14.0220
G01 X16.8696 Y14.1056
G01 X16.8737 Y14.1900
G01 X16.8737 Y15.2262
G01 X16.9002 Y15.2824
G01 X16.9324 Y15.3726
G01 X16.9549 Y15.4626
G01 X16.9685 Y15.5544
G01 X16.9732 Y15.6470
G01 X16.9732 Y15.6530
G01 X16.9687 Y15.7442
G01 X16.9551 Y15.8360
G01 X16.9327 Y15.9260
G01 X16.9310 Y15.9317
G01 X16.9002 Y16.0176
G01 X16.8612 Y16.1002
G01 X16.8584 Y16.1055
G01 X16.8114 Y16.1837
G01 X16.7571 Y16.2571
G01 X16.7533 Y16.2617
G01 X16.6919 Y16.3293
G01 X16.6243 Y16.3907
G01 X16.6197 Y16.3945
G01 X16.5464 Y16.4488
G01 X16.4655 Y16.4973
G01 X16.3830 Y16.5364
G01 X16.3775 Y16.5386
G01 X16.2901 Y16.5697
G01 X16.2000 Y16.5922
G01 X16.1097 Y16.6057
G01 X16.1038 Y16.6063
G01 X16.0126 Y16.6107
G01 X15.9185 Y16.6061
G01 X15.8281 Y16.5927
G01 X15.8223 Y16.5916
G01 X15.7337 Y16.5693
G01 X15.6478 Y16.5386
G01 X15.6423 Y16.5364
G01 X15.5597 Y16.4973
G01 X15.4789 Y16.4488
G01 X15.4055 Y16.3945
G01 X15.4009 Y16.3907
G01 X15.3333 Y16.3293
G01 X15.2700 Y16.2595
G01 X15.2155 Y16.1862
G01 X15.2122 Y16.1812
G01 X15.1654 Y16.1029
G01 X15.1250 Y16.0176
G01 X15.0933 Y15.9289
G01 X15.0710 Y15.8403
G01 X15.0699 Y15.8345
G01 X15.0564 Y15.7427
G01 X15.0520 Y15.6530
G01 X15.0520 Y15.6470
G01 X15.0565 Y15.5558
G01 X15.0701 Y15.4640
G01 X15.0937 Y15.3697
G01 X15.1250 Y15.2824
G01 X15.1515 Y15.2262
G01 X15.1515 Y14.5467
G01 X11.7137 Y11.1089
G01 X11.6589 Y11.0485
G01 X11.6551 Y11.0439
G01 X11.6066 Y10.9784
G01 X11.5632 Y10.9059
G01 X11.5271 Y10.8295
G01 X11.4994 Y10.7526
G01 X11.4978 Y10.7471
G01 X11.4781 Y10.6680
G01 X11.4660 Y10.5874
G01 X11.4654 Y10.5814
G01 X11.4616 Y10.5030
G01 X11.4615 Y8.2485
G01 X11.4571 Y8.2449
G01 X11.3626 Y8.1592
G01 X11.3584 Y8.1550
G01 X11.2708 Y8.0582
G01 X11.1912 Y7.9510
G01 X11.1226 Y7.8364
G01 X11.0667 Y7.7184
G01 X11.0644 Y7.7129
G01 X11.0205 Y7.5899
G01 X10.9881 Y7.4605
G01 X10.9688 Y7.3313
G01 X10.9683 Y7.3254
G01 X10.9619 Y7.1950
G01 X10.9683 Y7.0646
G01 X10.9688 Y7.0587
G01 X10.9881 Y6.9295
G01 X11.0197 Y6.8029
G00 Z2.0000
G00 X15.8784 Y6.7675
G01 F400.00
G01 Z-0.0399
G01 F400.00
G01 X15.8843 Y6.7481
G01 X15.9277 Y6.6267
G01 X15.9348 Y6.6097
G01 X15.9896 Y6.4939
G01 X15.9945 Y6.4841
G01 X16.0696 Y6.3588
G01 X16.0759 Y6.3498
G01 X16.1577 Y6.2399
G01 X16.1648 Y6.2317
G01 X16.2508 Y6.1368
G01 X16.2638 Y6.1237
G01 X16.3593 Y6.0372
G01 X16.3746 Y6.0246
G01 X16.4774 Y5.9483
G01 X16.4865 Y5.9420
G01 X16.6037 Y5.8715
G01 X16.6133 Y5.8661
G01 X16.7453 Y5.8036
G01 X16.7556 Y5.7996
G01 X16.8762 Y5.7565
G01 X16.8939 Y5.7511
G01 X17.0189 Y5.7198
G01 X17.0383 Y5.7159
G01 X17.1649 Y5.6971
G01 X17.1759 Y5.6958
G01 X17.3217 Y5.6886
G01 X17.3327 Y5.6889
G01 X17.4694 Y5.6958
G01 X17.4803 Y5.6971
G01 X17.6070 Y5.7159
G01 X17.6251 Y5.7195
G01 X17.7501 Y5.7508
G01 X17.7691 Y5.7565
G01 X17.8896 Y5.7996
G01 X17.8999 Y5.8036
G01 X18.0319 Y5.8661
G01 X18.0415 Y5.8715
G01 X18.1588 Y5.9420
G01 X18.1678 Y5.9483
G01 X18.2703 Y6.0243
G01 X18.2859 Y6.0372
G01 X18.3814 Y6.1237
G01 X18.3945 Y6.1368
G01 X18.4804 Y6.2317
G01 X18.4876 Y6.2401
G01 X18.5749 Y6.3578
G01 X18.5805 Y6.3667
G01 X18.6507 Y6.4841
G01 X18.6557 Y6.4939
G01 X18.7102 Y6.6093
G01 X18.7178 Y6.6276
G01 X18.7610 Y6.7481
G01 X18.7644 Y6.7586
G01 X18.7999 Y6.9002
G01 X18.8018 Y6.9111
G01 X18.8205 Y7.0373
G01 X18.8225 Y7.0570
G01 X18.8290 Y7.1941
G01 X18.8287 Y7.2051
G01 X18.8225 Y7.3330
G01 X18.8205 Y7.3527
G01 X18.8018 Y7.4789
G01 X18.7999 Y7.4898
G01 X18.7653 Y7.6283
G01 X18.7611 Y7.6415
G01 X18.7180 Y7.7620
G01 X18.7102 Y7.7807
G01 X18.6557 Y7.8961
G01 X18.6507 Y7.9059
G01 X18.5774 Y8.0284
G01 X18.5696 Y8.0398
G01 X18.4933 Y8.1427
G01 X18.4832 Y8.1552
G01 X18.3901 Y8.2578
G01 X18.3808 Y8.2669
G01 X18.3294 Y8.3134
G01 X18.3294 Y11.5830
G01 X19.2645 Y12.5181
G01 X19.3264 Y12.5861
G01 X19.3368 Y12.5989
G01 X19.3892 Y12.6699
G01 X19.3951 Y12.6792
G01 X19.4401 Y12.7546
G01 X19.4451 Y12.7645
G01 X19.4824 Y12.8439
G01 X19.4864 Y12.8542
G01 X19.5148 Y12.9338
G01 X19.5186 Y12.9471
G01 X19.5379 Y13.0241
G01 X19.5417 Y13.0431
G01 X19.5534 Y13.1217
G01 X19.5546 Y13.1322
G01 X19.5594 Y13.2258
G01 X19.5594 Y15.1935
G01 X19.5714 Y15.2190
G01 X19.5763 Y15.2305
G01 X19.6101 Y15.3249
G01 X19.6139 Y15.3382
G01 X19.6369 Y15.4301
G01 X19.6395 Y15.4441
G01 X19.6536 Y15.5407
G01 X19.6544 Y15.5517
G01 X19.6590 Y15.6482
G01 X19.6587 Y15.6601
G01 X19.6538 Y15.7576
G01 X19.6524 Y15.7685
G01 X19.6394 Y15.8563
G01 X19.6355 Y15.8757
G01 X19.6137 Y15.9627
G01 X19.6083 Y15.9804
G01 X19.5784 Y16.0639
G01 X19.5744 Y16.0742
G01 X19.5288 Y16.1708
G01 X19.5234 Y16.1804
G01 X19.4730 Y16.2639
G01 X19.4667 Y16.2730
G01 X19.4141 Y16.3439
G01 X19.4012 Y16.3596
G01 X19.3410 Y16.4260
G01 X19.3279 Y16.4390
G01 X19.2619 Y16.4989
G01 X19.2540 Y16.5056
G01 X19.1680 Y16.5694
G01 X19.1587 Y16.5753
G01 X19.0749 Y16.6253
G01 X19.0651 Y16.6303
G01 X18.9853 Y16.6681
G01 X18.9670 Y16.6757
G01 X18.8830 Y16.7057
G01 X18.8706 Y16.7097
G01 X18.7783 Y16.7329
G01 X18.7676 Y16.7353
G01 X18.6711 Y16.7498
G01 X18.6602 Y16.7511
G01 X18.5627 Y16.7561
G01 X18.5517 Y16.7564
G01 X18.4543 Y16.7518
G01 X18.4433 Y16.7510
G01 X18.3468 Y16.7369
G01 X18.3359 Y16.7349
G01 X18.2412 Y16.7114
G01 X18.2306 Y16.7085
G01 X18.1387 Y16.6758
G01 X18.1284 Y16.6718
G01 X18.0319 Y16.6262
G01 X18.0223 Y16.6207
G01 X17.9388 Y16.5705
G01 X17.9297 Y16.5641
G01 X17.8514 Y16.5058
G01 X17.8431 Y16.4986
G01 X17.7709 Y16.4330
G01 X17.7633 Y16.4250
G01 X17.6982 Y16.3528
G01 X17.6911 Y16.3439
G01 X17.6332 Y16.2654
G01 X17.6273 Y16.2561
G01 X17.5773 Y16.1723
G01 X17.5723 Y16.1625
G01 X17.5308 Y16.0742
G01 X17.5268 Y16.0639
G01 X17.4949 Y15.9743
G01 X17.4912 Y15.9614
G01 X17.4677 Y15.8667
G01 X17.4658 Y15.8559
G01 X17.4528 Y15.7685
G01 X17.4508 Y15.7488
G01 X17.4465 Y15.6597
G01 X17.4463 Y15.6458
G01 X17.4508 Y15.5517
G01 X17.4517 Y15.5407
G01 X17.4658 Y15.4441
G01 X17.4684 Y15.4301
G01 X17.4913 Y15.3382
G01 X17.4951 Y15.3249
G01 X17.5289 Y15.2305
G01 X17.5338 Y15.2190
G01 X17.5458 Y15.1935
G01 X17.5458 Y13.6470
G01 X16.6104 Y12.7116
G01 X16.5482 Y12.6432
G01 X16.5384 Y12.6311
G01 X16.4860 Y12.5601
G01 X16.4803 Y12.5512
G01 X16.4397 Y12.4834
G01 X16.4343 Y12.4738
G01 X16.3966 Y12.3945
G01 X16.3921 Y12.3845
G01 X16.3622 Y12.3014
G01 X16.3573 Y12.2855
G01 X16.3354 Y12.1973
G01 X16.3335 Y12.1869
G01 X16.3219 Y12.1087
G01 X16.3200 Y12.0899
G01 X16.3158 Y12.0018
G01 X16.3158 Y8.3134
G01 X16.2645 Y8.2669
G01 X16.2551 Y8.2578
G01 X16.1626 Y8.1559
G01 X16.1522 Y8.1430
G01 X16.0735 Y8.0368
G01 X16.0647 Y8.0233
G01 X15.9945 Y7.9059
G01 X15.9896 Y7.8961
G01 X15.9333 Y7.7769
G01 X15.9273 Y7.7620
G01 X15.8812 Y7.6327
G01 X15.8784 Y7.6225
G01 X15.8454 Y7.4898
G01 X15.8435 Y7.4789
G01 X15.8236 Y7.3435
G01 X15.8227 Y7.3325
G01 X15.8163 Y7.1983
G01 X15.8165 Y7.1853
G01 X15.8228 Y7.0570
G01 X15.8247 Y7.0377
G01 X15.8450 Y6.9020
G01 X15.8474 Y6.8912
G01 X15.8784 Y6.7675
G01 X15.9491 Y6.7852
G01 X15.9529 Y6.7726
G01 X15.9979 Y6.6472
G01 X16.0554 Y6.5251
G01 X16.0616 Y6.5135
G01 X16.1302 Y6.3993
G01 X16.2104 Y6.2907
G01 X16.2188 Y6.2806
G01 X16.3061 Y6.1843
G01 X16.3137 Y6.1768
G01 X16.4125 Y6.0874
G01 X16.5208 Y6.0068
G01 X16.5317 Y5.9995
G01 X16.6411 Y5.9340
G01 X16.6527 Y5.9278
G01 X16.7749 Y5.8702
G01 X16.9059 Y5.8234
G01 X17.0421 Y5.7892
G01 X17.1756 Y5.7692
G01 X17.1886 Y5.7679
G01 X17.3161 Y5.7616
G01 X17.3292 Y5.7616
G01 X17.4640 Y5.7685
G01 X17.5958 Y5.7879
G01 X17.6087 Y5.7904
G01 X17.7396 Y5.8235
G01 X17.8720 Y5.8709
G01 X17.9976 Y5.9303
G01 X18.1183 Y6.0026
G01 X18.2314 Y6.0863
G01 X18.3356 Y6.1807
G01 X18.4302 Y6.2849
G01 X18.5108 Y6.3932
G01 X18.5181 Y6.4041
G01 X18.5837 Y6.5135
G01 X18.5898 Y6.5251
G01 X18.6474 Y6.6472
G01 X18.6924 Y6.7726
G01 X18.6951 Y6.7812
G01 X18.7284 Y6.9145
G01 X18.7485 Y7.0480
G01 X18.7497 Y7.0610
G01 X18.7562 Y7.1959
G01 X18.7497 Y7.3290
G01 X18.7485 Y7.3420
G01 X18.7284 Y7.4755
G01 X18.6947 Y7.6103
G01 X18.6494 Y7.7375
G01 X18.6444 Y7.7496
G01 X18.5865 Y7.8716
G01 X18.5151 Y7.9907
G01 X18.4348 Y8.0993
G01 X18.4271 Y8.1087
G01 X18.3369 Y8.2080
G01 X18.2566 Y8.2811
G01 X18.2566 Y11.6131
G01 X19.2130 Y12.5696
G01 X19.2709 Y12.6332
G01 X19.2786 Y12.6427
G01 X19.3287 Y12.7104
G01 X19.3759 Y12.7890
G01 X19.4151 Y12.8718
G01 X19.4456 Y12.9566
G01 X19.4481 Y12.9652
G01 X19.4672 Y13.0414
G01 X19.4697 Y13.0543
G01 X19.4821 Y13.1393
G01 X19.4865 Y13.2276
G01 X19.4866 Y15.2099
G01 X19.5084 Y15.2567
G01 X19.5404 Y15.3460
G01 X19.5434 Y15.3563
G01 X19.5654 Y15.4443
G01 X19.5674 Y15.4548
G01 X19.5811 Y15.5478
G01 X19.5860 Y15.6434
G01 X19.5861 Y15.6524
G01 X19.5811 Y15.7522
G01 X19.5661 Y15.8525
G01 X19.5414 Y15.9509
G01 X19.5071 Y16.0463
G01 X19.4637 Y16.1380
G01 X19.4115 Y16.2249
G01 X19.3510 Y16.3064
G01 X19.2828 Y16.3815
G01 X19.2077 Y16.4494
G01 X19.1261 Y16.5098
G01 X19.0390 Y16.5619
G01 X18.9490 Y16.6045
G01 X18.8535 Y16.6388
G01 X18.7551 Y16.6635
G01 X18.6548 Y16.6785
G01 X18.5535 Y16.6835
G01 X18.4579 Y16.6790
G01 X18.4448 Y16.6778
G01 X18.3501 Y16.6635
G01 X18.2535 Y16.6393
G01 X18.1632 Y16.6072
G01 X18.1511 Y16.6022
G01 X18.0662 Y16.5619
G01 X17.9840 Y16.5129
G01 X17.9731 Y16.5056
G01 X17.8976 Y16.4495
G01 X17.8265 Y16.3853
G01 X17.8173 Y16.3761
G01 X17.7532 Y16.3051
G01 X17.6970 Y16.2296
G01 X17.6898 Y16.2187
G01 X17.6443 Y16.1429
G01 X17.6386 Y16.1322
G01 X17.6000 Y16.0507
G01 X17.5954 Y16.0394
G01 X17.5633 Y15.9492
G01 X17.5404 Y15.8580
G01 X17.5378 Y15.8452
G01 X17.5241 Y15.7522
G01 X17.5191 Y15.6509
G01 X17.5241 Y15.5478
G01 X17.5378 Y15.4548
G01 X17.5398 Y15.4443
G01 X17.5618 Y15.3563
G01 X17.5649 Y15.3460
G01 X17.5969 Y15.2567
G01 X17.6187 Y15.2099
G01 X17.6187 Y13.6169
G01 X16.6622 Y12.6604
G01 X16.6034 Y12.5957
G01 X16.5966 Y12.5873
G01 X16.5466 Y12.5196
G01 X16.4994 Y12.4410
G01 X16.4594 Y12.3566
G01 X16.4308 Y12.2770
G01 X16.4282 Y12.2687
G01 X16.4068 Y12.1831
G01 X16.3940 Y12.0980
G01 X16.3927 Y12.0850
G01 X16.3887 Y12.0009
G01 X16.3887 Y8.2811
G01 X16.3083 Y8.2080
G01 X16.2182 Y8.1087
G01 X16.2104 Y8.0993
G01 X16.1339 Y7.9961
G01 X16.1272 Y7.9859
G01 X16.0588 Y7.8716
G01 X16.0005 Y7.7488
G01 X15.9958 Y7.7375
G01 X15.9510 Y7.6117
G01 X15.9168 Y7.4755
G01 X15.8959 Y7.3346
G01 X15.8891 Y7.1941
G01 X15.8955 Y7.0610
G01 X15.8968 Y7.0480
G01 X15.9165 Y6.9162
G01 X15.9491 Y6.7852
G01 X16.0197 Y6.8029
G01 X16.0214 Y6.7972
G01 X16.0655 Y6.6743
G01 X16.1212 Y6.5562
G01 X16.1241 Y6.5510
G01 X16.1912 Y6.4390
G01 X16.2689 Y6.3341
G01 X16.2727 Y6.3295
G01 X16.3594 Y6.2339
G01 X16.4594 Y6.1432
G01 X16.5642 Y6.0653
G01 X16.5692 Y6.0620
G01 X16.6786 Y5.9964
G01 X16.6838 Y5.9936
G01 X16.8019 Y5.9379
G01 X16.9277 Y5.8929
G01 X17.0572 Y5.8604
G01 X17.1863 Y5.8412
G01 X17.1922 Y5.8406
G01 X17.3196 Y5.8344
G01 X17.3256 Y5.8344
G01 X17.4560 Y5.8409
G01 X17.5851 Y5.8599
G01 X17.5910 Y5.8611
G01 X17.7176 Y5.8929
G01 X17.8433 Y5.9379
G01 X17.9640 Y5.9950
G01 X18.0786 Y6.0636
G01 X18.1858 Y6.1432
G01 X18.2848 Y6.2328
G01 X18.3745 Y6.3318
G01 X18.4523 Y6.4366
G01 X18.4556 Y6.4416
G01 X18.5226 Y6.5536
G01 X18.5785 Y6.6716
G01 X18.5808 Y6.6771
G01 X18.6238 Y6.7972
G01 X18.6255 Y6.8029
G01 X18.6572 Y6.9295
G01 X18.6764 Y7.0587
G01 X18.6770 Y7.0646
G01 X18.6833 Y7.1950
G01 X18.6770 Y7.3254
G01 X18.6764 Y7.3313
G01 X18.6572 Y7.4605
G01 X18.6247 Y7.5900
G01 X18.5808 Y7.7129
G01 X18.5785 Y7.7184
G01 X18.5226 Y7.8364
G01 X18.4540 Y7.9510
G01 X18.3745 Y8.0582
G01 X18.2868 Y8.1550
G01 X18.2826 Y8.1592
G01 X18.1881 Y8.2449
G01 X18.1837 Y8.2485
G01 X18.1837 Y11.6433
G01 X19.1615 Y12.6211
G01 X19.2163 Y12.6815
G01 X19.2201 Y12.6861
G01 X19.2686 Y12.7516
G01 X19.3120 Y12.8241
G01 X19.3482 Y12.9005
G01 X19.3762 Y12.9786
G01 X19.3965 Y13.0591
G01 X19.3977 Y13.0649
G01 X19.4096 Y13.1456
G01 X19.4137 Y13.2285
G01 X19.4137 Y15.2262
G01 X19.4402 Y15.2824
G01 X19.4710 Y15.3683
G01 X19.4727 Y15.3740
G01 X19.4945 Y15.4611
G01 X19.5087 Y15.5558
G01 X19.5133 Y15.6500
G01 X19.5087 Y15.7442
G01 X19.4949 Y15.8374
G01 X19.4720 Y15.9289
G01 X19.4402 Y16.0176
G01 X19.3999 Y16.1029
G01 X19.3514 Y16.1837
G01 X19.2952 Y16.2595
G01 X19.2319 Y16.3293
G01 X19.1621 Y16.3926
G01 X19.0864 Y16.4488
G01 X19.0055 Y16.4973
G01 X18.9203 Y16.5376
G01 X18.8315 Y16.5693
G01 X18.7400 Y16.5922
G01 X18.6468 Y16.6061
G01 X18.5526 Y16.6107
G01 X18.4585 Y16.6061
G01 X18.3681 Y16.5927
G01 X18.3623 Y16.5916
G01 X18.2737 Y16.5693
G01 X18.1878 Y16.5386
G01 X18.1823 Y16.5364
G01 X18.0997 Y16.4973
G01 X18.0189 Y16.4488
G01 X17.9455 Y16.3945
G01 X17.9409 Y16.3907
G01 X17.8733 Y16.3293
G01 X17.8100 Y16.2595
G01 X17.7555 Y16.1862
G01 X17.7522 Y16.1812
G01 X17.7054 Y16.1029
G01 X17.6663 Y16.0204
G01 X17.6640 Y16.0149
G01 X17.6333 Y15.9289
G01 X17.6104 Y15.8374
G01 X17.5965 Y15.7442
G01 X17.5919 Y15.6500
G01 X17.5965 Y15.5558
G01 X17.6107 Y15.4611
G01 X17.6325 Y15.3740
G01 X17.6342 Y15.3683
G01 X17.6650 Y15.2824
G01 X17.6915 Y15.2262
G01 X17.6915 Y13.5867
G01 X16.7137 Y12.6089
G01 X16.6589 Y12.5485
G01 X16.6551 Y12.5439
G01 X16.6066 Y12.4784
G01 X16.5632 Y12.4059
G01 X16.5271 Y12.3295
G01 X16.4994 Y12.2526
G01 X16.4978 Y12.2471
G01 X16.4781 Y12.1680
G01 X16.4660 Y12.0874
G01 X16.4654 Y12.0814
G01 X16.4615 Y12.0000
G01 X16.4615 Y8.2485
G01 X16.4571 Y8.2449
G01 X16.3626 Y8.1592
G01 X16.3584 Y8.1550
G01 X16.2708 Y8.0582
G01 X16.1912 Y7.9510
G01 X16.1226 Y7.8364
G01 X16.0667 Y7.7184
G01 X16.0644 Y7.7129
G01 X16.0205 Y7.5899
G01 X15.9881 Y7.4605
G01 X15.9688 Y7.3313
G01 X15.9683 Y7.3254
G01 X15.9619 Y7.1950
G01 X15.9683 Y7.0646
G01 X15.9688 Y7.0587
G01 X15.9881 Y6.9295
G01 X16.0197 Y6.8029
G00 Z2.0000
G00 X16.2650 Y12.2167
G01 F400.00
G01 Z-0.0399
G01 F400.00
G01 X16.2573 Y12.2372
G01 X16.2521 Y12.2496
G01 X16.2459 Y12.2625
G01 X16.2453 Y12.2637
G01 X16.2445 Y12.2653
G01 X16.2443 Y12.2657
G01 X16.2423 Y12.2694
G01 X16.2386 Y12.2758
G01 X16.2301 Y12.2895
G01 X16.2205 Y12.3032
G01 X16.2110 Y12.3151
G01 X16.2002 Y12.3271
G01 X16.1871 Y12.3402
G01 X16.1723 Y12.3529
G01 X16.1088 Y12.4007
G01 X16.0894 Y12.4139
G01 X16.0786 Y12.4203
G01 X16.0684 Y12.4258
G01 X16.0571 Y12.4313
G01 X16.0448 Y12.4365
G01 X16.0332 Y12.4408
G01 X16.0204 Y12.4449
G01 X16.0079 Y12.4483
G01 X15.9948 Y12.4512
G01 X15.9829 Y12.4533
G01 X15.9696 Y12.4549
G01 X15.8896 Y12.4608
G01 X15.8682 Y12.4613
G01 X15.8515 Y12.4606
G01 X15.8350 Y12.4589
G01 X15.8180 Y12.4561
G01 X15.8019 Y12.4524
G01 X16.7760 Y13.4266
G01 X16.7849 Y13.4359
G01 X16.8387 Y13.4952
G01 X16.8480 Y13.5061
G01 X16.9024 Y13.5790
G01 X16.9108 Y13.5909
G01 X16.9176 Y13.6018
G01 X16.9641 Y13.6799
G01 X16.9706 Y13.6927
G01 X17.0063 Y13.7681
G01 X17.0144 Y13.7880
G01 X17.0450 Y13.8740
G01 X17.0492 Y13.8889
G01 X17.0685 Y13.9660
G01 X17.0713 Y13.9785
G01 X17.0738 Y13.9927
G01 X17.0857 Y14.0730
G01 X17.0879 Y14.0952
G01 X17.0919 Y14.1765
G01 X17.0922 Y14.1893
G01 X17.0922 Y15.1771
G01 X17.0999 Y15.1937
G01 X17.1054 Y15.2072
G01 X17.1398 Y15.3037
G01 X17.1446 Y15.3202
G01 X17.1683 Y15.4159
G01 X17.1715 Y15.4332
G01 X17.1860 Y15.5331
G01 X17.1871 Y15.5474
G01 X17.1917 Y15.6409
G01 X17.1915 Y15.6628
G01 X17.1872 Y15.7521
G01 X17.1862 Y15.7647
G01 X17.1846 Y15.7785
G01 X17.1715 Y15.8668
G01 X17.1680 Y15.8854
G01 X17.1443 Y15.9808
G01 X17.1386 Y16.0001
G01 X17.1038 Y16.0970
G01 X17.0976 Y16.1116
G01 X17.0801 Y16.1485
G01 X17.1516 Y16.1152
G01 X17.1662 Y16.1093
G01 X17.1806 Y16.1044
G01 X17.2006 Y16.0989
G01 X17.2210 Y16.0949
G01 X17.2417 Y16.0925
G01 X17.2616 Y16.0916
G01 X17.2801 Y16.0920
G01 X17.2992 Y16.0938
G01 X17.3751 Y16.1042
G01 X17.3869 Y16.1062
G01 X17.3991 Y16.1089
G01 X17.4208 Y16.1151
G01 X17.4322 Y16.1191
G01 X17.4429 Y16.1234
G01 X17.4638 Y16.1334
G01 X17.4834 Y16.1448
G01 X17.4670 Y16.1100
G01 X17.4611 Y16.0962
G01 X17.4265 Y15.9997
G01 X17.4207 Y15.9800
G01 X17.3973 Y15.8859
G01 X17.3938 Y15.8672
G01 X17.3792 Y15.7669
G01 X17.3781 Y15.7519
G01 X17.3734 Y15.6513
G01 X17.3737 Y15.6363
G01 X17.3781 Y15.5474
G01 X17.3792 Y15.5335
G01 X17.3807 Y15.5210
G01 X17.3937 Y15.4332
G01 X17.3966 Y15.4173
G01 X17.4206 Y15.3207
G01 X17.4254 Y15.3037
G01 X17.4598 Y15.2072
G01 X17.4653 Y15.1937
G01 X17.4730 Y15.1771
G01 X17.4730 Y13.6772
G01 X16.5587 Y12.7629
G01 X16.5498 Y12.7535
G01 X16.4889 Y12.6859
G01 X16.4800 Y12.6746
G01 X16.4328 Y12.6110
G01 X16.4237 Y12.5979
G01 X16.3762 Y12.5191
G01 X16.3701 Y12.5081
G01 X16.3646 Y12.4973
G01 X16.3304 Y12.4251
G01 X16.3255 Y12.4140
G01 X16.3205 Y12.4010
G01 X16.2936 Y12.3258
G01 X16.2897 Y12.3141
G01 X16.2865 Y12.3027
G01 X16.2650 Y12.2167
G01 X16.1187 Y12.5633
G01 X16.8799 Y13.3245
G01 X16.8931 Y13.3383
G01 X16.9559 Y13.4080
G01 X16.9719 Y13.4282
G01 X17.0202 Y13.4932
G01 X17.0304 Y13.5077
G01 X17.0423 Y13.5264
G01 X17.0836 Y13.5954
G01 X17.0917 Y13.6095
G01 X17.1024 Y13.6306
G01 X17.1367 Y13.7032
G01 X17.1438 Y13.7190
G01 X17.1516 Y13.7390
G01 X17.1816 Y13.8231
G01 X17.1896 Y13.8502
G01 X17.2100 Y13.9312
G01 X17.2140 Y13.9491
G01 X17.2173 Y13.9671
G01 X17.2297 Y14.0505
G01 X17.2319 Y14.0690
G01 X17.2335 Y14.0891
G01 X17.2375 Y14.1718
G01 X17.2379 Y14.1899
G01 X17.2379 Y15.1460
G01 X17.2438 Y15.1613
G01 X17.2744 Y15.2468
G01 X17.2826 Y15.2727
G01 X17.2908 Y15.2471
G01 X17.3213 Y15.1619
G01 X17.3268 Y15.1473
G01 X17.3273 Y13.7375
G01 X16.4562 Y12.8664
G01 X16.4422 Y12.8517
G01 X16.3873 Y12.7911
G01 X16.3740 Y12.7756
G01 X16.3627 Y12.7609
G01 X16.3151 Y12.6968
G01 X16.3058 Y12.6836
G01 X16.2933 Y12.6641
G01 X16.2451 Y12.5832
G01 X16.2344 Y12.5626
G01 X16.2085 Y12.5080
G01 X16.1849 Y12.5254
G01 X16.1642 Y12.5390
G01 X16.1416 Y12.5520
G01 X16.1187 Y12.5633
G01 X15.9796 Y12.5271
G01 X16.8282 Y13.3757
G01 X16.8391 Y13.3873
G01 X16.8985 Y13.4530
G01 X16.9134 Y13.4715
G01 X16.9614 Y13.5363
G01 X16.9699 Y13.5482
G01 X16.9799 Y13.5640
G01 X17.0274 Y13.6438
G01 X17.0366 Y13.6618
G01 X17.0707 Y13.7340
G01 X17.0763 Y13.7465
G01 X17.0831 Y13.7638
G01 X17.1105 Y13.8403
G01 X17.1157 Y13.8563
G01 X17.1200 Y13.8717
G01 X17.1400 Y13.9517
G01 X17.1451 Y13.9772
G01 X17.1575 Y14.0608
G01 X17.1594 Y14.0762
G01 X17.1607 Y14.0930
G01 X17.1648 Y14.1753
G01 X17.1651 Y14.1900
G01 X17.1651 Y15.1609
G01 X17.1704 Y15.1733
G01 X17.1751 Y15.1857
G01 X17.2056 Y15.2710
G01 X17.2102 Y15.2848
G01 X17.2153 Y15.3029
G01 X17.2399 Y15.4025
G01 X17.2435 Y15.4223
G01 X17.2566 Y15.5106
G01 X17.2584 Y15.5246
G01 X17.2599 Y15.5433
G01 X17.2643 Y15.6340
G01 X17.2647 Y15.6482
G01 X17.2645 Y15.6622
G01 X17.2599 Y15.7555
G01 X17.2587 Y15.7718
G01 X17.2566 Y15.7894
G01 X17.2434 Y15.8786
G01 X17.2399 Y15.8975
G01 X17.2148 Y15.9990
G01 X17.2076 Y16.0233
G01 X17.2234 Y16.0211
G01 X17.2408 Y16.0195
G01 X17.2581 Y16.0188
G01 X17.2756 Y16.0189
G01 X17.2890 Y16.0196
G01 X17.3040 Y16.0210
G01 X17.3594 Y16.0285
G01 X17.3550 Y16.0152
G01 X17.3511 Y16.0017
G01 X17.3284 Y15.9111
G01 X17.3248 Y15.8951
G01 X17.3218 Y15.8782
G01 X17.3085 Y15.7887
G01 X17.3063 Y15.7698
G01 X17.3053 Y15.7559
G01 X17.3009 Y15.6664
G01 X17.3006 Y15.6440
G01 X17.3053 Y15.5441
G01 X17.3067 Y15.5257
G01 X17.3086 Y15.5110
G01 X17.3217 Y15.4224
G01 X17.3252 Y15.4031
G01 X17.3283 Y15.3893
G01 X17.3499 Y15.3029
G01 X17.3550 Y15.2848
G01 X17.3596 Y15.2710
G01 X17.3901 Y15.1857
G01 X17.3949 Y15.1733
G01 X17.4002 Y15.1609
G01 X17.4002 Y13.7074
G01 X16.5071 Y12.8143
G01 X16.4964 Y12.8031
G01 X16.4397 Y12.7404
G01 X16.4308 Y12.7299
G01 X16.4227 Y12.7195
G01 X16.3663 Y12.6430
G01 X16.3558 Y12.6267
G01 X16.3113 Y12.5524
G01 X16.2996 Y12.5302
G01 X16.2617 Y12.4498
G01 X16.2536 Y12.4303
G01 X16.2395 Y12.3909
G01 X16.2267 Y12.4024
G01 X16.2139 Y12.4129
G01 X16.2084 Y12.4171
G01 X16.1524 Y12.4590
G01 X16.1483 Y12.4620
G01 X16.1278 Y12.4758
G01 X16.1053 Y12.4888
G01 X16.0902 Y12.4962
G01 X16.0752 Y12.5028
G01 X16.0595 Y12.5088
G01 X16.0446 Y12.5137
G01 X16.0287 Y12.5182
G01 X16.0125 Y12.5219
G01 X15.9960 Y12.5249
G01 X15.9796 Y12.5271
G00 Z2.0000
G00 X17.2307 Y13.7440
G01 F400.00
G01 Z-0.0399
G01 F400.00
G01 X17.2483 Y13.7931
G01 X17.2544 Y13.8118
G01 X17.2545 Y13.7677
G01 X17.2307 Y13.7440
G00 Z2.0000
G00 X19.6880 Y13.0367
G01 F400.00
G01 Z-0.0399
G01 F400.00
G01 X19.6977 Y13.1022
G01 X19.6998 Y13.1199
G01 X19.7008 Y13.1334
G01 X19.7047 Y13.2127
G01 X19.7051 Y13.2274
G01 X19.7051 Y15.1609
G01 X19.7104 Y15.1733
G01 X19.7151 Y15.1857
G01 X19.7456 Y15.2710
G01 X19.7502 Y15.2848
G01 X19.7553 Y15.3029
G01 X19.7769 Y15.3893
G01 X19.7801 Y15.4031
G01 X19.7835 Y15.4224
G01 X19.7967 Y15.5110
G01 X19.7985 Y15.5257
G01 X19.7999 Y15.5441
G01 X19.8046 Y15.6429
G01 X19.8043 Y15.6663
G01 X19.7999 Y15.7559
G01 X19.7989 Y15.7698
G01 X19.7967 Y15.7887
G01 X19.7836 Y15.8773
G01 X19.7808 Y15.8934
G01 X19.7771 Y15.9101
G01 X19.7546 Y15.9998
G01 X19.7476 Y16.0233
G01 X19.7634 Y16.0211
G01 X19.7808 Y16.0195
G01 X19.7981 Y16.0188
G01 X19.8156 Y16.0189
G01 X19.8290 Y16.0196
G01 X19.8440 Y16.0210
G01 X19.8994 Y16.0285
G01 X19.8950 Y16.0152
G01 X19.8911 Y16.0017
G01 X19.8684 Y15.9111
G01 X19.8648 Y15.8951
G01 X19.8618 Y15.8782
G01 X19.8485 Y15.7887
G01 X19.8463 Y15.7698
G01 X19.8453 Y15.7559
G01 X19.8409 Y15.6663
G01 X19.8406 Y15.6431
G01 X19.8453 Y15.5441
G01 X19.8467 Y15.5257
G01 X19.8486 Y15.5110
G01 X19.8617 Y15.4224
G01 X19.8652 Y15.4031
G01 X19.8683 Y15.3893
G01 X19.8899 Y15.3029
G01 X19.8950 Y15.2848
G01 X19.8996 Y15.2710
G01 X19.9301 Y15.1857
G01 X19.9349 Y15.1733
G01 X19.9402 Y15.1609
G01 X19.9402 Y13.2274
G01 X19.9406 Y13.2127
G01 X19.9444 Y13.1343
G01 X19.9445 Y13.1334
G01 X19.9454 Y13.1199
G01 X19.9475 Y13.1022
G01 X19.9572 Y13.0365
G01 X19.9363 Y13.0436
G01 X19.9232 Y13.0476
G01 X19.9086 Y13.0513
G01 X19.8924 Y13.0548
G01 X19.8760 Y13.0574
G01 X19.8596 Y13.0593
G01 X19.8439 Y13.0604
G01 X19.8280 Y13.0607
G01 X19.8134 Y13.0604
G01 X19.7978 Y13.0594
G01 X19.7828 Y13.0578
G01 X19.7679 Y13.0556
G01 X19.7466 Y13.0512
G01 X19.6880 Y13.0367
G01 X19.7735 Y13.1301
G01 X19.7775 Y13.2107
G01 X19.7779 Y13.2295
G01 X19.7779 Y15.1460
G01 X19.7838 Y15.1613
G01 X19.8144 Y15.2468
G01 X19.8226 Y15.2727
G01 X19.8308 Y15.2471
G01 X19.8613 Y15.1619
G01 X19.8668 Y15.1473
G01 X19.8673 Y13.2294
G01 X19.8678 Y13.2108
G01 X19.8678 Y13.2092
G01 X19.8717 Y13.1313
G01 X19.8472 Y13.1331
G01 X19.8228 Y13.1335
G01 X19.7975 Y13.1325
G01 X19.7735 Y13.1301
G01 X20.0858 Y13.2300
G01 X20.0906 Y13.1322
G01 X20.0919 Y13.1217
G01 X20.1035 Y13.0431
G01 X20.1070 Y13.0254
G01 X20.1074 Y13.0237
G01 X20.1265 Y12.9475
G01 X20.1322 Y12.9286
G01 X20.1590 Y12.8538
G01 X20.1628 Y12.8439
G01 X20.2043 Y12.7562
G01 X20.2097 Y12.7466
G01 X20.2550 Y12.6714
G01 X20.2611 Y12.6627
G01 X20.3084 Y12.5989
G01 X20.3201 Y12.5846
G01 X20.3804 Y12.5184
G01 X21.3158 Y11.5830
G01 X21.3158 Y8.3134
G01 X21.2645 Y8.2669
G01 X21.2551 Y8.2578
G01 X21.1620 Y8.1552
G01 X21.1519 Y8.1427
G01 X21.0757 Y8.0398
G01 X21.0678 Y8.0284
G01 X20.9945 Y7.9059
G01 X20.9896 Y7.8961
G01 X20.9350 Y7.7807
G01 X20.9273 Y7.7620
G01 X20.8841 Y7.6414
G01 X20.8799 Y7.6280
G01 X20.8454 Y7.4898
G01 X20.8435 Y7.4789
G01 X20.8247 Y7.3527
G01 X20.8228 Y7.3330
G01 X20.8165 Y7.2051
G01 X20.8162 Y7.1941
G01 X20.8228 Y7.0570
G01 X20.8247 Y7.0373
G01 X20.8435 Y6.9111
G01 X20.8454 Y6.9002
G01 X20.8806 Y6.7594
G01 X20.8843 Y6.7481
G01 X20.9306 Y6.6194
G01 X20.9350 Y6.6093
G01 X20.9937 Y6.4857
G01 X20.9991 Y6.4761
G01 X21.0647 Y6.3667
G01 X21.0706 Y6.3574
G01 X21.1519 Y6.2473
G01 X21.1589 Y6.2385
G01 X21.2505 Y6.1372
G01 X21.2581 Y6.1292
G01 X21.3593 Y6.0372
G01 X21.3677 Y6.0300
G01 X21.4774 Y5.9483
G01 X21.4865 Y5.9420
G01 X21.6041 Y5.8713
G01 X21.6216 Y5.8619
G01 X21.7369 Y5.8074
G01 X21.7478 Y5.8026
G01 X21.8762 Y5.7565
G01 X21.8951 Y5.7508
G01 X22.0189 Y5.7198
G01 X22.0296 Y5.7174
G01 X22.1649 Y5.6971
G01 X22.1837 Y5.6952
G01 X22.3125 Y5.6889
G01 X22.3323 Y5.6888
G01 X22.4694 Y5.6958
G01 X22.4803 Y5.6971
G01 X22.6156 Y5.7174
G01 X22.6264 Y5.7198
G01 X22.7590 Y5.7532
G01 X22.7695 Y5.7567
G01 X22.8960 Y5.8021
G01 X22.9079 Y5.8072
G01 X23.0241 Y5.8621
G01 X23.0415 Y5.8715
G01 X23.1510 Y5.9371
G01 X23.1603 Y5.9430
G01 X23.2776 Y6.0300
G01 X23.2859 Y6.0372
G01 X23.3808 Y6.1231
G01 X23.3945 Y6.1368
G01 X23.4865 Y6.2387
G01 X23.4933 Y6.2473
G01 X23.5693 Y6.3499
G01 X23.5803 Y6.3663
G01 X23.6461 Y6.4761
G01 X23.6515 Y6.4857
G01 X23.7104 Y6.6097
G01 X23.7180 Y6.6280
G01 X23.7610 Y6.7481
G01 X23.7644 Y6.7586
G01 X23.7979 Y6.8917
G01 X23.8018 Y6.9111
G01 X23.8206 Y7.0377
G01 X23.8222 Y7.0533
G01 X23.8288 Y7.1862
G01 X23.8287 Y7.2051
G01 X23.8225 Y7.3325
G01 X23.8217 Y7.3435
G01 X23.8018 Y7.4789
G01 X23.7979 Y7.4983
G01 X23.7644 Y7.6314
G01 X23.7610 Y7.6419
G01 X23.7159 Y7.7676
G01 X23.7102 Y7.7807
G01 X23.6557 Y7.8961
G01 X23.6507 Y7.9059
G01 X23.5805 Y8.0233
G01 X23.5717 Y8.0368
G01 X23.4930 Y8.1430
G01 X23.4826 Y8.1559
G01 X23.3901 Y8.2578
G01 X23.3808 Y8.2669
G01 X23.3294 Y8.3134
G01 X23.3294 Y12.0000
G01 X23.3253 Y12.0890
G01 X23.3239 Y12.1046
G01 X23.3101 Y12.1961
G01 X23.2886 Y12.2829
G01 X23.2830 Y12.3014
G01 X23.2563 Y12.3762
G01 X23.2524 Y12.3861
G01 X23.2145 Y12.4668
G01 X23.2055 Y12.4834
G01 X23.1649 Y12.5512
G01 X23.1592 Y12.5601
G01 X23.1029 Y12.6361
G01 X23.0943 Y12.6464
G01 X23.0348 Y12.7116
G01 X22.0994 Y13.6470
G01 X22.0994 Y15.1935
G01 X22.1120 Y15.2203
G01 X22.1170 Y15.2321
G01 X22.1483 Y15.3196
G01 X22.1530 Y15.3346
G01 X22.1755 Y15.4243
G01 X22.1779 Y15.4350
G01 X22.1933 Y15.5383
G01 X22.1944 Y15.5512
G01 X22.1988 Y15.6403
G01 X22.1987 Y15.6601
G01 X22.1944 Y15.7483
G01 X22.1936 Y15.7593
G01 X22.1779 Y15.8650
G01 X22.1755 Y15.8757
G01 X22.1539 Y15.9618
G01 X22.1483 Y15.9804
G01 X22.1151 Y16.0726
G01 X22.1107 Y16.0827
G01 X22.0729 Y16.1625
G01 X22.0640 Y16.1792
G01 X22.0130 Y16.2639
G01 X22.0067 Y16.2730
G01 X21.9541 Y16.3439
G01 X21.9473 Y16.3526
G01 X21.8810 Y16.4260
G01 X21.8679 Y16.4390
G01 X21.8019 Y16.4989
G01 X21.7940 Y16.5056
G01 X21.7152 Y16.5644
G01 X21.6999 Y16.5746
G01 X21.6149 Y16.6253
G01 X21.6051 Y16.6303
G01 X21.5253 Y16.6681
G01 X21.5105 Y16.6744
G01 X21.4234 Y16.7056
G01 X21.4129 Y16.7090
G01 X21.3183 Y16.7329
G01 X21.3076 Y16.7353
G01 X21.2111 Y16.7498
G01 X21.2002 Y16.7511
G01 X21.1027 Y16.7561
G01 X21.0917 Y16.7564
G01 X20.9943 Y16.7518
G01 X20.9833 Y16.7510
G01 X20.8868 Y16.7369
G01 X20.8759 Y16.7349
G01 X20.7812 Y16.7114
G01 X20.7706 Y16.7085
G01 X20.6787 Y16.6758
G01 X20.6684 Y16.6718
G01 X20.5801 Y16.6303
G01 X20.5703 Y16.6253
G01 X20.4865 Y16.5753
G01 X20.4773 Y16.5695
G01 X20.3987 Y16.5115
G01 X20.3901 Y16.5047
G01 X20.3176 Y16.4393
G01 X20.3097 Y16.4317
G01 X20.2440 Y16.3596
G01 X20.2370 Y16.3514
G01 X20.1785 Y16.2730
G01 X20.1722 Y16.2639
G01 X20.1219 Y16.1804
G01 X20.1165 Y16.1708
G01 X20.0746 Y16.0827
G01 X20.0701 Y16.0726
G01 X20.0371 Y15.9808
G01 X20.0336 Y15.9703
G01 X20.0097 Y15.8757
G01 X20.0073 Y15.8650
G01 X19.9928 Y15.7685
G01 X19.9915 Y15.7576
G01 X19.9865 Y15.6601
G01 X19.9862 Y15.6491
G01 X19.9908 Y15.5517
G01 X19.9917 Y15.5407
G01 X20.0058 Y15.4441
G01 X20.0084 Y15.4301
G01 X20.0313 Y15.3382
G01 X20.0351 Y15.3249
G01 X20.0689 Y15.2305
G01 X20.0738 Y15.2190
G01 X20.0858 Y15.1935
G01 X20.0858 Y13.2300
G01 X20.1587 Y13.2300
G01 X20.1631 Y13.1393
G01 X20.1640 Y13.1320
G01 X20.1755 Y13.0543
G01 X20.1778 Y13.0423
G01 X20.1971 Y12.9652
G01 X20.2009 Y12.9527
G01 X20.2301 Y12.8718
G01 X20.2694 Y12.7890
G01 X20.3166 Y12.7104
G01 X20.3701 Y12.6382
G01 X20.4322 Y12.5696
G01 X21.3887 Y11.6131
G01 X21.3887 Y8.2811
G01 X21.3083 Y8.2080
G01 X21.2139 Y8.1037
G01 X21.1312 Y7.9922
G01 X21.0611 Y7.8757
G01 X21.0554 Y7.8649
G01 X21.0009 Y7.7496
G01 X20.9958 Y7.7375
G01 X20.9510 Y7.6117
G01 X20.9178 Y7.4802
G01 X20.9155 Y7.4682
G01 X20.8968 Y7.3420
G01 X20.8955 Y7.3290
G01 X20.8891 Y7.1941
G01 X20.8959 Y7.0554
G01 X20.9155 Y6.9218
G01 X20.9181 Y6.9089
G01 X20.9511 Y6.7780
G01 X20.9967 Y6.6503
G01 X21.0009 Y6.6404
G01 X21.0579 Y6.5200
G01 X21.1302 Y6.3993
G01 X21.2140 Y6.2861
G01 X21.3083 Y6.1820
G01 X21.4125 Y6.0874
G01 X21.5254 Y6.0036
G01 X21.6461 Y5.9312
G01 X21.7732 Y5.8709
G01 X21.9059 Y5.8234
G01 X22.0421 Y5.7892
G01 X22.1812 Y5.7685
G01 X22.3217 Y5.7615
G01 X22.4622 Y5.7683
G01 X22.6014 Y5.7888
G01 X22.7379 Y5.8229
G01 X22.8690 Y5.8697
G01 X22.8772 Y5.8732
G01 X22.9925 Y5.9278
G01 X23.0041 Y5.9340
G01 X23.1198 Y6.0036
G01 X23.2314 Y6.0863
G01 X23.3315 Y6.1768
G01 X23.3408 Y6.1861
G01 X23.4313 Y6.2863
G01 X23.5108 Y6.3932
G01 X23.5181 Y6.4041
G01 X23.5865 Y6.5184
G01 X23.6444 Y6.6404
G01 X23.6494 Y6.6525
G01 X23.6942 Y6.7780
G01 X23.7272 Y6.9089
G01 X23.7297 Y6.9218
G01 X23.7485 Y7.0480
G01 X23.7496 Y7.0586
G01 X23.7560 Y7.1884
G01 X23.7560 Y7.2016
G01 X23.7492 Y7.3364
G01 X23.7297 Y7.4682
G01 X23.7272 Y7.4811
G01 X23.6947 Y7.6103
G01 X23.6474 Y7.7428
G01 X23.5865 Y7.8716
G01 X23.5181 Y7.9859
G01 X23.5113 Y7.9961
G01 X23.4348 Y8.0993
G01 X23.4271 Y8.1087
G01 X23.3369 Y8.2080
G01 X23.2566 Y8.2811
G01 X23.2566 Y12.0000
G01 X23.2525 Y12.0850
G01 X23.2516 Y12.0957
G01 X23.2387 Y12.1817
G01 X23.2181 Y12.2648
G01 X23.2143 Y12.2773
G01 X23.1851 Y12.3582
G01 X23.1492 Y12.4344
G01 X23.1430 Y12.4460
G01 X23.0987 Y12.5196
G01 X23.0451 Y12.5918
G01 X22.9830 Y12.6604
G01 X22.0266 Y13.6169
G01 X22.0266 Y15.2099
G01 X22.0484 Y15.2567
G01 X22.0796 Y15.3438
G01 X22.0823 Y15.3523
G01 X22.1061 Y15.4475
G01 X22.1207 Y15.5446
G01 X22.1217 Y15.5552
G01 X22.1260 Y15.6434
G01 X22.1260 Y15.6566
G01 X22.1211 Y15.7522
G01 X22.1067 Y15.8493
G01 X22.1049 Y15.8580
G01 X22.0814 Y15.9509
G01 X22.0498 Y16.0394
G01 X22.0448 Y16.0515
G01 X22.0045 Y16.1364
G01 X21.9555 Y16.2187
G01 X21.9482 Y16.2296
G01 X21.8910 Y16.3064
G01 X21.8280 Y16.3761
G01 X21.8187 Y16.3853
G01 X21.7477 Y16.4494
G01 X21.6722 Y16.5056
G01 X21.6613 Y16.5129
G01 X21.5806 Y16.5611
G01 X21.4941 Y16.6022
G01 X21.4843 Y16.6064
G01 X21.3918 Y16.6393
G01 X21.2934 Y16.6638
G01 X21.1930 Y16.6786
G01 X21.0917 Y16.6835
G01 X20.9904 Y16.6785
G01 X20.8901 Y16.6635
G01 X20.7917 Y16.6388
G01 X20.6963 Y16.6045
G01 X20.6046 Y16.5611
G01 X20.5177 Y16.5089
G01 X20.4363 Y16.4484
G01 X20.3612 Y16.3802
G01 X20.2932 Y16.3051
G01 X20.2328 Y16.2235
G01 X20.1807 Y16.1364
G01 X20.1404 Y16.0515
G01 X20.1369 Y16.0433
G01 X20.1033 Y15.9492
G01 X20.0788 Y15.8508
G01 X20.0640 Y15.7504
G01 X20.0591 Y15.6491
G01 X20.0641 Y15.5478
G01 X20.0778 Y15.4548
G01 X20.0798 Y15.4443
G01 X20.1018 Y15.3563
G01 X20.1049 Y15.3460
G01 X20.1369 Y15.2567
G01 X20.1587 Y15.2099
G01 X20.1587 Y13.2300
G01 X20.2315 Y13.2300
G01 X20.2357 Y13.1456
G01 X20.2481 Y13.0620
G01 X20.2686 Y12.9800
G01 X20.2960 Y12.9033
G01 X20.2983 Y12.8977
G01 X20.3319 Y12.8267
G01 X20.3347 Y12.8215
G01 X20.3766 Y12.7516
G01 X20.4270 Y12.6837
G01 X20.4837 Y12.6211
G01 X21.4615 Y11.6433
G01 X21.4615 Y8.2485
G01 X21.4571 Y8.2449
G01 X21.3626 Y8.1592
G01 X21.3584 Y8.1550
G01 X21.2708 Y8.0582
G01 X21.1912 Y7.9510
G01 X21.1226 Y7.8364
G01 X21.0667 Y7.7184
G01 X21.0644 Y7.7129
G01 X21.0214 Y7.5926
G01 X21.0197 Y7.5871
G01 X20.9881 Y7.4605
G01 X20.9688 Y7.3313
G01 X20.9683 Y7.3254
G01 X20.9620 Y7.1980
G01 X20.9620 Y7.1920
G01 X20.9685 Y7.0616
G01 X20.9881 Y6.9295
G01 X21.0205 Y6.8000
G01 X21.0644 Y6.6771
G01 X21.0667 Y6.6716
G01 X21.1226 Y6.5536
G01 X21.1912 Y6.4390
G01 X21.2708 Y6.3317
G01 X21.3605 Y6.2328
G01 X21.4594 Y6.1432
G01 X21.5667 Y6.0636
G01 X21.6812 Y5.9950
G01 X21.8019 Y5.9379
G01 X21.9277 Y5.8929
G01 X22.0572 Y5.8604
G01 X22.1892 Y5.8409
G01 X22.3226 Y5.8343
G01 X22.4560 Y5.8409
G01 X22.5881 Y5.8604
G01 X22.7176 Y5.8929
G01 X22.8420 Y5.9373
G01 X22.9614 Y5.9936
G01 X22.9666 Y5.9964
G01 X23.0786 Y6.0636
G01 X23.1858 Y6.1432
G01 X23.2826 Y6.2308
G01 X23.2868 Y6.2350
G01 X23.3745 Y6.3318
G01 X23.4523 Y6.4366
G01 X23.4556 Y6.4416
G01 X23.5212 Y6.5510
G01 X23.5240 Y6.5562
G01 X23.5797 Y6.6743
G01 X23.6238 Y6.7972
G01 X23.6255 Y6.8029
G01 X23.6572 Y6.9295
G01 X23.6764 Y7.0587
G01 X23.6770 Y7.0646
G01 X23.6833 Y7.1950
G01 X23.6770 Y7.3254
G01 X23.6764 Y7.3313
G01 X23.6577 Y7.4575
G01 X23.6565 Y7.4634
G01 X23.6247 Y7.5900
G01 X23.5797 Y7.7157
G01 X23.5240 Y7.8338
G01 X23.5212 Y7.8390
G01 X23.4540 Y7.9510
G01 X23.3763 Y8.0559
G01 X23.3725 Y8.0605
G01 X23.2848 Y8.1572
G01 X23.1881 Y8.2449
G01 X23.1837 Y8.2485
G01 X23.1837 Y12.0000
G01 X23.1794 Y12.0859
G01 X23.1671 Y12.1681
G01 X23.1474 Y12.2471
G01 X23.1457 Y12.2528
G01 X23.1182 Y12.3295
G01 X23.0834 Y12.4033
G01 X23.0806 Y12.4085
G01 X23.0386 Y12.4784
G01 X22.9883 Y12.5463
G01 X22.9315 Y12.6089
G01 X21.9537 Y13.5867
G01 X21.9537 Y15.2262
G01 X21.9802 Y15.2824
G01 X22.0124 Y15.3726
G01 X22.0349 Y15.4626
G01 X22.0485 Y15.5544
G01 X22.0532 Y15.6470
G01 X22.0532 Y15.6530
G01 X22.0487 Y15.7442
G01 X22.0351 Y15.8360
G01 X22.0120 Y15.9289
G01 X21.9813 Y16.0149
G01 X21.9790 Y16.0204
G01 X21.9399 Y16.1029
G01 X21.8930 Y16.1812
G01 X21.8897 Y16.1862
G01 X21.8352 Y16.2595
G01 X21.7740 Y16.3272
G01 X21.7698 Y16.3314
G01 X21.7021 Y16.3926
G01 X21.6288 Y16.4471
G01 X21.6238 Y16.4504
G01 X21.5455 Y16.4973
G01 X21.4589 Y16.5381
G01 X21.3715 Y16.5693
G01 X21.2800 Y16.5922
G01 X21.1868 Y16.6061
G01 X21.0926 Y16.6107
G01 X20.9985 Y16.6061
G01 X20.9052 Y16.5922
G01 X20.8137 Y16.5693
G01 X20.7250 Y16.5376
G01 X20.6397 Y16.4973
G01 X20.5589 Y16.4488
G01 X20.4832 Y16.3926
G01 X20.4133 Y16.3293
G01 X20.3500 Y16.2595
G01 X20.2938 Y16.1837
G01 X20.2454 Y16.1029
G01 X20.2045 Y16.0163
G01 X20.1733 Y15.9289
G01 X20.1504 Y15.8374
G01 X20.1365 Y15.7442
G01 X20.1319 Y15.6500
G01 X20.1365 Y15.5558
G01 X20.1507 Y15.4611
G01 X20.1725 Y15.3740
G01 X20.1742 Y15.3683
G01 X20.2050 Y15.2824
G01 X20.2315 Y15.2262
G01 X20.2315 Y13.2300
G01 X20.0618 Y12.9094
G01 X20.0488 Y12.9185
G01 X20.0351 Y12.9271
G01 X20.0218 Y12.9344
G01 X20.0070 Y12.9415
G01 X19.9865 Y12.9496
G01 X19.9170 Y12.9733
G01 X19.8953 Y12.9796
G01 X19.8730 Y12.9842
G01 X19.8613 Y12.9859
G01 X19.8493 Y12.9871
G01 X19.8271 Y12.9879
G01 X19.8133 Y12.9875
G01 X19.8003 Y12.9865
G01 X19.7866 Y12.9848
G01 X19.7733 Y12.9825
G01 X19.7614 Y12.9798
G01 X19.6922 Y12.9627
G01 X19.6738 Y12.9574
G01 X19.6611 Y12.9529
G01 X19.6491 Y12.9481
G01 X19.6369 Y12.9424
G01 X19.6259 Y12.9367
G01 X19.6143 Y12.9300
G01 X19.6034 Y12.9230
G01 X19.5925 Y12.9152
G01 X19.5829 Y12.9076
G01 X19.5888 Y12.9274
G01 X19.6085 Y13.0062
G01 X19.6113 Y13.0185
G01 X19.6136 Y13.0311
G01 X19.6255 Y13.1112
G01 X19.6271 Y13.1251
G01 X19.6280 Y13.1376
G01 X19.6322 Y13.2240
G01 X19.6322 Y15.1771
G01 X19.6399 Y15.1937
G01 X19.6454 Y15.2072
G01 X19.6798 Y15.3037
G01 X19.6846 Y15.3202
G01 X19.7083 Y15.4159
G01 X19.7115 Y15.4332
G01 X19.7245 Y15.5210
G01 X19.7261 Y15.5335
G01 X19.7272 Y15.5481
G01 X19.7318 Y15.6473
G01 X19.7315 Y15.6637
G01 X19.7271 Y15.7526
G01 X19.7261 Y15.7665
G01 X19.7245 Y15.7790
G01 X19.7114 Y15.8672
G01 X19.7080 Y15.8859
G01 X19.6843 Y15.9808
G01 X19.6786 Y16.0001
G01 X19.6438 Y16.0970
G01 X19.6376 Y16.1116
G01 X19.6201 Y16.1485
G01 X19.6916 Y16.1152
G01 X19.7062 Y16.1093
G01 X19.7206 Y16.1044
G01 X19.7406 Y16.0989
G01 X19.7610 Y16.0949
G01 X19.7817 Y16.0925
G01 X19.8016 Y16.0916
G01 X19.8201 Y16.0920
G01 X19.8392 Y16.0938
G01 X19.9151 Y16.1042
G01 X19.9269 Y16.1062
G01 X19.9391 Y16.1089
G01 X19.9608 Y16.1151
G01 X19.9722 Y16.1191
G01 X19.9829 Y16.1234
G01 X20.0038 Y16.1334
G01 X20.0234 Y16.1448
G01 X20.0070 Y16.1100
G01 X20.0011 Y16.0962
G01 X19.9665 Y15.9997
G01 X19.9607 Y15.9800
G01 X19.9372 Y15.8854
G01 X19.9337 Y15.8668
G01 X19.9207 Y15.7790
G01 X19.9192 Y15.7665
G01 X19.9181 Y15.7526
G01 X19.9137 Y15.6637
G01 X19.9134 Y15.6473
G01 X19.9181 Y15.5481
G01 X19.9192 Y15.5335
G01 X19.9207 Y15.5210
G01 X19.9337 Y15.4332
G01 X19.9369 Y15.4159
G01 X19.9607 Y15.3202
G01 X19.9654 Y15.3037
G01 X19.9998 Y15.2072
G01 X20.0053 Y15.1937
G01 X20.0130 Y15.1771
G01 X20.0131 Y13.2240
G01 X20.0133 Y13.2163
G01 X20.0172 Y13.1378
G01 X20.0172 Y13.1376
G01 X20.0181 Y13.1251
G01 X20.0198 Y13.1112
G01 X20.0317 Y13.0311
G01 X20.0339 Y13.0185
G01 X20.0367 Y13.0062
G01 X20.0563 Y12.9279
G01 X20.0618 Y12.9094
G00 Z2.0000
G00 X22.6258 Y13.9400
G01 F400.00
G01 Z-0.0399
G01 F400.00
G01 X22.6306 Y13.8422
G01 X22.6319 Y13.8313
G01 X22.6450 Y13.7445
G01 X22.6474 Y13.7337
G01 X22.6689 Y13.6486
G01 X22.6722 Y13.6386
G01 X22.6990 Y13.5638
G01 X22.7058 Y13.5471
G01 X22.7402 Y13.4745
G01 X22.7497 Y13.4566
G01 X22.7903 Y13.3888
G01 X22.7965 Y13.3792
G01 X22.8489 Y13.3082
G01 X22.8607 Y13.2940
G01 X22.9207 Y13.2281
G01 X26.3158 Y9.8330
G01 X26.3158 Y8.7014
G01 X26.0158 Y8.7013
G01 X25.9991 Y8.7000
G01 X25.9832 Y8.6976
G01 X25.9667 Y8.6937
G01 X25.9514 Y8.6887
G01 X25.9382 Y8.6833
G01 X25.9261 Y8.6774
G01 X25.9137 Y8.6703
G01 X25.9011 Y8.6618
G01 X25.8903 Y8.6534
G01 X25.8797 Y8.6438
G01 X25.8703 Y8.6343
G01 X25.8605 Y8.6227
G01 X25.8520 Y8.6111
G01 X25.8439 Y8.5983
G01 X25.8375 Y8.5862
G01 X25.8316 Y8.5732
G01 X25.8264 Y8.5589
G01 X25.8226 Y8.5460
G01 X25.8196 Y8.5320
G01 X25.8176 Y8.5185
G01 X25.8166 Y8.5069
G01 X25.8162 Y8.4950
G01 X25.8163 Y5.8917
G01 X25.8171 Y5.8766
G01 X25.8191 Y5.8606
G01 X25.8226 Y5.8440
G01 X25.8272 Y5.8286
G01 X25.8332 Y5.8130
G01 X25.8402 Y5.7985
G01 X25.8487 Y5.7838
G01 X25.8574 Y5.7713
G01 X25.8652 Y5.7616
G01 X25.8725 Y5.7533
G01 X25.8810 Y5.7449
G01 X25.8892 Y5.7376
G01 X25.8990 Y5.7298
G01 X25.9087 Y5.7229
G01 X25.9181 Y5.7171
G01 X25.9290 Y5.7111
G01 X25.9398 Y5.7060
G01 X25.9514 Y5.7013
G01 X25.9619 Y5.6978
G01 X25.9733 Y5.6946
G01 X25.9856 Y5.6920
G01 X25.9965 Y5.6903
G01 X26.0083 Y5.6891
G01 X26.0193 Y5.6886
G01 X28.6259 Y5.6886
G01 X28.6411 Y5.6894
G01 X28.6570 Y5.6915
G01 X28.6719 Y5.6946
G01 X28.6882 Y5.6993
G01 X28.7032 Y5.7050
G01 X28.7170 Y5.7115
G01 X28.7302 Y5.7189
G01 X28.7441 Y5.7282
G01 X28.7528 Y5.7349
G01 X28.7619 Y5.7427
G01 X28.7698 Y5.7503
G01 X28.7783 Y5.7595
G01 X28.7859 Y5.7687
G01 X28.7924 Y5.7776
G01 X28.7992 Y5.7881
G01 X28.8050 Y5.7985
G01 X28.8106 Y5.8097
G01 X28.8148 Y5.8199
G01 X28.8189 Y5.8311
G01 X28.8224 Y5.8431
G01 X28.8249 Y5.8539
G01 X28.8269 Y5.8656
G01 X28.8283 Y5.8780
G01 X28.8289 Y5.8890
G01 X28.8290 Y8.4950
G01 X28.8287 Y8.5060
G01 X28.8279 Y8.5161
G01 X28.8261 Y8.5294
G01 X28.8230 Y8.5443
G01 X28.8191 Y8.5580
G01 X28.8145 Y8.5709
G01 X28.8084 Y8.5849
G01 X28.8017 Y8.5975
G01 X28.7937 Y8.6104
G01 X28.7859 Y8.6213
G01 X28.7767 Y8.6323
G01 X28.7673 Y8.6422
G01 X28.7561 Y8.6524
G01 X28.7448 Y8.6613
G01 X28.7338 Y8.6689
G01 X28.7207 Y8.6766
G01 X28.7079 Y8.6829
G01 X28.6938 Y8.6887
G01 X28.6785 Y8.6937
G01 X28.6620 Y8.6976
G01 X28.6461 Y8.7000
G01 X28.6295 Y8.7013
G01 X28.3294 Y8.7014
G01 X28.3292 Y10.2583
G01 X28.3253 Y10.3390
G01 X28.3245 Y10.3496
G01 X28.3118 Y10.4365
G01 X28.3098 Y10.4477
G01 X28.2887 Y10.5325
G01 X28.2858 Y10.5431
G01 X28.2564 Y10.6258
G01 X28.2524 Y10.6361
G01 X28.2109 Y10.7238
G01 X28.2055 Y10.7334
G01 X28.1602 Y10.8086
G01 X28.1539 Y10.8176
G01 X28.1014 Y10.8880
G01 X28.0943 Y10.8964
G01 X28.0368 Y10.9596
G01 X24.6394 Y14.3570
G01 X24.6394 Y15.1935
G01 X24.6520 Y15.2203
G01 X24.6570 Y15.2321
G01 X24.6883 Y15.3196
G01 X24.6930 Y15.3346
G01 X24.7155 Y15.4243
G01 X24.7179 Y15.4350
G01 X24.7333 Y15.5383
G01 X24.7344 Y15.5512
G01 X24.7388 Y15.6403
G01 X24.7387 Y15.6601
G01 X24.7344 Y15.7483
G01 X24.7336 Y15.7593
G01 X24.7195 Y15.8559
G01 X24.7171 Y15.8691
G01 X24.6941 Y15.9614
G01 X24.6908 Y15.9729
G01 X24.6580 Y16.0652
G01 X24.6507 Y16.0827
G01 X24.6123 Y16.1637
G01 X24.6034 Y16.1804
G01 X24.5530 Y16.2639
G01 X24.5467 Y16.2730
G01 X24.4941 Y16.3439
G01 X24.4821 Y16.3586
G01 X24.4156 Y16.4317
G01 X24.4076 Y16.4393
G01 X24.3354 Y16.5045
G01 X24.3265 Y16.5115
G01 X24.2556 Y16.5641
G01 X24.2465 Y16.5704
G01 X24.1630 Y16.6207
G01 X24.1513 Y16.6273
G01 X24.0653 Y16.6681
G01 X24.0552 Y16.6725
G01 X23.9634 Y16.7056
G01 X23.9529 Y16.7090
G01 X23.8583 Y16.7329
G01 X23.8476 Y16.7353
G01 X23.7511 Y16.7498
G01 X23.7402 Y16.7511
G01 X23.6335 Y16.7564
G01 X23.6225 Y16.7561
G01 X23.5251 Y16.7511
G01 X23.5141 Y16.7498
G01 X23.4177 Y16.7353
G01 X23.4069 Y16.7329
G01 X23.3123 Y16.7090
G01 X23.3018 Y16.7056
G01 X23.2101 Y16.6725
G01 X23.2000 Y16.6681
G01 X23.1119 Y16.6262
G01 X23.1023 Y16.6207
G01 X23.0188 Y16.5705
G01 X23.0097 Y16.5641
G01 X22.9314 Y16.5058
G01 X22.9231 Y16.4986
G01 X22.8509 Y16.4330
G01 X22.8433 Y16.4250
G01 X22.7782 Y16.3528
G01 X22.7711 Y16.3439
G01 X22.7132 Y16.2654
G01 X22.7073 Y16.2561
G01 X22.6598 Y16.1768
G01 X22.6523 Y16.1625
G01 X22.6146 Y16.0827
G01 X22.6101 Y16.0726
G01 X22.5766 Y15.9795
G01 X22.5713 Y15.9618
G01 X22.5477 Y15.8667
G01 X22.5458 Y15.8559
G01 X22.5328 Y15.7685
G01 X22.5309 Y15.7497
G01 X22.5263 Y15.6533
G01 X22.5265 Y15.6399
G01 X22.5315 Y15.5424
G01 X22.5328 Y15.5315
G01 X22.5458 Y15.4441
G01 X22.5482 Y15.4309
G01 X22.5713 Y15.3382
G01 X22.5751 Y15.3249
G01 X22.6089 Y15.2305
G01 X22.6138 Y15.2190
G01 X22.6258 Y15.1935
G01 X22.6258 Y13.9400
G01 X22.6987 Y13.9400
G01 X22.7031 Y13.8493
G01 X22.7165 Y13.7587
G01 X22.7386 Y13.6697
G01 X22.7694 Y13.5834
G01 X22.8085 Y13.5005
G01 X22.8556 Y13.4219
G01 X22.9101 Y13.3482
G01 X22.9683 Y13.2837
G01 X26.3887 Y9.8631
G01 X26.3887 Y8.6285
G01 X26.0217 Y8.6285
G01 X26.0072 Y8.6276
G01 X25.9925 Y8.6251
G01 X25.9830 Y8.6225
G01 X25.9737 Y8.6193
G01 X25.9647 Y8.6153
G01 X25.9547 Y8.6100
G01 X25.9465 Y8.6047
G01 X25.9386 Y8.5988
G01 X25.9299 Y8.5911
G01 X25.9231 Y8.5840
G01 X25.9168 Y8.5764
G01 X25.9111 Y8.5684
G01 X25.9053 Y8.5587
G01 X25.9009 Y8.5499
G01 X25.8966 Y8.5391
G01 X25.8937 Y8.5298
G01 X25.8915 Y8.5202
G01 X25.8900 Y8.5105
G01 X25.8891 Y8.4950
G01 X25.8891 Y5.8950
G01 X25.8898 Y5.8810
G01 X25.8918 Y5.8681
G01 X25.8951 Y5.8554
G01 X25.8996 Y5.8431
G01 X25.9037 Y5.8342
G01 X25.9085 Y5.8256
G01 X25.9140 Y5.8174
G01 X25.9200 Y5.8096
G01 X25.9265 Y5.8023
G01 X25.9323 Y5.7967
G01 X25.9398 Y5.7903
G01 X25.9477 Y5.7845
G01 X25.9560 Y5.7793
G01 X25.9647 Y5.7747
G01 X25.9737 Y5.7707
G01 X25.9830 Y5.7675
G01 X25.9925 Y5.7649
G01 X26.0021 Y5.7630
G01 X26.0104 Y5.7620
G01 X26.0202 Y5.7615
G01 X28.6235 Y5.7615
G01 X28.6348 Y5.7620
G01 X28.6446 Y5.7633
G01 X28.6542 Y5.7653
G01 X28.6654 Y5.7685
G01 X28.6745 Y5.7720
G01 X28.6835 Y5.7761
G01 X28.6920 Y5.7809
G01 X28.7014 Y5.7872
G01 X28.7080 Y5.7923
G01 X28.7140 Y5.7977
G01 X28.7243 Y5.8085
G01 X28.7332 Y5.8201
G01 X28.7408 Y5.8328
G01 X28.7469 Y5.8461
G01 X28.7497 Y5.8540
G01 X28.7519 Y5.8617
G01 X28.7548 Y5.8763
G01 X28.7557 Y5.8843
G01 X28.7561 Y5.8926
G01 X28.7562 Y8.4950
G01 X28.7554 Y8.5090
G01 X28.7540 Y8.5187
G01 X28.7519 Y8.5283
G01 X28.7491 Y8.5377
G01 X28.7451 Y8.5483
G01 X28.7408 Y8.5572
G01 X28.7350 Y8.5672
G01 X28.7293 Y8.5753
G01 X28.7231 Y8.5829
G01 X28.7164 Y8.5901
G01 X28.7080 Y8.5977
G01 X28.7002 Y8.6037
G01 X28.6920 Y8.6091
G01 X28.6835 Y8.6139
G01 X28.6745 Y8.6180
G01 X28.6637 Y8.6221
G01 X28.6542 Y8.6247
G01 X28.6463 Y8.6264
G01 X28.6381 Y8.6276
G01 X28.6235 Y8.6285
G01 X28.2566 Y8.6285
G01 X28.2565 Y10.2542
G01 X28.2520 Y10.3424
G01 X28.2384 Y10.4333
G01 X28.2161 Y10.5220
G01 X28.1851 Y10.6082
G01 X28.1467 Y10.6895
G01 X28.0997 Y10.7681
G01 X28.0451 Y10.8418
G01 X27.9847 Y10.9087
G01 X24.5666 Y14.3269
G01 X24.5666 Y15.2099
G01 X24.5884 Y15.2567
G01 X24.6196 Y15.3438
G01 X24.6223 Y15.3523
G01 X24.6461 Y15.4475
G01 X24.6607 Y15.5446
G01 X24.6617 Y15.5552
G01 X24.6660 Y15.6434
G01 X24.6660 Y15.6566
G01 X24.6611 Y15.7522
G01 X24.6461 Y15.8525
G01 X24.6214 Y15.9509
G01 X24.5898 Y16.0394
G01 X24.5848 Y16.0515
G01 X24.5467 Y16.1322
G01 X24.5409 Y16.1429
G01 X24.4925 Y16.2235
G01 X24.4356 Y16.3005
G01 X24.4273 Y16.3106
G01 X24.3641 Y16.3802
G01 X24.2891 Y16.4482
G01 X24.2061 Y16.5098
G01 X24.1255 Y16.5583
G01 X24.1177 Y16.5626
G01 X24.0273 Y16.6052
G01 X23.9318 Y16.6393
G01 X23.8334 Y16.6638
G01 X23.7330 Y16.6786
G01 X23.6317 Y16.6835
G01 X23.5304 Y16.6785
G01 X23.4301 Y16.6635
G01 X23.3317 Y16.6388
G01 X23.2363 Y16.6045
G01 X23.1462 Y16.5619
G01 X23.0592 Y16.5099
G01 X22.9776 Y16.4495
G01 X22.9024 Y16.3815
G01 X22.8332 Y16.3051
G01 X22.7738 Y16.2249
G01 X22.7215 Y16.1380
G01 X22.6774 Y16.0447
G01 X22.6456 Y15.9562
G01 X22.6418 Y15.9437
G01 X22.6191 Y15.8525
G01 X22.6049 Y15.7578
G01 X22.6036 Y15.7448
G01 X22.5991 Y15.6509
G01 X22.6041 Y15.5478
G01 X22.6178 Y15.4548
G01 X22.6198 Y15.4443
G01 X22.6418 Y15.3563
G01 X22.6449 Y15.3460
G01 X22.6769 Y15.2567
G01 X22.6987 Y15.2099
G01 X22.6987 Y13.9400
G01 X22.7715 Y13.9400
G01 X22.7757 Y13.8556
G01 X22.7881 Y13.7720
G01 X22.8086 Y13.6900
G01 X22.8371 Y13.6105
G01 X22.8732 Y13.5341
G01 X22.9166 Y13.4616
G01 X22.9670 Y13.3937
G01 X23.0227 Y13.3322
G01 X26.4615 Y9.8933
G01 X26.4615 Y8.5557
G01 X26.0226 Y8.5557
G01 X26.0167 Y8.5554
G01 X26.0064 Y8.5535
G01 X25.9967 Y8.5499
G01 X25.9877 Y8.5446
G01 X25.9797 Y8.5379
G01 X25.9730 Y8.5300
G01 X25.9677 Y8.5210
G01 X25.9645 Y8.5126
G01 X25.9624 Y8.5024
G01 X25.9619 Y8.4950
G01 X25.9619 Y5.8950
G01 X25.9622 Y5.8891
G01 X25.9631 Y5.8832
G01 X25.9645 Y5.8774
G01 X25.9665 Y5.8718
G01 X25.9706 Y5.8638
G01 X25.9757 Y5.8565
G01 X25.9819 Y5.8500
G01 X25.9889 Y5.8445
G01 X25.9967 Y5.8401
G01 X26.0050 Y5.8369
G01 X26.0137 Y5.8350
G01 X26.0226 Y5.8343
G01 X28.6226 Y5.8343
G01 X28.6315 Y5.8350
G01 X28.6417 Y5.8374
G01 X28.6512 Y5.8415
G01 X28.6588 Y5.8462
G01 X28.6645 Y5.8510
G01 X28.6686 Y5.8554
G01 X28.6731 Y5.8613
G01 X28.6768 Y5.8677
G01 X28.6798 Y5.8746
G01 X28.6818 Y5.8817
G01 X28.6829 Y5.8876
G01 X28.6833 Y5.8950
G01 X28.6833 Y8.4950
G01 X28.6829 Y8.5024
G01 X28.6807 Y8.5126
G01 X28.6775 Y8.5210
G01 X28.6722 Y8.5300
G01 X28.6655 Y8.5379
G01 X28.6576 Y8.5446
G01 X28.6486 Y8.5499
G01 X28.6388 Y8.5535
G01 X28.6286 Y8.5554
G01 X28.6226 Y8.5557
G01 X28.1837 Y8.5557
G01 X28.1837 Y10.2515
G01 X28.1796 Y10.3344
G01 X28.1671 Y10.4181
G01 X28.1466 Y10.5000
G01 X28.1176 Y10.5809
G01 X28.0820 Y10.6559
G01 X28.0386 Y10.7284
G01 X27.9883 Y10.7963
G01 X27.9325 Y10.8578
G01 X24.4937 Y14.2967
G01 X24.4937 Y15.2262
G01 X24.5202 Y15.2824
G01 X24.5524 Y15.3726
G01 X24.5749 Y15.4626
G01 X24.5885 Y15.5544
G01 X24.5932 Y15.6470
G01 X24.5932 Y15.6530
G01 X24.5887 Y15.7442
G01 X24.5751 Y15.8360
G01 X24.5520 Y15.9289
G01 X24.5202 Y16.0176
G01 X24.4799 Y16.1029
G01 X24.4330 Y16.1812
G01 X24.4297 Y16.1862
G01 X24.3752 Y16.2595
G01 X24.3140 Y16.3272
G01 X24.3098 Y16.3314
G01 X24.2443 Y16.3907
G01 X24.2397 Y16.3945
G01 X24.1664 Y16.4488
G01 X24.0842 Y16.4979
G01 X24.0003 Y16.5376
G01 X23.9115 Y16.5693
G01 X23.8200 Y16.5922
G01 X23.7268 Y16.6061
G01 X23.6326 Y16.6107
G01 X23.5385 Y16.6061
G01 X23.4452 Y16.5922
G01 X23.3537 Y16.5693
G01 X23.2650 Y16.5376
G01 X23.1797 Y16.4973
G01 X23.0989 Y16.4488
G01 X23.0232 Y16.3926
G01 X22.9533 Y16.3293
G01 X22.8900 Y16.2595
G01 X22.8338 Y16.1837
G01 X22.7847 Y16.1015
G01 X22.7463 Y16.0204
G01 X22.7440 Y16.0149
G01 X22.7133 Y15.9289
G01 X22.6910 Y15.8403
G01 X22.6899 Y15.8345
G01 X22.6765 Y15.7442
G01 X22.6719 Y15.6500
G01 X22.6765 Y15.5558
G01 X22.6907 Y15.4611
G01 X22.7125 Y15.3740
G01 X22.7142 Y15.3683
G01 X22.7450 Y15.2824
G01 X22.7715 Y15.2262
G01 X22.7715 Y13.9400
G00 Z2.0000
G00 X22.3179 Y15.1460
G01 F400.00
G01 Z-0.0399
G01 F400.00
G01 X22.3238 Y15.1613
G01 X22.3544 Y15.2468
G01 X22.3626 Y15.2727
G01 X22.3708 Y15.2471
G01 X22.4013 Y15.1619
G01 X22.4068 Y15.1473
G01 X22.4075 Y13.9263
G01 X22.4121 Y13.8339
G01 X22.4136 Y13.8165
G01 X22.4158 Y13.7993
G01 X22.4276 Y13.7198
G01 X22.4311 Y13.7000
G01 X22.4351 Y13.6819
G01 X22.4557 Y13.5998
G01 X22.3179 Y13.7375
G01 X22.3179 Y15.1460
G01 X22.2451 Y15.1609
G01 X22.2548 Y15.1849
G01 X22.2898 Y15.2833
G01 X22.2950 Y15.3019
G01 X22.3169 Y15.3893
G01 X22.3201 Y15.4031
G01 X22.3228 Y15.4178
G01 X22.3365 Y15.5101
G01 X22.3387 Y15.5282
G01 X22.3399 Y15.5445
G01 X22.3443 Y15.6340
G01 X22.3447 Y15.6527
G01 X22.3443 Y15.6668
G01 X22.3399 Y15.7559
G01 X22.3383 Y15.7761
G01 X22.3235 Y15.8776
G01 X22.3203 Y15.8960
G01 X22.3170 Y15.9103
G01 X22.2950 Y15.9981
G01 X22.2876 Y16.0233
G01 X22.3034 Y16.0211
G01 X22.3208 Y16.0195
G01 X22.3381 Y16.0188
G01 X22.3556 Y16.0189
G01 X22.3690 Y16.0196
G01 X22.3840 Y16.0210
G01 X22.4394 Y16.0285
G01 X22.4350 Y16.0152
G01 X22.4311 Y16.0017
G01 X22.4084 Y15.9111
G01 X22.4048 Y15.8951
G01 X22.4018 Y15.8782
G01 X22.3885 Y15.7887
G01 X22.3863 Y15.7698
G01 X22.3853 Y15.7559
G01 X22.3809 Y15.6663
G01 X22.3806 Y15.6429
G01 X22.3853 Y15.5441
G01 X22.3867 Y15.5257
G01 X22.3886 Y15.5110
G01 X22.4017 Y15.4224
G01 X22.4052 Y15.4031
G01 X22.4083 Y15.3893
G01 X22.4299 Y15.3029
G01 X22.4350 Y15.2848
G01 X22.4396 Y15.2710
G01 X22.4701 Y15.1857
G01 X22.4749 Y15.1733
G01 X22.4802 Y15.1609
G01 X22.4802 Y13.9390
G01 X22.4805 Y13.9237
G01 X22.4845 Y13.8439
G01 X22.4860 Y13.8244
G01 X22.4877 Y13.8108
G01 X22.4993 Y13.7322
G01 X22.5020 Y13.7169
G01 X22.5058 Y13.6995
G01 X22.5252 Y13.6221
G01 X22.5293 Y13.6070
G01 X22.5341 Y13.5921
G01 X22.5620 Y13.5143
G01 X22.5673 Y13.5004
G01 X22.5744 Y13.4843
G01 X22.6096 Y13.4099
G01 X22.6168 Y13.3958
G01 X22.6241 Y13.3828
G01 X22.6658 Y13.3133
G01 X22.6749 Y13.2990
G01 X22.6838 Y13.2863
G01 X22.7348 Y13.2176
G01 X22.2451 Y13.7074
G01 X22.2451 Y15.1609
G00 Z2.0000
G00 X24.7851 Y15.1609
G01 F400.00
G01 Z-0.0399
G01 F400.00
G01 X24.7948 Y15.1849
G01 X24.8298 Y15.2833
G01 X24.8350 Y15.3019
G01 X24.8569 Y15.3893
G01 X24.8601 Y15.4031
G01 X24.8628 Y15.4178
G01 X24.8765 Y15.5101
G01 X24.8786 Y15.5264
G01 X24.8799 Y15.5445
G01 X24.8843 Y15.6340
G01 X24.8847 Y15.6527
G01 X24.8843 Y15.6668
G01 X24.8799 Y15.7559
G01 X24.8783 Y15.7761
G01 X24.8635 Y15.8776
G01 X24.8603 Y15.8960
G01 X24.8570 Y15.9103
G01 X24.8350 Y15.9981
G01 X24.8276 Y16.0233
G01 X24.8434 Y16.0211
G01 X24.8608 Y16.0195
G01 X24.8781 Y16.0188
G01 X24.8956 Y16.0189
G01 X24.9090 Y16.0196
G01 X24.9240 Y16.0210
G01 X24.9794 Y16.0285
G01 X24.9748 Y16.0145
G01 X24.9706 Y15.9998
G01 X24.9483 Y15.9107
G01 X24.9452 Y15.8971
G01 X24.9417 Y15.8777
G01 X24.9286 Y15.7894
G01 X24.9269 Y15.7756
G01 X24.9253 Y15.7558
G01 X24.9209 Y15.6664
G01 X24.9206 Y15.6516
G01 X24.9210 Y15.6332
G01 X24.9261 Y15.5332
G01 X24.9286 Y15.5110
G01 X24.9418 Y15.4219
G01 X24.9443 Y15.4073
G01 X24.9483 Y15.3893
G01 X24.9730 Y15.2914
G01 X24.9796 Y15.2710
G01 X25.0146 Y15.1740
G01 X25.0219 Y15.1571
G01 X25.0559 Y15.0851
G01 X25.0429 Y15.0842
G01 X25.0282 Y15.0826
G01 X25.0247 Y15.0821
G01 X24.9555 Y15.0721
G01 X24.9554 Y15.0721
G01 X24.9480 Y15.0709
G01 X24.9227 Y15.0658
G01 X24.8977 Y15.0588
G01 X24.8827 Y15.0535
G01 X24.8680 Y15.0477
G01 X24.8529 Y15.0409
G01 X24.8384 Y15.0334
G01 X24.8238 Y15.0251
G01 X24.8111 Y15.0171
G01 X24.7979 Y15.0079
G01 X24.7851 Y14.9981
G01 X24.7851 Y15.1609
G01 X24.8579 Y15.1460
G01 X24.8638 Y15.1613
G01 X24.8944 Y15.2468
G01 X24.9026 Y15.2727
G01 X24.9109 Y15.2467
G01 X24.9415 Y15.1612
G01 X24.9479 Y15.1446
G01 X24.9253 Y15.1409
G01 X24.9020 Y15.1357
G01 X24.8905 Y15.1326
G01 X24.8893 Y15.1323
G01 X24.8892 Y15.1323
G01 X24.8877 Y15.1319
G01 X24.8876 Y15.1318
G01 X24.8852 Y15.1311
G01 X24.8799 Y15.1295
G01 X24.8579 Y15.1220
G01 X24.8579 Y15.1460
G01 X25.2004 Y14.9832
G01 X25.1836 Y14.9907
G01 X25.1703 Y14.9960
G01 X25.1558 Y15.0008
G01 X25.1410 Y15.0048
G01 X25.1261 Y15.0080
G01 X25.1102 Y15.0105
G01 X25.0950 Y15.0121
G01 X25.0792 Y15.0128
G01 X25.0613 Y15.0125
G01 X25.0432 Y15.0110
G01 X24.9641 Y14.9998
G01 X24.9513 Y14.9975
G01 X24.9400 Y14.9950
G01 X24.9279 Y14.9918
G01 X24.9165 Y14.9883
G01 X24.9043 Y14.9838
G01 X24.8920 Y14.9787
G01 X24.8810 Y14.9735
G01 X24.8700 Y14.9677
G01 X24.8584 Y14.9609
G01 X24.8481 Y14.9542
G01 X24.8372 Y14.9463
G01 X24.8274 Y14.9386
G01 X24.7681 Y14.8873
G01 X24.7518 Y14.8717
G01 X24.7412 Y14.8601
G01 X24.7305 Y14.8469
G01 X24.7211 Y14.8336
G01 X24.7122 Y14.8196
G01 X24.7122 Y15.1771
G01 X24.7199 Y15.1937
G01 X24.7254 Y15.2072
G01 X24.7598 Y15.3037
G01 X24.7647 Y15.3207
G01 X24.7886 Y15.4173
G01 X24.7915 Y15.4332
G01 X24.8045 Y15.5210
G01 X24.8061 Y15.5335
G01 X24.8071 Y15.5474
G01 X24.8115 Y15.6363
G01 X24.8118 Y15.6522
G01 X24.8072 Y15.7519
G01 X24.8060 Y15.7669
G01 X24.7914 Y15.8672
G01 X24.7876 Y15.8876
G01 X24.7643 Y15.9808
G01 X24.7586 Y16.0001
G01 X24.7238 Y16.0970
G01 X24.7176 Y16.1116
G01 X24.7001 Y16.1485
G01 X24.7716 Y16.1152
G01 X24.7862 Y16.1093
G01 X24.8006 Y16.1044
G01 X24.8206 Y16.0989
G01 X24.8410 Y16.0949
G01 X24.8617 Y16.0925
G01 X24.8816 Y16.0916
G01 X24.9001 Y16.0920
G01 X24.9192 Y16.0938
G01 X24.9951 Y16.1042
G01 X25.0069 Y16.1062
G01 X25.0191 Y16.1089
G01 X25.0408 Y16.1151
G01 X25.0522 Y16.1191
G01 X25.0629 Y16.1234
G01 X25.0838 Y16.1334
G01 X25.1034 Y16.1448
G01 X25.0870 Y16.1100
G01 X25.0811 Y16.0962
G01 X25.0458 Y15.9976
G01 X25.0410 Y15.9808
G01 X25.0191 Y15.8934
G01 X25.0147 Y15.8724
G01 X25.0007 Y15.7790
G01 X24.9992 Y15.7665
G01 X24.9981 Y15.7526
G01 X24.9937 Y15.6637
G01 X24.9934 Y15.6513
G01 X24.9936 Y15.6388
G01 X24.9987 Y15.5386
G01 X25.0006 Y15.5217
G01 X25.0138 Y15.4328
G01 X25.0159 Y15.4208
G01 X25.0186 Y15.4083
G01 X25.0406 Y15.3207
G01 X25.0439 Y15.3085
G01 X25.0482 Y15.2953
G01 X25.0785 Y15.2107
G01 X25.0828 Y15.1996
G01 X25.0880 Y15.1878
G01 X25.1268 Y15.1058
G01 X25.1331 Y15.0933
G01 X25.1393 Y15.0824
G01 X25.1858 Y15.0048
G01 X25.1928 Y14.9938
G01 X25.2004 Y14.9832
G00 Z2.0000
G00 X23.2204 Y12.7224
G01 F400.00
G01 Z-0.0399
G01 F400.00
G01 X23.6674 Y12.2754
G01 X23.6455 Y12.2722
G01 X23.6442 Y12.2720
G01 X23.6340 Y12.2704
G01 X23.6083 Y12.2648
G01 X23.5952 Y12.2612
G01 X23.5809 Y12.2566
G01 X23.5678 Y12.2518
G01 X23.5550 Y12.2465
G01 X23.5421 Y12.2406
G01 X23.5290 Y12.2339
G01 X23.5169 Y12.2271
G01 X23.5048 Y12.2196
G01 X23.4933 Y12.2119
G01 X23.4814 Y12.2031
G01 X23.4709 Y12.1947
G01 X23.4593 Y12.1848
G01 X23.4548 Y12.2144
G01 X23.4513 Y12.2327
G01 X23.4271 Y12.3290
G01 X23.4208 Y12.3487
G01 X23.3935 Y12.4252
G01 X23.3836 Y12.4498
G01 X23.3446 Y12.5324
G01 X23.3377 Y12.5456
G01 X23.3305 Y12.5583
G01 X23.2895 Y12.6267
G01 X23.2871 Y12.6306
G01 X23.2862 Y12.6321
G01 X23.2851 Y12.6338
G01 X23.2850 Y12.6340
G01 X23.2847 Y12.6343
G01 X23.2802 Y12.6412
G01 X23.2714 Y12.6537
G01 X23.2204 Y12.7224
G01 X23.4995 Y12.3403
G01 X23.5263 Y12.3135
G01 X23.5083 Y12.3052
G01 X23.4995 Y12.3403
G01 X23.8445 Y12.2013
G01 X23.8324 Y12.2046
G01 X23.8202 Y12.2073
G01 X23.8070 Y12.2097
G01 X23.7951 Y12.2113
G01 X23.7826 Y12.2123
G01 X23.7692 Y12.2129
G01 X23.7569 Y12.2128
G01 X23.7435 Y12.2121
G01 X23.7252 Y12.2101
G01 X23.6552 Y12.2000
G01 X23.6431 Y12.1980
G01 X23.6300 Y12.1951
G01 X23.6166 Y12.1915
G01 X23.6034 Y12.1873
G01 X23.5900 Y12.1822
G01 X23.5752 Y12.1757
G01 X23.5604 Y12.1680
G01 X23.5469 Y12.1601
G01 X23.5327 Y12.1505
G01 X23.5148 Y12.1365
G01 X23.4600 Y12.0890
G01 X23.4432 Y12.0732
G01 X23.4279 Y12.0563
G01 X23.4142 Y12.0383
G01 X23.4017 Y12.0187
G01 X23.3980 Y12.0928
G01 X23.3969 Y12.1067
G01 X23.3955 Y12.1188
G01 X23.3836 Y12.1989
G01 X23.3815 Y12.2104
G01 X23.3787 Y12.2232
G01 X23.3592 Y12.3011
G01 X23.3545 Y12.3174
G01 X23.3250 Y12.4004
G01 X23.3204 Y12.4123
G01 X23.3148 Y12.4251
G01 X23.2801 Y12.4985
G01 X23.2694 Y12.5185
G01 X23.2276 Y12.5882
G01 X23.2208 Y12.5991
G01 X23.2124 Y12.6110
G01 X23.1652 Y12.6746
G01 X23.1563 Y12.6859
G01 X23.1482 Y12.6953
G01 X23.0889 Y12.7604
G01 X22.1722 Y13.6772
G01 X22.1722 Y15.1771
G01 X22.1799 Y15.1937
G01 X22.1854 Y15.2072
G01 X22.2198 Y15.3037
G01 X22.2247 Y15.3207
G01 X22.2486 Y15.4173
G01 X22.2515 Y15.4332
G01 X22.2645 Y15.5210
G01 X22.2661 Y15.5335
G01 X22.2671 Y15.5474
G01 X22.2715 Y15.6363
G01 X22.2718 Y15.6513
G01 X22.2672 Y15.7519
G01 X22.2660 Y15.7669
G01 X22.2514 Y15.8672
G01 X22.2476 Y15.8876
G01 X22.2243 Y15.9808
G01 X22.2186 Y16.0001
G01 X22.1838 Y16.0970
G01 X22.1776 Y16.1116
G01 X22.1601 Y16.1485
G01 X22.2316 Y16.1152
G01 X22.2462 Y16.1093
G01 X22.2606 Y16.1044
G01 X22.2806 Y16.0989
G01 X22.3010 Y16.0949
G01 X22.3217 Y16.0925
G01 X22.3416 Y16.0916
G01 X22.3601 Y16.0920
G01 X22.3792 Y16.0938
G01 X22.4551 Y16.1042
G01 X22.4669 Y16.1062
G01 X22.4791 Y16.1089
G01 X22.5008 Y16.1151
G01 X22.5122 Y16.1191
G01 X22.5229 Y16.1234
G01 X22.5438 Y16.1334
G01 X22.5634 Y16.1448
G01 X22.5470 Y16.1100
G01 X22.5411 Y16.0962
G01 X22.5065 Y15.9997
G01 X22.5007 Y15.9800
G01 X22.4772 Y15.8854
G01 X22.4737 Y15.8668
G01 X22.4607 Y15.7785
G01 X22.4590 Y15.7647
G01 X22.4581 Y15.7521
G01 X22.4537 Y15.6630
G01 X22.4535 Y15.6418
G01 X22.4581 Y15.5474
G01 X22.4592 Y15.5331
G01 X22.4737 Y15.4332
G01 X22.4769 Y15.4159
G01 X22.5007 Y15.3202
G01 X22.5054 Y15.3037
G01 X22.5398 Y15.2072
G01 X22.5453 Y15.1937
G01 X22.5530 Y15.1771
G01 X22.5530 Y13.9393
G01 X22.5533 Y13.9270
G01 X22.5572 Y13.8478
G01 X22.5581 Y13.8351
G01 X22.5599 Y13.8206
G01 X22.5718 Y13.7402
G01 X22.5740 Y13.7281
G01 X22.5765 Y13.7169
G01 X22.5961 Y13.6389
G01 X22.6001 Y13.6245
G01 X22.6303 Y13.5394
G01 X22.6362 Y13.5244
G01 X22.6744 Y13.4431
G01 X22.6809 Y13.4303
G01 X22.6872 Y13.4191
G01 X22.7342 Y13.3413
G01 X22.7428 Y13.3290
G01 X22.7972 Y13.2561
G01 X22.8066 Y13.2452
G01 X22.8602 Y13.1860
G01 X22.8692 Y13.1766
G01 X23.8445 Y12.2013
G00 Z2.0000
G00 X26.1150 Y8.7742
G01 F400.00
G01 Z-0.0399
G01 F400.00
G01 X26.1325 Y8.7882
G01 X26.1868 Y8.8353
G01 X26.2011 Y8.8488
G01 X26.2131 Y8.8617
G01 X26.2239 Y8.8749
G01 X26.2339 Y8.8888
G01 X26.2430 Y8.9032
G01 X26.2430 Y8.7742
G01 X26.1150 Y8.7742
G00 Z2.0000
G00 X28.4022 Y8.9105
G01 F400.00
G01 Z-0.0399
G01 F400.00
G01 X28.4445 Y8.8498
G01 X28.4542 Y8.8375
G01 X28.4646 Y8.8256
G01 X28.4793 Y8.8109
G01 X28.4947 Y8.7976
G01 X28.5114 Y8.7852
G01 X28.5287 Y8.7742
G01 X28.4022 Y8.7742
G01 X28.4022 Y8.9105
G00 Z2.0000
G00 X30.7180 Y3.5296
G01 F400.00
G01 Z-0.0399
G01 F400.00
G01 X30.7277 Y3.5361
G01 X30.7375 Y3.5433
G01 X30.7554 Y3.5582
G01 X30.8129 Y3.6139
G01 X30.8261 Y3.6277
G01 X30.8339 Y3.6368
G01 X30.8412 Y3.6462
G01 X30.8544 Y3.6653
G01 X30.8605 Y3.6756
G01 X30.8662 Y3.6862
G01 X30.8757 Y3.7067
G01 X30.8834 Y3.7276
G01 X30.8892 Y3.7485
G01 X30.9068 Y3.8242
G01 X30.9096 Y3.8401
G01 X30.9116 Y3.8567
G01 X30.9125 Y3.8710
G01 X30.9127 Y3.8849
G01 X30.9122 Y3.8987
G01 X30.9110 Y3.9125
G01 X30.9091 Y3.9263
G01 X30.9066 Y3.9399
G01 X30.9034 Y3.9534
G01 X30.8993 Y3.9673
G01 X31.3370 Y3.5296
G01 X30.7180 Y3.5296
G01 X30.8995 Y3.6024
G01 X30.9124 Y3.6210
G01 X30.9251 Y3.6419
G01 X30.9359 Y3.6628
G01 X30.9453 Y3.6846
G01 X30.9519 Y3.7030
G01 X30.9577 Y3.7220
G01 X30.9736 Y3.7895
G01 X31.1609 Y3.6024
G01 X30.8995 Y3.6024
G00 Z2.0000
G00 X34.1284 Y6.7675
G01 F400.00
G01 Z-0.0399
G01 F400.00
G01 X34.1343 Y6.7481
G01 X34.1777 Y6.6267
G01 X34.1848 Y6.6097
G01 X34.2396 Y6.4939
G01 X34.2445 Y6.4841
G01 X34.3196 Y6.3588
G01 X34.3259 Y6.3498
G01 X34.4024 Y6.2468
G01 X34.4148 Y6.2317
G01 X34.5005 Y6.1372
G01 X34.5081 Y6.1292
G01 X34.6163 Y6.0311
G01 X34.6250 Y6.0243
G01 X34.7278 Y5.9481
G01 X34.7443 Y5.9371
G01 X34.8537 Y5.8715
G01 X34.8633 Y5.8661
G01 X34.9953 Y5.8036
G01 X35.0056 Y5.7996
G01 X35.1262 Y5.7565
G01 X35.1451 Y5.7508
G01 X35.2689 Y5.7198
G01 X35.2796 Y5.7174
G01 X35.4241 Y5.6960
G01 X35.4351 Y5.6951
G01 X35.5629 Y5.6888
G01 X35.5827 Y5.6889
G01 X35.7102 Y5.6951
G01 X35.7212 Y5.6960
G01 X35.8656 Y5.7174
G01 X35.8764 Y5.7198
G01 X36.0006 Y5.7509
G01 X36.0195 Y5.7567
G01 X36.1396 Y5.7996
G01 X36.1499 Y5.8036
G01 X36.2819 Y5.8661
G01 X36.2915 Y5.8715
G01 X36.4013 Y5.9373
G01 X36.4178 Y5.9483
G01 X36.5203 Y6.0243
G01 X36.5289 Y6.0311
G01 X36.6372 Y6.1292
G01 X36.6448 Y6.1372
G01 X36.7307 Y6.2320
G01 X36.7433 Y6.2473
G01 X36.8249 Y6.3578
G01 X36.8305 Y6.3667
G01 X36.8982 Y6.4797
G01 X36.9055 Y6.4935
G01 X36.9602 Y6.6093
G01 X36.9680 Y6.6280
G01 X37.0110 Y6.7481
G01 X37.0144 Y6.7586
G01 X37.0499 Y6.9002
G01 X37.0518 Y6.9111
G01 X37.0706 Y7.0377
G01 X37.0725 Y7.0575
G01 X37.0787 Y7.1849
G01 X37.0790 Y7.1959
G01 X37.0718 Y7.3418
G01 X37.0705 Y7.3527
G01 X37.0502 Y7.4880
G01 X37.0478 Y7.4988
G01 X37.0144 Y7.6314
G01 X37.0110 Y7.6419
G01 X36.9647 Y7.7706
G01 X36.9602 Y7.7807
G01 X36.9031 Y7.9014
G01 X36.8961 Y7.9139
G01 X36.8256 Y8.0312
G01 X36.8193 Y8.0402
G01 X36.7397 Y8.1474
G01 X36.7304 Y8.1583
G01 X36.6401 Y8.2578
G01 X36.6308 Y8.2669
G01 X36.5794 Y8.3134
G01 X36.5794 Y9.8330
G01 X39.9774 Y13.2311
G01 X40.0351 Y13.2946
G01 X40.0471 Y13.3093
G01 X40.0942 Y13.3727
G01 X40.1002 Y13.3814
G01 X40.1458 Y13.4570
G01 X40.1545 Y13.4732
G01 X40.1924 Y13.5539
G01 X40.1963 Y13.5638
G01 X40.2229 Y13.6381
G01 X40.2270 Y13.6509
G01 X40.2482 Y13.7350
G01 X40.2518 Y13.7536
G01 X40.2634 Y13.8317
G01 X40.2646 Y13.8422
G01 X40.2693 Y13.9340
G01 X40.2694 Y15.1935
G01 X40.2820 Y15.2203
G01 X40.2870 Y15.2321
G01 X40.3204 Y15.3257
G01 X40.3239 Y15.3382
G01 X40.3455 Y15.4243
G01 X40.3490 Y15.4409
G01 X40.3636 Y15.5407
G01 X40.3644 Y15.5517
G01 X40.3688 Y15.6412
G01 X40.3688 Y15.6588
G01 X40.3644 Y15.7483
G01 X40.3624 Y15.7685
G01 X40.3495 Y15.8559
G01 X40.3476 Y15.8667
G01 X40.3241 Y15.9614
G01 X40.3186 Y15.9795
G01 X40.2883 Y16.0644
G01 X40.2812 Y16.0814
G01 X40.2388 Y16.1708
G01 X40.2334 Y16.1804
G01 X40.1880 Y16.2561
G01 X40.1820 Y16.2654
G01 X40.1241 Y16.3439
G01 X40.1173 Y16.3526
G01 X40.0510 Y16.4260
G01 X40.0376 Y16.4393
G01 X39.9719 Y16.4989
G01 X39.9640 Y16.5056
G01 X39.8856 Y16.5641
G01 X39.8699 Y16.5746
G01 X39.7878 Y16.6237
G01 X39.7751 Y16.6303
G01 X39.6868 Y16.6718
G01 X39.6766 Y16.6758
G01 X39.5930 Y16.7057
G01 X39.5753 Y16.7111
G01 X39.4883 Y16.7329
G01 X39.4685 Y16.7369
G01 X39.3811 Y16.7498
G01 X39.3702 Y16.7511
G01 X39.2727 Y16.7561
G01 X39.2617 Y16.7564
G01 X39.1551 Y16.7511
G01 X39.1441 Y16.7498
G01 X39.0477 Y16.7353
G01 X39.0369 Y16.7329
G01 X38.9423 Y16.7090
G01 X38.9318 Y16.7056
G01 X38.8483 Y16.6757
G01 X38.8312 Y16.6686
G01 X38.7501 Y16.6303
G01 X38.7323 Y16.6207
G01 X38.6565 Y16.5753
G01 X38.6473 Y16.5695
G01 X38.5687 Y16.5115
G01 X38.5601 Y16.5047
G01 X38.4809 Y16.4330
G01 X38.4733 Y16.4250
G01 X38.4097 Y16.3547
G01 X38.4014 Y16.3443
G01 X38.3483 Y16.2726
G01 X38.3373 Y16.2561
G01 X38.2919 Y16.1804
G01 X38.2865 Y16.1708
G01 X38.2446 Y16.0827
G01 X38.2401 Y16.0726
G01 X38.2041 Y15.9720
G01 X38.2012 Y15.9614
G01 X38.1797 Y15.8757
G01 X38.1758 Y15.8563
G01 X38.1627 Y15.7681
G01 X38.1612 Y15.7543
G01 X38.1564 Y15.6588
G01 X38.1565 Y15.6399
G01 X38.1608 Y15.5517
G01 X38.1617 Y15.5407
G01 X38.1764 Y15.4400
G01 X38.1797 Y15.4243
G01 X38.2013 Y15.3382
G01 X38.2049 Y15.3257
G01 X38.2383 Y15.2321
G01 X38.2432 Y15.2203
G01 X38.2558 Y15.1935
G01 X38.2558 Y14.3570
G01 X34.8578 Y10.9589
G01 X34.8001 Y10.8954
G01 X34.7881 Y10.8807
G01 X34.7411 Y10.8173
G01 X34.7350 Y10.8086
G01 X34.6895 Y10.7330
G01 X34.6807 Y10.7168
G01 X34.6428 Y10.6361
G01 X34.6390 Y10.6262
G01 X34.6123 Y10.5518
G01 X34.6086 Y10.5402
G01 X34.5871 Y10.4550
G01 X34.5835 Y10.4364
G01 X34.5719 Y10.3583
G01 X34.5706 Y10.3478
G01 X34.5659 Y10.2542
G01 X34.5658 Y8.3134
G01 X34.5145 Y8.2669
G01 X34.5051 Y8.2578
G01 X34.4120 Y8.1552
G01 X34.4019 Y8.1427
G01 X34.3257 Y8.0398
G01 X34.3178 Y8.0284
G01 X34.2445 Y7.9059
G01 X34.2396 Y7.8961
G01 X34.1850 Y7.7807
G01 X34.1774 Y7.7624
G01 X34.1341 Y7.6414
G01 X34.1301 Y7.6289
G01 X34.0954 Y7.4898
G01 X34.0935 Y7.4789
G01 X34.0747 Y7.3527
G01 X34.0728 Y7.3330
G01 X34.0662 Y7.1959
G01 X34.0665 Y7.1849
G01 X34.0728 Y7.0570
G01 X34.0747 Y7.0377
G01 X34.0950 Y6.9020
G01 X34.0974 Y6.8912
G01 X34.1284 Y6.7675
G01 X34.1991 Y6.7852
G01 X34.2029 Y6.7726
G01 X34.2458 Y6.6525
G01 X34.2509 Y6.6404
G01 X34.3088 Y6.5184
G01 X34.3802 Y6.3993
G01 X34.4640 Y6.2861
G01 X34.5544 Y6.1861
G01 X34.5637 Y6.1768
G01 X34.6582 Y6.0911
G01 X34.6665 Y6.0843
G01 X34.7754 Y6.0036
G01 X34.8911 Y5.9340
G01 X34.9027 Y5.9278
G01 X35.0249 Y5.8702
G01 X35.1559 Y5.8234
G01 X35.2866 Y5.7904
G01 X35.2994 Y5.7879
G01 X35.4330 Y5.7683
G01 X35.5717 Y5.7615
G01 X35.7066 Y5.7679
G01 X35.7196 Y5.7692
G01 X35.8532 Y5.7892
G01 X35.9879 Y5.8229
G01 X36.1151 Y5.8682
G01 X36.1272 Y5.8732
G01 X36.2476 Y5.9303
G01 X36.3635 Y5.9995
G01 X36.3744 Y6.0068
G01 X36.4827 Y6.0874
G01 X36.5856 Y6.1807
G01 X36.6765 Y6.2806
G01 X36.6848 Y6.2907
G01 X36.7642 Y6.3981
G01 X36.8357 Y6.5171
G01 X36.8398 Y6.5251
G01 X36.8944 Y6.6404
G01 X36.8994 Y6.6525
G01 X36.9447 Y6.7797
G01 X36.9784 Y6.9145
G01 X36.9985 Y7.0480
G01 X36.9997 Y7.0610
G01 X37.0062 Y7.1959
G01 X36.9993 Y7.3346
G01 X36.9788 Y7.4738
G01 X36.9447 Y7.6103
G01 X36.8974 Y7.7428
G01 X36.8373 Y7.8700
G01 X36.7651 Y7.9907
G01 X36.6813 Y8.1037
G01 X36.5869 Y8.2080
G01 X36.5066 Y8.2811
G01 X36.5066 Y9.8631
G01 X39.9247 Y13.2813
G01 X39.9803 Y13.3426
G01 X39.9886 Y13.3527
G01 X40.0387 Y13.4204
G01 X40.0830 Y13.4940
G01 X40.0892 Y13.5056
G01 X40.1251 Y13.5818
G01 X40.1543 Y13.6627
G01 X40.1575 Y13.6729
G01 X40.1774 Y13.7523
G01 X40.1797 Y13.7643
G01 X40.1921 Y13.8493
G01 X40.1965 Y13.9358
G01 X40.1966 Y15.2099
G01 X40.2184 Y15.2567
G01 X40.2496 Y15.3438
G01 X40.2523 Y15.3523
G01 X40.2761 Y15.4475
G01 X40.2907 Y15.5446
G01 X40.2917 Y15.5552
G01 X40.2960 Y15.6434
G01 X40.2960 Y15.6566
G01 X40.2911 Y15.7522
G01 X40.2761 Y15.8525
G01 X40.2519 Y15.9492
G01 X40.2198 Y16.0394
G01 X40.2148 Y16.0515
G01 X40.1745 Y16.1364
G01 X40.1255 Y16.2187
G01 X40.1182 Y16.2296
G01 X40.0610 Y16.3064
G01 X39.9980 Y16.3761
G01 X39.9887 Y16.3853
G01 X39.9177 Y16.4494
G01 X39.8422 Y16.5056
G01 X39.8313 Y16.5129
G01 X39.7490 Y16.5619
G01 X39.6641 Y16.6022
G01 X39.6520 Y16.6072
G01 X39.5689 Y16.6370
G01 X39.5586 Y16.6402
G01 X39.4651 Y16.6635
G01 X39.3704 Y16.6778
G01 X39.3574 Y16.6790
G01 X39.2617 Y16.6835
G01 X39.1622 Y16.6786
G01 X39.0674 Y16.6648
G01 X39.0546 Y16.6622
G01 X38.9617 Y16.6388
G01 X38.8679 Y16.6052
G01 X38.7813 Y16.5644
G01 X38.7697 Y16.5583
G01 X38.6877 Y16.5089
G01 X38.6076 Y16.4495
G01 X38.5365 Y16.3853
G01 X38.5273 Y16.3761
G01 X38.4680 Y16.3106
G01 X38.4623 Y16.3039
G01 X38.4038 Y16.2249
G01 X38.3543 Y16.1429
G01 X38.3482 Y16.1314
G01 X38.3074 Y16.0447
G01 X38.2738 Y15.9509
G01 X38.2504 Y15.8580
G01 X38.2478 Y15.8452
G01 X38.2349 Y15.7578
G01 X38.2337 Y15.7471
G01 X38.2291 Y15.6509
G01 X38.2336 Y15.5552
G01 X38.2349 Y15.5422
G01 X38.2485 Y15.4507
G01 X38.2504 Y15.4420
G01 X38.2718 Y15.3563
G01 X38.2749 Y15.3460
G01 X38.3069 Y15.2567
G01 X38.3287 Y15.2099
G01 X38.3287 Y14.3269
G01 X34.9106 Y10.9087
G01 X34.8550 Y10.8474
G01 X34.8466 Y10.8373
G01 X34.7966 Y10.7696
G01 X34.7522 Y10.6960
G01 X34.7460 Y10.6844
G01 X34.7101 Y10.6082
G01 X34.6809 Y10.5272
G01 X34.6782 Y10.5187
G01 X34.6568 Y10.4331
G01 X34.6440 Y10.3480
G01 X34.6427 Y10.3350
G01 X34.6387 Y10.2524
G01 X34.6387 Y8.2811
G01 X34.5583 Y8.2080
G01 X34.4682 Y8.1087
G01 X34.4604 Y8.0993
G01 X34.3802 Y7.9907
G01 X34.3088 Y7.8716
G01 X34.2509 Y7.7496
G01 X34.2458 Y7.7375
G01 X34.2005 Y7.6101
G01 X34.1668 Y7.4755
G01 X34.1468 Y7.3420
G01 X34.1455 Y7.3290
G01 X34.1391 Y7.1959
G01 X34.1455 Y7.0610
G01 X34.1468 Y7.0480
G01 X34.1665 Y6.9162
G01 X34.1991 Y6.7852
G01 X34.2697 Y6.8029
G01 X34.2714 Y6.7972
G01 X34.3144 Y6.6771
G01 X34.3167 Y6.6716
G01 X34.3726 Y6.5536
G01 X34.4412 Y6.4390
G01 X34.5208 Y6.3317
G01 X34.6084 Y6.2350
G01 X34.6126 Y6.2308
G01 X34.7106 Y6.1422
G01 X34.8167 Y6.0636
G01 X34.9286 Y5.9964
G01 X34.9338 Y5.9936
G01 X35.0519 Y5.9379
G01 X35.1748 Y5.8938
G01 X35.1805 Y5.8921
G01 X35.3072 Y5.8604
G01 X35.4392 Y5.8409
G01 X35.5696 Y5.8344
G01 X35.5756 Y5.8344
G01 X35.7060 Y5.8409
G01 X35.8381 Y5.8604
G01 X35.9676 Y5.8929
G01 X36.0906 Y5.9368
G01 X36.0961 Y5.9391
G01 X36.2140 Y5.9950
G01 X36.3286 Y6.0636
G01 X36.4335 Y6.1413
G01 X36.4381 Y6.1451
G01 X36.5348 Y6.2328
G01 X36.6225 Y6.3295
G01 X36.6263 Y6.3341
G01 X36.7041 Y6.4391
G01 X36.7726 Y6.5536
G01 X36.8285 Y6.6716
G01 X36.8308 Y6.6771
G01 X36.8747 Y6.8000
G01 X36.9072 Y6.9295
G01 X36.9264 Y7.0587
G01 X36.9270 Y7.0646
G01 X36.9333 Y7.1950
G01 X36.9268 Y7.3284
G01 X36.9072 Y7.4605
G01 X36.8747 Y7.5900
G01 X36.8297 Y7.7157
G01 X36.7726 Y7.8364
G01 X36.7040 Y7.9510
G01 X36.6245 Y8.0582
G01 X36.5348 Y8.1572
G01 X36.4381 Y8.2449
G01 X36.4337 Y8.2485
G01 X36.4337 Y9.8933
G01 X39.8725 Y13.3322
G01 X39.9263 Y13.3915
G01 X39.9301 Y13.3961
G01 X39.9786 Y13.4616
G01 X40.0206 Y13.5315
G01 X40.0234 Y13.5367
G01 X40.0582 Y13.6105
G01 X40.0871 Y13.6915
G01 X40.1065 Y13.7691
G01 X40.1077 Y13.7749
G01 X40.1196 Y13.8556
G01 X40.1237 Y13.9385
G01 X40.1237 Y15.2262
G01 X40.1502 Y15.2824
G01 X40.1824 Y15.3726
G01 X40.2049 Y15.4626
G01 X40.2185 Y15.5544
G01 X40.2232 Y15.6470
G01 X40.2232 Y15.6530
G01 X40.2187 Y15.7442
G01 X40.2049 Y15.8374
G01 X40.1820 Y15.9289
G01 X40.1513 Y16.0149
G01 X40.1490 Y16.0204
G01 X40.1099 Y16.1029
G01 X40.0630 Y16.1812
G01 X40.0597 Y16.1862
G01 X40.0052 Y16.2595
G01 X39.9440 Y16.3272
G01 X39.9398 Y16.3314
G01 X39.8721 Y16.3926
G01 X39.7988 Y16.4471
G01 X39.7938 Y16.4504
G01 X39.7155 Y16.4973
G01 X39.6330 Y16.5364
G01 X39.6275 Y16.5386
G01 X39.5401 Y16.5697
G01 X39.4500 Y16.5922
G01 X39.3597 Y16.6057
G01 X39.3538 Y16.6063
G01 X39.2626 Y16.6107
G01 X39.1685 Y16.6061
G01 X39.0781 Y16.5927
G01 X39.0723 Y16.5916
G01 X38.9837 Y16.5693
G01 X38.8978 Y16.5386
G01 X38.8923 Y16.5364
G01 X38.8097 Y16.4973
G01 X38.7289 Y16.4488
G01 X38.6532 Y16.3926
G01 X38.5855 Y16.3314
G01 X38.5812 Y16.3272
G01 X38.5191 Y16.2583
G01 X38.4638 Y16.1837
G01 X38.4168 Y16.1055
G01 X38.4140 Y16.1002
G01 X38.3750 Y16.0176
G01 X38.3433 Y15.9289
G01 X38.3210 Y15.8403
G01 X38.3199 Y15.8345
G01 X38.3069 Y15.7471
G01 X38.3063 Y15.7412
G01 X38.3019 Y15.6500
G01 X38.3063 Y15.5588
G01 X38.3069 Y15.5529
G01 X38.3201 Y15.4640
G01 X38.3437 Y15.3697
G01 X38.3750 Y15.2824
G01 X38.4015 Y15.2262
G01 X38.4015 Y14.2967
G01 X34.9637 Y10.8589
G01 X34.9089 Y10.7985
G01 X34.9051 Y10.7939
G01 X34.8566 Y10.7284
G01 X34.8132 Y10.6559
G01 X34.7771 Y10.5795
G01 X34.7494 Y10.5026
G01 X34.7478 Y10.4971
G01 X34.7281 Y10.4180
G01 X34.7160 Y10.3374
G01 X34.7154 Y10.3314
G01 X34.7116 Y10.2530
G01 X34.7115 Y8.2485
G01 X34.7071 Y8.2449
G01 X34.6126 Y8.1592
G01 X34.6084 Y8.1550
G01 X34.5208 Y8.0582
G01 X34.4412 Y7.9510
G01 X34.3726 Y7.8364
G01 X34.3167 Y7.7184
G01 X34.3144 Y7.7129
G01 X34.2705 Y7.5899
G01 X34.2381 Y7.4605
G01 X34.2188 Y7.3313
G01 X34.2183 Y7.3254
G01 X34.2119 Y7.1950
G01 X34.2183 Y7.0646
G01 X34.2188 Y7.0587
G01 X34.2381 Y6.9295
G01 X34.2697 Y6.8029
G00 Z2.0000
G00 X39.1284 Y6.7675
G01 F400.00
G01 Z-0.0399
G01 F400.00
G01 X39.1343 Y6.7481
G01 X39.1777 Y6.6267
G01 X39.1848 Y6.6097
G01 X39.2396 Y6.4939
G01 X39.2445 Y6.4841
G01 X39.3196 Y6.3588
G01 X39.3259 Y6.3498
G01 X39.4077 Y6.2399
G01 X39.4148 Y6.2317
G01 X39.5008 Y6.1368
G01 X39.5138 Y6.1237
G01 X39.6093 Y6.0372
G01 X39.6246 Y6.0246
G01 X39.7274 Y5.9483
G01 X39.7365 Y5.9420
G01 X39.8537 Y5.8715
G01 X39.8633 Y5.8661
G01 X39.9953 Y5.8036
G01 X40.0056 Y5.7996
G01 X40.1262 Y5.7565
G01 X40.1439 Y5.7511
G01 X40.2689 Y5.7198
G01 X40.2883 Y5.7159
G01 X40.4149 Y5.6971
G01 X40.4259 Y5.6958
G01 X40.5717 Y5.6886
G01 X40.5827 Y5.6889
G01 X40.7194 Y5.6958
G01 X40.7303 Y5.6971
G01 X40.8570 Y5.7159
G01 X40.8751 Y5.7195
G01 X41.0001 Y5.7508
G01 X41.0191 Y5.7565
G01 X41.1396 Y5.7996
G01 X41.1499 Y5.8036
G01 X41.2819 Y5.8661
G01 X41.2915 Y5.8715
G01 X41.4088 Y5.9420
G01 X41.4178 Y5.9483
G01 X41.5203 Y6.0243
G01 X41.5359 Y6.0372
G01 X41.6314 Y6.1237
G01 X41.6445 Y6.1368
G01 X41.7304 Y6.2317
G01 X41.7376 Y6.2401
G01 X41.8249 Y6.3578
G01 X41.8305 Y6.3667
G01 X41.9007 Y6.4841
G01 X41.9057 Y6.4939
G01 X41.9602 Y6.6093
G01 X41.9678 Y6.6276
G01 X42.0110 Y6.7481
G01 X42.0144 Y6.7586
G01 X42.0499 Y6.9002
G01 X42.0518 Y6.9111
G01 X42.0705 Y7.0373
G01 X42.0725 Y7.0570
G01 X42.0790 Y7.1941
G01 X42.0787 Y7.2051
G01 X42.0725 Y7.3330
G01 X42.0705 Y7.3527
G01 X42.0518 Y7.4789
G01 X42.0499 Y7.4898
G01 X42.0153 Y7.6283
G01 X42.0111 Y7.6415
G01 X41.9680 Y7.7620
G01 X41.9602 Y7.7807
G01 X41.9057 Y7.8961
G01 X41.9007 Y7.9059
G01 X41.8274 Y8.0284
G01 X41.8196 Y8.0398
G01 X41.7433 Y8.1427
G01 X41.7332 Y8.1552
G01 X41.6401 Y8.2578
G01 X41.6308 Y8.2669
G01 X41.5794 Y8.3134
G01 X41.5794 Y11.5830
G01 X42.5145 Y12.5181
G01 X42.5764 Y12.5861
G01 X42.5868 Y12.5989
G01 X42.6392 Y12.6699
G01 X42.6451 Y12.6792
G01 X42.6901 Y12.7546
G01 X42.6951 Y12.7645
G01 X42.7324 Y12.8439
G01 X42.7364 Y12.8542
G01 X42.7648 Y12.9338
G01 X42.7686 Y12.9471
G01 X42.7879 Y13.0241
G01 X42.7917 Y13.0431
G01 X42.8034 Y13.1217
G01 X42.8046 Y13.1322
G01 X42.8094 Y13.2258
G01 X42.8094 Y15.1935
G01 X42.8214 Y15.2190
G01 X42.8263 Y15.2305
G01 X42.8601 Y15.3249
G01 X42.8639 Y15.3382
G01 X42.8869 Y15.4301
G01 X42.8895 Y15.4441
G01 X42.9036 Y15.5407
G01 X42.9044 Y15.5517
G01 X42.9090 Y15.6482
G01 X42.9087 Y15.6601
G01 X42.9038 Y15.7576
G01 X42.9024 Y15.7685
G01 X42.8894 Y15.8563
G01 X42.8855 Y15.8757
G01 X42.8637 Y15.9627
G01 X42.8583 Y15.9804
G01 X42.8284 Y16.0639
G01 X42.8244 Y16.0742
G01 X42.7788 Y16.1708
G01 X42.7734 Y16.1804
G01 X42.7230 Y16.2639
G01 X42.7167 Y16.2730
G01 X42.6641 Y16.3439
G01 X42.6512 Y16.3596
G01 X42.5910 Y16.4260
G01 X42.5779 Y16.4390
G01 X42.5119 Y16.4989
G01 X42.5040 Y16.5056
G01 X42.4180 Y16.5694
G01 X42.4087 Y16.5753
G01 X42.3249 Y16.6253
G01 X42.3151 Y16.6303
G01 X42.2353 Y16.6681
G01 X42.2170 Y16.6757
G01 X42.1330 Y16.7057
G01 X42.1206 Y16.7097
G01 X42.0283 Y16.7329
G01 X42.0176 Y16.7353
G01 X41.9211 Y16.7498
G01 X41.9102 Y16.7511
G01 X41.8127 Y16.7561
G01 X41.8017 Y16.7564
G01 X41.7043 Y16.7518
G01 X41.6933 Y16.7510
G01 X41.5968 Y16.7369
G01 X41.5859 Y16.7349
G01 X41.4912 Y16.7114
G01 X41.4806 Y16.7085
G01 X41.3887 Y16.6758
G01 X41.3784 Y16.6718
G01 X41.2819 Y16.6262
G01 X41.2723 Y16.6207
G01 X41.1888 Y16.5705
G01 X41.1797 Y16.5641
G01 X41.1014 Y16.5058
G01 X41.0931 Y16.4986
G01 X41.0209 Y16.4330
G01 X41.0133 Y16.4250
G01 X40.9482 Y16.3528
G01 X40.9411 Y16.3439
G01 X40.8832 Y16.2654
G01 X40.8773 Y16.2561
G01 X40.8273 Y16.1723
G01 X40.8223 Y16.1625
G01 X40.7808 Y16.0742
G01 X40.7768 Y16.0639
G01 X40.7449 Y15.9743
G01 X40.7412 Y15.9614
G01 X40.7177 Y15.8667
G01 X40.7158 Y15.8559
G01 X40.7028 Y15.7685
G01 X40.7008 Y15.7488
G01 X40.6965 Y15.6597
G01 X40.6963 Y15.6458
G01 X40.7008 Y15.5517
G01 X40.7017 Y15.5407
G01 X40.7158 Y15.4441
G01 X40.7184 Y15.4301
G01 X40.7413 Y15.3382
G01 X40.7451 Y15.3249
G01 X40.7789 Y15.2305
G01 X40.7838 Y15.2190
G01 X40.7958 Y15.1935
G01 X40.7958 Y13.6470
G01 X39.8604 Y12.7116
G01 X39.7982 Y12.6432
G01 X39.7884 Y12.6311
G01 X39.7360 Y12.5601
G01 X39.7303 Y12.5512
G01 X39.6897 Y12.4834
G01 X39.6843 Y12.4738
G01 X39.6466 Y12.3945
G01 X39.6421 Y12.3845
G01 X39.6122 Y12.3014
G01 X39.6073 Y12.2855
G01 X39.5854 Y12.1973
G01 X39.5835 Y12.1869
G01 X39.5719 Y12.1087
G01 X39.5700 Y12.0899
G01 X39.5658 Y12.0018
G01 X39.5658 Y8.3134
G01 X39.5145 Y8.2669
G01 X39.5051 Y8.2578
G01 X39.4126 Y8.1559
G01 X39.4022 Y8.1430
G01 X39.3235 Y8.0368
G01 X39.3147 Y8.0233
G01 X39.2445 Y7.9059
G01 X39.2396 Y7.8961
G01 X39.1833 Y7.7769
G01 X39.1773 Y7.7620
G01 X39.1312 Y7.6327
G01 X39.1284 Y7.6225
G01 X39.0954 Y7.4898
G01 X39.0935 Y7.4789
G01 X39.0736 Y7.3435
G01 X39.0727 Y7.3325
G01 X39.0663 Y7.1983
G01 X39.0665 Y7.1853
G01 X39.0728 Y7.0570
G01 X39.0747 Y7.0377
G01 X39.0950 Y6.9020
G01 X39.0974 Y6.8912
G01 X39.1284 Y6.7675
G01 X39.1991 Y6.7852
G01 X39.2029 Y6.7726
G01 X39.2479 Y6.6472
G01 X39.3054 Y6.5251
G01 X39.3116 Y6.5135
G01 X39.3802 Y6.3993
G01 X39.4604 Y6.2907
G01 X39.4688 Y6.2806
G01 X39.5561 Y6.1843
G01 X39.5637 Y6.1768
G01 X39.6625 Y6.0874
G01 X39.7708 Y6.0068
G01 X39.7817 Y5.9995
G01 X39.8911 Y5.9340
G01 X39.9027 Y5.9278
G01 X40.0249 Y5.8702
G01 X40.1559 Y5.8234
G01 X40.2921 Y5.7892
G01 X40.4256 Y5.7692
G01 X40.4386 Y5.7679
G01 X40.5661 Y5.7616
G01 X40.5792 Y5.7616
G01 X40.7140 Y5.7685
G01 X40.8458 Y5.7879
G01 X40.8587 Y5.7904
G01 X40.9896 Y5.8235
G01 X41.1220 Y5.8709
G01 X41.2476 Y5.9303
G01 X41.3683 Y6.0026
G01 X41.4814 Y6.0863
G01 X41.5856 Y6.1807
G01 X41.6802 Y6.2849
G01 X41.7608 Y6.3932
G01 X41.7681 Y6.4041
G01 X41.8337 Y6.5135
G01 X41.8398 Y6.5251
G01 X41.8974 Y6.6472
G01 X41.9424 Y6.7726
G01 X41.9451 Y6.7812
G01 X41.9784 Y6.9145
G01 X41.9985 Y7.0480
G01 X41.9997 Y7.0610
G01 X42.0062 Y7.1959
G01 X41.9997 Y7.3290
G01 X41.9985 Y7.3420
G01 X41.9784 Y7.4755
G01 X41.9447 Y7.6103
G01 X41.8994 Y7.7375
G01 X41.8944 Y7.7496
G01 X41.8365 Y7.8716
G01 X41.7651 Y7.9907
G01 X41.6848 Y8.0993
G01 X41.6771 Y8.1087
G01 X41.5869 Y8.2080
G01 X41.5066 Y8.2811
G01 X41.5066 Y11.6131
G01 X42.4630 Y12.5696
G01 X42.5209 Y12.6332
G01 X42.5286 Y12.6427
G01 X42.5787 Y12.7104
G01 X42.6259 Y12.7890
G01 X42.6651 Y12.8718
G01 X42.6956 Y12.9566
G01 X42.6981 Y12.9652
G01 X42.7172 Y13.0414
G01 X42.7197 Y13.0543
G01 X42.7321 Y13.1393
G01 X42.7365 Y13.2276
G01 X42.7366 Y15.2099
G01 X42.7584 Y15.2567
G01 X42.7904 Y15.3460
G01 X42.7934 Y15.3563
G01 X42.8154 Y15.4443
G01 X42.8174 Y15.4548
G01 X42.8311 Y15.5478
G01 X42.8360 Y15.6434
G01 X42.8361 Y15.6524
G01 X42.8311 Y15.7522
G01 X42.8161 Y15.8525
G01 X42.7914 Y15.9509
G01 X42.7571 Y16.0463
G01 X42.7137 Y16.1380
G01 X42.6615 Y16.2249
G01 X42.6010 Y16.3064
G01 X42.5328 Y16.3815
G01 X42.4577 Y16.4494
G01 X42.3761 Y16.5098
G01 X42.2890 Y16.5619
G01 X42.1990 Y16.6045
G01 X42.1035 Y16.6388
G01 X42.0051 Y16.6635
G01 X41.9048 Y16.6785
G01 X41.8035 Y16.6835
G01 X41.7079 Y16.6790
G01 X41.6948 Y16.6778
G01 X41.6001 Y16.6635
G01 X41.5035 Y16.6393
G01 X41.4132 Y16.6072
G01 X41.4011 Y16.6022
G01 X41.3162 Y16.5619
G01 X41.2340 Y16.5129
G01 X41.2231 Y16.5056
G01 X41.1476 Y16.4495
G01 X41.0765 Y16.3853
G01 X41.0673 Y16.3761
G01 X41.0032 Y16.3051
G01 X40.9470 Y16.2296
G01 X40.9398 Y16.2187
G01 X40.8943 Y16.1429
G01 X40.8886 Y16.1322
G01 X40.8500 Y16.0507
G01 X40.8454 Y16.0394
G01 X40.8133 Y15.9492
G01 X40.7904 Y15.8580
G01 X40.7878 Y15.8452
G01 X40.7741 Y15.7522
G01 X40.7691 Y15.6509
G01 X40.7741 Y15.5478
G01 X40.7878 Y15.4548
G01 X40.7898 Y15.4443
G01 X40.8118 Y15.3563
G01 X40.8149 Y15.3460
G01 X40.8469 Y15.2567
G01 X40.8687 Y15.2099
G01 X40.8687 Y13.6169
G01 X39.9122 Y12.6604
G01 X39.8534 Y12.5957
G01 X39.8466 Y12.5873
G01 X39.7966 Y12.5196
G01 X39.7494 Y12.4410
G01 X39.7094 Y12.3566
G01 X39.6808 Y12.2770
G01 X39.6782 Y12.2687
G01 X39.6568 Y12.1831
G01 X39.6440 Y12.0980
G01 X39.6427 Y12.0850
G01 X39.6387 Y12.0009
G01 X39.6387 Y8.2811
G01 X39.5583 Y8.2080
G01 X39.4682 Y8.1087
G01 X39.4604 Y8.0993
G01 X39.3839 Y7.9961
G01 X39.3772 Y7.9859
G01 X39.3088 Y7.8716
G01 X39.2505 Y7.7488
G01 X39.2458 Y7.7375
G01 X39.2010 Y7.6117
G01 X39.1668 Y7.4755
G01 X39.1459 Y7.3346
G01 X39.1391 Y7.1941
G01 X39.1455 Y7.0610
G01 X39.1468 Y7.0480
G01 X39.1665 Y6.9162
G01 X39.1991 Y6.7852
G01 X39.2697 Y6.8029
G01 X39.2714 Y6.7972
G01 X39.3155 Y6.6743
G01 X39.3712 Y6.5562
G01 X39.3741 Y6.5510
G01 X39.4412 Y6.4390
G01 X39.5189 Y6.3341
G01 X39.5227 Y6.3295
G01 X39.6094 Y6.2339
G01 X39.7094 Y6.1432
G01 X39.8142 Y6.0653
G01 X39.8192 Y6.0620
G01 X39.9286 Y5.9964
G01 X39.9338 Y5.9936
G01 X40.0519 Y5.9379
G01 X40.1777 Y5.8929
G01 X40.3072 Y5.8604
G01 X40.4363 Y5.8412
G01 X40.4422 Y5.8406
G01 X40.5696 Y5.8344
G01 X40.5756 Y5.8344
G01 X40.7060 Y5.8409
G01 X40.8351 Y5.8599
G01 X40.8410 Y5.8611
G01 X40.9676 Y5.8929
G01 X41.0933 Y5.9379
G01 X41.2140 Y5.9950
G01 X41.3286 Y6.0636
G01 X41.4358 Y6.1432
G01 X41.5348 Y6.2328
G01 X41.6245 Y6.3318
G01 X41.7023 Y6.4366
G01 X41.7056 Y6.4416
G01 X41.7726 Y6.5536
G01 X41.8285 Y6.6716
G01 X41.8308 Y6.6771
G01 X41.8738 Y6.7972
G01 X41.8755 Y6.8029
G01 X41.9072 Y6.9295
G01 X41.9264 Y7.0587
G01 X41.9270 Y7.0646
G01 X41.9333 Y7.1950
G01 X41.9270 Y7.3254
G01 X41.9264 Y7.3313
G01 X41.9072 Y7.4605
G01 X41.8747 Y7.5900
G01 X41.8308 Y7.7129
G01 X41.8285 Y7.7184
G01 X41.7726 Y7.8364
G01 X41.7040 Y7.9510
G01 X41.6245 Y8.0582
G01 X41.5368 Y8.1550
G01 X41.5326 Y8.1592
G01 X41.4381 Y8.2449
G01 X41.4337 Y8.2485
G01 X41.4337 Y11.6433
G01 X42.4115 Y12.6211
G01 X42.4663 Y12.6815
G01 X42.4701 Y12.6861
G01 X42.5186 Y12.7516
G01 X42.5620 Y12.8241
G01 X42.5982 Y12.9005
G01 X42.6262 Y12.9786
G01 X42.6465 Y13.0591
G01 X42.6477 Y13.0649
G01 X42.6596 Y13.1456
G01 X42.6637 Y13.2285
G01 X42.6637 Y15.2262
G01 X42.6902 Y15.2824
G01 X42.7210 Y15.3683
G01 X42.7227 Y15.3740
G01 X42.7445 Y15.4611
G01 X42.7587 Y15.5558
G01 X42.7633 Y15.6500
G01 X42.7587 Y15.7442
G01 X42.7449 Y15.8374
G01 X42.7220 Y15.9289
G01 X42.6902 Y16.0176
G01 X42.6499 Y16.1029
G01 X42.6014 Y16.1837
G01 X42.5452 Y16.2595
G01 X42.4819 Y16.3293
G01 X42.4121 Y16.3926
G01 X42.3364 Y16.4488
G01 X42.2555 Y16.4973
G01 X42.1703 Y16.5376
G01 X42.0815 Y16.5693
G01 X41.9900 Y16.5922
G01 X41.8968 Y16.6061
G01 X41.8026 Y16.6107
G01 X41.7085 Y16.6061
G01 X41.6181 Y16.5927
G01 X41.6123 Y16.5916
G01 X41.5237 Y16.5693
G01 X41.4378 Y16.5386
G01 X41.4323 Y16.5364
G01 X41.3497 Y16.4973
G01 X41.2689 Y16.4488
G01 X41.1955 Y16.3945
G01 X41.1909 Y16.3907
G01 X41.1233 Y16.3293
G01 X41.0600 Y16.2595
G01 X41.0055 Y16.1862
G01 X41.0022 Y16.1812
G01 X40.9554 Y16.1029
G01 X40.9163 Y16.0204
G01 X40.9140 Y16.0149
G01 X40.8833 Y15.9289
G01 X40.8604 Y15.8374
G01 X40.8465 Y15.7442
G01 X40.8419 Y15.6500
G01 X40.8465 Y15.5558
G01 X40.8607 Y15.4611
G01 X40.8825 Y15.3740
G01 X40.8842 Y15.3683
G01 X40.9150 Y15.2824
G01 X40.9415 Y15.2262
G01 X40.9415 Y13.5867
G01 X39.9637 Y12.6089
G01 X39.9089 Y12.5485
G01 X39.9051 Y12.5439
G01 X39.8566 Y12.4784
G01 X39.8132 Y12.4059
G01 X39.7771 Y12.3295
G01 X39.7494 Y12.2526
G01 X39.7478 Y12.2471
G01 X39.7281 Y12.1680
G01 X39.7160 Y12.0874
G01 X39.7154 Y12.0814
G01 X39.7115 Y12.0000
G01 X39.7115 Y8.2485
G01 X39.7071 Y8.2449
G01 X39.6126 Y8.1592
G01 X39.6084 Y8.1550
G01 X39.5208 Y8.0582
G01 X39.4412 Y7.9510
G01 X39.3726 Y7.8364
G01 X39.3167 Y7.7184
G01 X39.3144 Y7.7129
G01 X39.2705 Y7.5899
G01 X39.2381 Y7.4605
G01 X39.2188 Y7.3313
G01 X39.2183 Y7.3254
G01 X39.2119 Y7.1950
G01 X39.2183 Y7.0646
G01 X39.2188 Y7.0587
G01 X39.2381 Y6.9295
G01 X39.2697 Y6.8029
G00 Z2.0000
G00 X39.4935 Y12.0171
G01 F400.00
G01 Z-0.0399
G01 F400.00
G01 X39.4870 Y12.0286
G01 X39.4804 Y12.0392
G01 X39.4735 Y12.0491
G01 X39.4654 Y12.0597
G01 X39.4570 Y12.0697
G01 X39.4479 Y12.0795
G01 X39.4391 Y12.0882
G01 X39.4299 Y12.0966
G01 X39.4153 Y12.1084
G01 X39.3582 Y12.1511
G01 X39.3482 Y12.1582
G01 X39.3369 Y12.1654
G01 X39.3249 Y12.1724
G01 X39.3126 Y12.1787
G01 X39.2995 Y12.1846
G01 X39.2779 Y12.1926
G01 X39.2566 Y12.1986
G01 X39.2343 Y12.2030
G01 X39.2114 Y12.2056
G01 X39.1390 Y12.2108
G01 X39.1162 Y12.2113
G01 X39.1010 Y12.2106
G01 X39.0841 Y12.2088
G01 X39.0680 Y12.2061
G01 X39.0519 Y12.2024
G01 X40.0260 Y13.1766
G01 X40.0350 Y13.1860
G01 X40.0887 Y13.2452
G01 X40.0980 Y13.2561
G01 X40.1524 Y13.3290
G01 X40.1610 Y13.3413
G01 X40.2080 Y13.4191
G01 X40.2143 Y13.4303
G01 X40.2208 Y13.4431
G01 X40.2590 Y13.5244
G01 X40.2649 Y13.5394
G01 X40.2951 Y13.6245
G01 X40.2992 Y13.6389
G01 X40.3187 Y13.7169
G01 X40.3212 Y13.7281
G01 X40.3234 Y13.7402
G01 X40.3354 Y13.8206
G01 X40.3369 Y13.8333
G01 X40.3380 Y13.8478
G01 X40.3419 Y13.9270
G01 X40.3422 Y13.9393
G01 X40.3422 Y15.1771
G01 X40.3499 Y15.1937
G01 X40.3554 Y15.2072
G01 X40.3898 Y15.3037
G01 X40.3946 Y15.3202
G01 X40.4183 Y15.4159
G01 X40.4215 Y15.4332
G01 X40.4360 Y15.5331
G01 X40.4371 Y15.5474
G01 X40.4417 Y15.6423
G01 X40.4415 Y15.6630
G01 X40.4372 Y15.7521
G01 X40.4362 Y15.7647
G01 X40.4346 Y15.7785
G01 X40.4215 Y15.8668
G01 X40.4180 Y15.8854
G01 X40.3943 Y15.9808
G01 X40.3886 Y16.0001
G01 X40.3538 Y16.0970
G01 X40.3476 Y16.1116
G01 X40.3301 Y16.1485
G01 X40.4016 Y16.1152
G01 X40.4162 Y16.1093
G01 X40.4306 Y16.1044
G01 X40.4506 Y16.0989
G01 X40.4710 Y16.0949
G01 X40.4917 Y16.0925
G01 X40.5116 Y16.0916
G01 X40.5301 Y16.0920
G01 X40.5492 Y16.0938
G01 X40.6251 Y16.1042
G01 X40.6369 Y16.1062
G01 X40.6491 Y16.1089
G01 X40.6708 Y16.1151
G01 X40.6822 Y16.1191
G01 X40.6929 Y16.1234
G01 X40.7138 Y16.1334
G01 X40.7334 Y16.1448
G01 X40.7170 Y16.1100
G01 X40.7111 Y16.0962
G01 X40.6765 Y15.9997
G01 X40.6707 Y15.9800
G01 X40.6473 Y15.8859
G01 X40.6438 Y15.8672
G01 X40.6292 Y15.7669
G01 X40.6281 Y15.7519
G01 X40.6234 Y15.6513
G01 X40.6237 Y15.6363
G01 X40.6281 Y15.5474
G01 X40.6292 Y15.5335
G01 X40.6307 Y15.5210
G01 X40.6437 Y15.4332
G01 X40.6466 Y15.4173
G01 X40.6706 Y15.3207
G01 X40.6754 Y15.3037
G01 X40.7098 Y15.2072
G01 X40.7153 Y15.1937
G01 X40.7230 Y15.1771
G01 X40.7230 Y13.6772
G01 X39.8063 Y12.7604
G01 X39.7470 Y12.6953
G01 X39.7389 Y12.6859
G01 X39.7300 Y12.6746
G01 X39.6828 Y12.6110
G01 X39.6745 Y12.5991
G01 X39.6676 Y12.5882
G01 X39.6259 Y12.5185
G01 X39.6152 Y12.4985
G01 X39.5804 Y12.4251
G01 X39.5748 Y12.4123
G01 X39.5702 Y12.4004
G01 X39.5406 Y12.3171
G01 X39.5360 Y12.3010
G01 X39.5165 Y12.2231
G01 X39.5139 Y12.2115
G01 X39.5117 Y12.1991
G01 X39.4998 Y12.1188
G01 X39.4983 Y12.1067
G01 X39.4972 Y12.0928
G01 X39.4935 Y12.0171
G01 X39.3687 Y12.3133
G01 X39.3957 Y12.3403
G01 X39.3867 Y12.3045
G01 X39.3687 Y12.3133
G01 X39.2296 Y12.2771
G01 X39.6748 Y12.7224
G01 X39.6238 Y12.6537
G01 X39.6150 Y12.6412
G01 X39.6058 Y12.6267
G01 X39.5648 Y12.5583
G01 X39.5575 Y12.5456
G01 X39.5507 Y12.5324
G01 X39.5117 Y12.4498
G01 X39.5018 Y12.4252
G01 X39.4745 Y12.3489
G01 X39.4682 Y12.3290
G01 X39.4439 Y12.2324
G01 X39.4403 Y12.2137
G01 X39.4358 Y12.1840
G01 X39.4024 Y12.2090
G01 X39.4023 Y12.2090
G01 X39.3983 Y12.2120
G01 X39.3822 Y12.2230
G01 X39.3598 Y12.2363
G01 X39.3364 Y12.2480
G01 X39.3240 Y12.2533
G01 X39.3112 Y12.2582
G01 X39.2972 Y12.2629
G01 X39.2839 Y12.2668
G01 X39.2702 Y12.2703
G01 X39.2570 Y12.2730
G01 X39.2438 Y12.2753
G01 X39.2296 Y12.2771
G00 Z2.0000
G00 X40.1604 Y13.2176
G01 F400.00
G01 Z-0.0399
G01 F400.00
G01 X40.2139 Y13.2897
G01 X40.2223 Y13.3020
G01 X40.2241 Y13.3047
G01 X40.2246 Y13.3055
G01 X40.2247 Y13.3057
G01 X40.2250 Y13.3060
G01 X40.2264 Y13.3083
G01 X40.2300 Y13.3142
G01 X40.2711 Y13.3828
G01 X40.2794 Y13.3975
G01 X40.2864 Y13.4114
G01 X40.3218 Y13.4863
G01 X40.3278 Y13.5000
G01 X40.3328 Y13.5129
G01 X40.3604 Y13.5902
G01 X40.3657 Y13.6063
G01 X40.3698 Y13.6212
G01 X40.3898 Y13.7008
G01 X40.3928 Y13.7143
G01 X40.3954 Y13.7288
G01 X40.4076 Y13.8111
G01 X40.4096 Y13.8282
G01 X40.4108 Y13.8442
G01 X40.4150 Y13.9349
G01 X40.4151 Y15.1609
G01 X40.4204 Y15.1733
G01 X40.4251 Y15.1857
G01 X40.4556 Y15.2710
G01 X40.4602 Y15.2848
G01 X40.4653 Y15.3029
G01 X40.4869 Y15.3893
G01 X40.4900 Y15.4029
G01 X40.4935 Y15.4224
G01 X40.5067 Y15.5110
G01 X40.5085 Y15.5255
G01 X40.5099 Y15.5436
G01 X40.5145 Y15.6402
G01 X40.5143 Y15.6659
G01 X40.5090 Y15.7694
G01 X40.5067 Y15.7885
G01 X40.4936 Y15.8772
G01 X40.4908 Y15.8934
G01 X40.4871 Y15.9101
G01 X40.4646 Y15.9998
G01 X40.4576 Y16.0233
G01 X40.4734 Y16.0211
G01 X40.4908 Y16.0195
G01 X40.5081 Y16.0188
G01 X40.5256 Y16.0189
G01 X40.5390 Y16.0196
G01 X40.5540 Y16.0210
G01 X40.6094 Y16.0285
G01 X40.6050 Y16.0152
G01 X40.6011 Y16.0017
G01 X40.5784 Y15.9111
G01 X40.5748 Y15.8951
G01 X40.5718 Y15.8782
G01 X40.5585 Y15.7887
G01 X40.5563 Y15.7698
G01 X40.5553 Y15.7559
G01 X40.5509 Y15.6664
G01 X40.5506 Y15.6440
G01 X40.5553 Y15.5441
G01 X40.5567 Y15.5257
G01 X40.5586 Y15.5110
G01 X40.5717 Y15.4224
G01 X40.5752 Y15.4031
G01 X40.5783 Y15.3893
G01 X40.5999 Y15.3029
G01 X40.6050 Y15.2848
G01 X40.6096 Y15.2710
G01 X40.6401 Y15.1857
G01 X40.6449 Y15.1733
G01 X40.6502 Y15.1609
G01 X40.6502 Y13.7074
G01 X40.1604 Y13.2176
G01 X40.4395 Y13.5997
G01 X40.4606 Y13.6836
G01 X40.4657 Y13.7080
G01 X40.4796 Y13.7998
G01 X40.4821 Y13.8208
G01 X40.4835 Y13.8402
G01 X40.4879 Y13.9331
G01 X40.4879 Y15.1460
G01 X40.4938 Y15.1613
G01 X40.5244 Y15.2468
G01 X40.5326 Y15.2727
G01 X40.5408 Y15.2471
G01 X40.5713 Y15.1619
G01 X40.5768 Y15.1473
G01 X40.5773 Y13.7375
G01 X40.4395 Y13.5997
G00 Z2.0000
G00 X42.9380 Y13.0367
G01 F400.00
G01 Z-0.0399
G01 F400.00
G01 X42.9477 Y13.1022
G01 X42.9498 Y13.1199
G01 X42.9508 Y13.1334
G01 X42.9547 Y13.2127
G01 X42.9551 Y13.2274
G01 X42.9551 Y15.1609
G01 X42.9604 Y15.1733
G01 X42.9651 Y15.1857
G01 X42.9956 Y15.2710
G01 X43.0002 Y15.2848
G01 X43.0053 Y15.3029
G01 X43.0269 Y15.3893
G01 X43.0301 Y15.4031
G01 X43.0335 Y15.4224
G01 X43.0467 Y15.5110
G01 X43.0485 Y15.5257
G01 X43.0499 Y15.5441
G01 X43.0546 Y15.6429
G01 X43.0543 Y15.6663
G01 X43.0499 Y15.7559
G01 X43.0489 Y15.7698
G01 X43.0467 Y15.7887
G01 X43.0336 Y15.8773
G01 X43.0308 Y15.8934
G01 X43.0271 Y15.9101
G01 X43.0046 Y15.9998
G01 X42.9976 Y16.0233
G01 X43.0134 Y16.0211
G01 X43.0308 Y16.0195
G01 X43.0481 Y16.0188
G01 X43.0656 Y16.0189
G01 X43.0790 Y16.0196
G01 X43.0940 Y16.0210
G01 X43.1494 Y16.0285
G01 X43.1450 Y16.0152
G01 X43.1411 Y16.0017
G01 X43.1184 Y15.9111
G01 X43.1148 Y15.8951
G01 X43.1118 Y15.8782
G01 X43.0985 Y15.7887
G01 X43.0963 Y15.7698
G01 X43.0953 Y15.7559
G01 X43.0909 Y15.6663
G01 X43.0906 Y15.6431
G01 X43.0953 Y15.5441
G01 X43.0967 Y15.5257
G01 X43.0986 Y15.5110
G01 X43.1117 Y15.4224
G01 X43.1152 Y15.4031
G01 X43.1183 Y15.3893
G01 X43.1399 Y15.3029
G01 X43.1450 Y15.2848
G01 X43.1496 Y15.2710
G01 X43.1801 Y15.1857
G01 X43.1849 Y15.1733
G01 X43.1902 Y15.1609
G01 X43.1902 Y13.2274
G01 X43.1906 Y13.2127
G01 X43.1944 Y13.1343
G01 X43.1945 Y13.1334
G01 X43.1954 Y13.1199
G01 X43.1975 Y13.1022
G01 X43.2072 Y13.0365
G01 X43.1863 Y13.0436
G01 X43.1732 Y13.0476
G01 X43.1586 Y13.0513
G01 X43.1424 Y13.0548
G01 X43.1260 Y13.0574
G01 X43.1096 Y13.0593
G01 X43.0939 Y13.0604
G01 X43.0780 Y13.0607
G01 X43.0634 Y13.0604
G01 X43.0478 Y13.0594
G01 X43.0328 Y13.0578
G01 X43.0179 Y13.0556
G01 X42.9966 Y13.0512
G01 X42.9380 Y13.0367
G01 X43.0235 Y13.1301
G01 X43.0275 Y13.2107
G01 X43.0279 Y13.2295
G01 X43.0279 Y15.1460
G01 X43.0338 Y15.1613
G01 X43.0644 Y15.2468
G01 X43.0726 Y15.2727
G01 X43.0808 Y15.2471
G01 X43.1113 Y15.1619
G01 X43.1168 Y15.1473
G01 X43.1173 Y13.2294
G01 X43.1178 Y13.2108
G01 X43.1178 Y13.2092
G01 X43.1217 Y13.1313
G01 X43.0972 Y13.1331
G01 X43.0728 Y13.1335
G01 X43.0475 Y13.1325
G01 X43.0235 Y13.1301
G01 X43.3358 Y13.2300
G01 X43.3406 Y13.1322
G01 X43.3419 Y13.1217
G01 X43.3535 Y13.0431
G01 X43.3570 Y13.0254
G01 X43.3574 Y13.0237
G01 X43.3765 Y12.9475
G01 X43.3822 Y12.9286
G01 X43.4090 Y12.8538
G01 X43.4128 Y12.8439
G01 X43.4543 Y12.7562
G01 X43.4597 Y12.7466
G01 X43.5050 Y12.6714
G01 X43.5111 Y12.6627
G01 X43.5584 Y12.5989
G01 X43.5701 Y12.5846
G01 X43.6304 Y12.5184
G01 X44.5658 Y11.5830
G01 X44.5658 Y8.3134
G01 X44.5145 Y8.2669
G01 X44.5051 Y8.2578
G01 X44.4120 Y8.1552
G01 X44.4019 Y8.1427
G01 X44.3257 Y8.0398
G01 X44.3178 Y8.0284
G01 X44.2445 Y7.9059
G01 X44.2396 Y7.8961
G01 X44.1850 Y7.7807
G01 X44.1773 Y7.7620
G01 X44.1341 Y7.6414
G01 X44.1299 Y7.6280
G01 X44.0954 Y7.4898
G01 X44.0935 Y7.4789
G01 X44.0747 Y7.3527
G01 X44.0728 Y7.3330
G01 X44.0665 Y7.2051
G01 X44.0662 Y7.1941
G01 X44.0728 Y7.0570
G01 X44.0747 Y7.0373
G01 X44.0935 Y6.9111
G01 X44.0954 Y6.9002
G01 X44.1306 Y6.7594
G01 X44.1343 Y6.7481
G01 X44.1806 Y6.6194
G01 X44.1850 Y6.6093
G01 X44.2437 Y6.4857
G01 X44.2491 Y6.4761
G01 X44.3147 Y6.3667
G01 X44.3206 Y6.3574
G01 X44.4019 Y6.2473
G01 X44.4089 Y6.2385
G01 X44.5005 Y6.1372
G01 X44.5081 Y6.1292
G01 X44.6093 Y6.0372
G01 X44.6177 Y6.0300
G01 X44.7274 Y5.9483
G01 X44.7365 Y5.9420
G01 X44.8541 Y5.8713
G01 X44.8716 Y5.8619
G01 X44.9869 Y5.8074
G01 X44.9978 Y5.8026
G01 X45.1262 Y5.7565
G01 X45.1451 Y5.7508
G01 X45.2689 Y5.7198
G01 X45.2796 Y5.7174
G01 X45.4149 Y5.6971
G01 X45.4337 Y5.6952
G01 X45.5625 Y5.6889
G01 X45.5823 Y5.6888
G01 X45.7194 Y5.6958
G01 X45.7303 Y5.6971
G01 X45.8656 Y5.7174
G01 X45.8764 Y5.7198
G01 X46.0090 Y5.7532
G01 X46.0195 Y5.7567
G01 X46.1460 Y5.8021
G01 X46.1579 Y5.8072
G01 X46.2741 Y5.8621
G01 X46.2915 Y5.8715
G01 X46.4010 Y5.9371
G01 X46.4103 Y5.9430
G01 X46.5276 Y6.0300
G01 X46.5359 Y6.0372
G01 X46.6308 Y6.1231
G01 X46.6445 Y6.1368
G01 X46.7365 Y6.2387
G01 X46.7433 Y6.2473
G01 X46.8193 Y6.3499
G01 X46.8303 Y6.3663
G01 X46.8961 Y6.4761
G01 X46.9015 Y6.4857
G01 X46.9604 Y6.6097
G01 X46.9680 Y6.6280
G01 X47.0140 Y6.7573
G01 X47.0168 Y6.7675
G01 X47.0479 Y6.8917
G01 X47.0518 Y6.9111
G01 X47.0706 Y7.0377
G01 X47.0722 Y7.0533
G01 X47.0788 Y7.1862
G01 X47.0787 Y7.2051
G01 X47.0725 Y7.3325
G01 X47.0717 Y7.3435
G01 X47.0518 Y7.4789
G01 X47.0479 Y7.4983
