(G-CODE GENERATED BY FLATCAM v8.994 - www.flatcam.org - Version Date: 2020/11/7)

(Name: esp_stepper-F_Cu.gbr_cutout_cnc)
(Type: G-code from Geometry)
(Units: MM)

(Created on Saturday, 05 April 2025 at 00:10)

(This preprocessor is the default preprocessor used by FlatCAM.)
(It is made to work with MACH3 compatible motion controllers.)

(TOOL DIAMETER: 2.0 mm)
(Feedrate_XY: 200.0 mm/min)
(Feedrate_Z: 200.0 mm/min)
(Feedrate rapids 1500.0 mm/min)

(Z_Cut: -2.0 mm)
(DepthPerCut: 1.0 mm <=>2 passes)
(Z_Move: 2.0 mm)
(Z Start: None mm)
(Z End: 15.0 mm)
(X,Y End: None mm)
(Steps per circle: 64)
(Preprocessor Geometry: default)

(X range:   -0.6769 ...   77.3221  mm)
(Y range:   -0.5995 ...   95.5995  mm)

(Spindle Speed: 24000.0 RPM)
G21
G90
G94

G01 F200.00

M5
G00 Z15.0000
G00 X0.0000 Y0.0000
T1
M6    
(MSG, Change to Tool Dia = 2.0000)
M0
G00 Z15.0000

M03 S24000.0
G01 F200.00
G00 X36.4226 Y-0.5995
G01 F200.00
G01 Z-1.0000
G01 F200.00
G01 X0.4231 Y-0.5995
G01 X0.3153 Y-0.5942
G01 X0.2085 Y-0.5784
G01 X0.1038 Y-0.5521
G01 X0.0022 Y-0.5158
G01 X-0.0954 Y-0.4696
G01 X-0.1880 Y-0.4141
G01 X-0.2747 Y-0.3498
G01 X-0.3547 Y-0.2773
G01 X-0.4272 Y-0.1973
G01 X-0.4915 Y-0.1106
G01 X-0.5470 Y-0.0180
G01 X-0.5931 Y0.0795
G01 X-0.6295 Y0.1812
G01 X-0.6557 Y0.2859
G01 X-0.6716 Y0.3927
G01 X-0.6769 Y0.5005
G01 X-0.6769 Y94.4995
G01 X-0.6716 Y94.6073
G01 X-0.6557 Y94.7141
G01 X-0.6295 Y94.8188
G01 X-0.5931 Y94.9205
G01 X-0.5470 Y95.0180
G01 X-0.4915 Y95.1106
G01 X-0.4272 Y95.1973
G01 X-0.3547 Y95.2773
G01 X-0.2747 Y95.3498
G01 X-0.1880 Y95.4141
G01 X-0.0954 Y95.4696
G01 X0.0022 Y95.5158
G01 X0.1038 Y95.5521
G01 X0.2085 Y95.5784
G01 X0.3153 Y95.5942
G01 X0.4231 Y95.5995
G01 X36.4226 Y95.5995
G00 X36.4226 Y95.5995
G01 F200.00
G01 Z-2.0000
G01 F200.00
G01 X0.4231 Y95.5995
G01 X0.3153 Y95.5942
G01 X0.2085 Y95.5784
G01 X0.1038 Y95.5521
G01 X0.0022 Y95.5158
G01 X-0.0954 Y95.4696
G01 X-0.1880 Y95.4141
G01 X-0.2747 Y95.3498
G01 X-0.3547 Y95.2773
G01 X-0.4272 Y95.1973
G01 X-0.4915 Y95.1106
G01 X-0.5470 Y95.0180
G01 X-0.5931 Y94.9205
G01 X-0.6295 Y94.8188
G01 X-0.6557 Y94.7141
G01 X-0.6716 Y94.6073
G01 X-0.6769 Y94.4995
G01 X-0.6769 Y0.5005
G01 X-0.6716 Y0.3927
G01 X-0.6557 Y0.2859
G01 X-0.6295 Y0.1812
G01 X-0.5931 Y0.0795
G01 X-0.5470 Y-0.0180
G01 X-0.4915 Y-0.1106
G01 X-0.4272 Y-0.1973
G01 X-0.3547 Y-0.2773
G01 X-0.2747 Y-0.3498
G01 X-0.1880 Y-0.4141
G01 X-0.0954 Y-0.4696
G01 X0.0022 Y-0.5158
G01 X0.1038 Y-0.5521
G01 X0.2085 Y-0.5784
G01 X0.3153 Y-0.5942
G01 X0.4231 Y-0.5995
G01 X36.4226 Y-0.5995
G00 Z2.0000
G00 X40.4226 Y95.5995
G01 F200.00
G01 Z-1.0000
G01 F200.00
G01 X76.2221 Y95.5995
G01 X76.3299 Y95.5942
G01 X76.4367 Y95.5784
G01 X76.5414 Y95.5521
G01 X76.6431 Y95.5158
G01 X76.7407 Y95.4696
G01 X76.8332 Y95.4141
G01 X76.9200 Y95.3498
G01 X76.9999 Y95.2773
G01 X77.0724 Y95.1973
G01 X77.1367 Y95.1106
G01 X77.1922 Y95.0180
G01 X77.2384 Y94.9205
G01 X77.2748 Y94.8188
G01 X77.3010 Y94.7141
G01 X77.3168 Y94.6073
G01 X77.3221 Y94.4995
G01 X77.3221 Y0.5005
G01 X77.3168 Y0.3927
G01 X77.3010 Y0.2859
G01 X77.2748 Y0.1812
G01 X77.2384 Y0.0795
G01 X77.1922 Y-0.0180
G01 X77.1367 Y-0.1106
G01 X77.0724 Y-0.1973
G01 X76.9999 Y-0.2773
G01 X76.9200 Y-0.3498
G01 X76.8332 Y-0.4141
G01 X76.7407 Y-0.4696
G01 X76.6431 Y-0.5158
G01 X76.5414 Y-0.5521
G01 X76.4367 Y-0.5784
G01 X76.3299 Y-0.5942
G01 X76.2221 Y-0.5995
G01 X40.4226 Y-0.5995
G00 X40.4226 Y-0.5995
G01 F200.00
G01 Z-2.0000
G01 F200.00
G01 X76.2221 Y-0.5995
G01 X76.3299 Y-0.5942
G01 X76.4367 Y-0.5784
G01 X76.5414 Y-0.5521
G01 X76.6431 Y-0.5158
G01 X76.7407 Y-0.4696
G01 X76.8332 Y-0.4141
G01 X76.9200 Y-0.3498
G01 X76.9999 Y-0.2773
G01 X77.0724 Y-0.1973
G01 X77.1367 Y-0.1106
G01 X77.1922 Y-0.0180
G01 X77.2384 Y0.0795
G01 X77.2748 Y0.1812
G01 X77.3010 Y0.2859
G01 X77.3168 Y0.3927
G01 X77.3221 Y0.5005
G01 X77.3221 Y94.4995
G01 X77.3168 Y94.6073
G01 X77.3010 Y94.7141
G01 X77.2748 Y94.8188
G01 X77.2384 Y94.9205
G01 X77.1922 Y95.0180
G01 X77.1367 Y95.1106
G01 X77.0724 Y95.1973
G01 X76.9999 Y95.2773
G01 X76.9200 Y95.3498
G01 X76.8332 Y95.4141
G01 X76.7407 Y95.4696
G01 X76.6431 Y95.5158
G01 X76.5414 Y95.5521
G01 X76.4367 Y95.5784
G01 X76.3299 Y95.5942
G01 X76.2221 Y95.5995
G01 X40.4226 Y95.5995
G00 Z2.0000
M05
G00 Z2.0000
G00 Z15.00


