(G-CODE GENERATED BY FLATCAM v8.994 - www.flatcam.org - Version Date: 2020/11/7)

(Name: esp_stepper-PTH.drl_cnc)
(Type: G-code from Geometry)
(Units: MM)

(Created on Saturday, 05 April 2025 at 00:09)

(This preprocessor is the default preprocessor used by FlatCAM.)
(It is made to work with MACH3 compatible motion controllers.)


(TOOLS DIAMETER: )
(Tool: 1 -> Dia: 0.8000999999999999)
(Tool: 2 -> Dia: 0.8000999999999999)
(Tool: 3 -> Dia: 0.8000999999999999)
(Tool: 4 -> Dia: 0.8000999999999999)
(Tool: 5 -> Dia: 0.89916)
(Tool: 6 -> Dia: 1.0007599999999999)
(Tool: 7 -> Dia: 1.016)
(Tool: 8 -> Dia: 1.30048)
(Tool: 9 -> Dia: 2.9997399999999996)

(FEEDRATE Z: )
(Tool: 1 -> Feedrate: 300.0)
(Tool: 2 -> Feedrate: 300.0)
(Tool: 3 -> Feedrate: 300.0)
(Tool: 4 -> Feedrate: 300.0)
(Tool: 5 -> Feedrate: 300.0)
(Tool: 6 -> Feedrate: 300.0)
(Tool: 7 -> Feedrate: 300.0)
(Tool: 8 -> Feedrate: 300.0)
(Tool: 9 -> Feedrate: 300.0)

(FEEDRATE RAPIDS: )
(Tool: 1 -> Feedrate Rapids: 1500)
(Tool: 2 -> Feedrate Rapids: 1500)
(Tool: 3 -> Feedrate Rapids: 1500)
(Tool: 4 -> Feedrate Rapids: 1500)
(Tool: 5 -> Feedrate Rapids: 1500)
(Tool: 6 -> Feedrate Rapids: 1500)
(Tool: 7 -> Feedrate Rapids: 1500)
(Tool: 8 -> Feedrate Rapids: 1500)
(Tool: 9 -> Feedrate Rapids: 1500)

(Z_CUT: )
(Tool: 1 -> Z_Cut: -2.2)
(Tool: 2 -> Z_Cut: -2.2)
(Tool: 3 -> Z_Cut: -2.2)
(Tool: 4 -> Z_Cut: -2.2)
(Tool: 5 -> Z_Cut: -2.2)
(Tool: 6 -> Z_Cut: -2.2)
(Tool: 7 -> Z_Cut: -2.2)
(Tool: 8 -> Z_Cut: -2.2)
(Tool: 9 -> Z_Cut: -2.2)

(Tools Offset: )
(Tool: 4 -> Offset Z: 0.0)
(Tool: 5 -> Offset Z: 0.0)
(Tool: 6 -> Offset Z: 0.0)
(Tool: 7 -> Offset Z: 0.0)
(Tool: 8 -> Offset Z: 0.0)
(Tool: 9 -> Offset Z: 0.0)

(Z_MOVE: )
(Tool: 1 -> Z_Move: 2.0)
(Tool: 2 -> Z_Move: 2.0)
(Tool: 3 -> Z_Move: 2.0)
(Tool: 4 -> Z_Move: 2.0)
(Tool: 5 -> Z_Move: 2.0)
(Tool: 6 -> Z_Move: 2.0)
(Tool: 7 -> Z_Move: 2.0)
(Tool: 8 -> Z_Move: 2.0)
(Tool: 9 -> Z_Move: 2.0)

(Z Toolchange: 15 mm)
(X,Y Toolchange: 0.0000, 0.0000 mm)
(Z Start: None mm)
(Z End: 5.0 mm)
(X,Y End: None mm)
(Steps per circle: 64)
(Preprocessor Excellon: default)

(X range:    1.8228 ...   74.8224  mm)
(Y range:    2.4997 ...   91.4987  mm)

(Spindle Speed: 24000 RPM)
G21
G90
G94

G01 F300.00

M5
G00 Z15.0000
T1
G00 X0.0000 Y0.0000                
M6
(MSG, Change to Tool Dia = 0.8001 ||| Total drills for tool T1 = 126)
M0
G00 Z15.0000

G01 F300.00
M03 S24000
G00 X5.2073 Y36.6360
G01 Z-2.2000
G01 Z0
G00 Z2.0000
G00 X5.2073 Y36.6360
G01 Z-2.2000
G01 Z0
G00 Z2.0000
G00 X3.9932 Y24.3754
G01 Z-2.2000
G01 Z0
G00 Z2.0000
G00 X3.9932 Y24.3754
G01 Z-2.2000
G01 Z0
G00 Z2.0000
G00 X3.9932 Y19.3742
G01 Z-2.2000
G01 Z0
G00 Z2.0000
G00 X3.9932 Y19.3742
G01 Z-2.2000
G01 Z0
G00 Z2.0000
G00 X3.3227 Y3.9995
G01 Z-2.2000
G01 Z0
G00 Z2.0000
G00 X12.3219 Y7.1949
G01 Z-2.2000
G01 Z0
G00 Z2.0000
G00 X17.3231 Y7.1949
G01 Z-2.2000
G01 Z0
G00 Z2.0000
G00 X22.3219 Y7.1949
G01 Z-2.2000
G01 Z0
G00 Z2.0000
G00 X27.3231 Y7.1949
G01 Z-2.2000
G01 Z0
G00 Z2.0000
G00 X35.5730 Y7.1949
G01 Z-2.2000
G01 Z0
G00 Z2.0000
G00 X40.5718 Y7.1949
G01 Z-2.2000
G01 Z0
G00 Z2.0000
G00 X45.5730 Y7.1949
G01 Z-2.2000
G01 Z0
G00 Z2.0000
G00 X50.5717 Y7.1949
G01 Z-2.2000
G01 Z0
G00 Z2.0000
G00 X59.1823 Y7.3092
G01 Z-2.2000
G01 Z0
G00 Z2.0000
G00 X59.1823 Y7.3092
G01 Z-2.2000
G01 Z0
G00 Z2.0000
G00 X73.3225 Y3.9995
G01 Z-2.2000
G01 Z0
G00 Z2.0000
G00 X59.1823 Y12.3104
G01 Z-2.2000
G01 Z0
G00 Z2.0000
G00 X59.1823 Y12.3104
G01 Z-2.2000
G01 Z0
G00 Z2.0000
G00 X51.9637 Y15.6505
G01 Z-2.2000
G01 Z0
G00 Z2.0000
G00 X49.4237 Y15.6505
G01 Z-2.2000
G01 Z0
G00 Z2.0000
G00 X46.8837 Y15.6505
G01 Z-2.2000
G01 Z0
G00 Z2.0000
G00 X44.3437 Y15.6505
G01 Z-2.2000
G01 Z0
G00 Z2.0000
G00 X41.8037 Y15.6505
G01 Z-2.2000
G01 Z0
G00 Z2.0000
G00 X39.2637 Y15.6505
G01 Z-2.2000
G01 Z0
G00 Z2.0000
G00 X36.7237 Y15.6505
G01 Z-2.2000
G01 Z0
G00 Z2.0000
G00 X34.1837 Y15.6505
G01 Z-2.2000
G01 Z0
G00 Z2.0000
G00 X28.7125 Y15.6505
G01 Z-2.2000
G01 Z0
G00 Z2.0000
G00 X26.1725 Y15.6505
G01 Z-2.2000
G01 Z0
G00 Z2.0000
G00 X23.6325 Y15.6505
G01 Z-2.2000
G01 Z0
G00 Z2.0000
G00 X21.0925 Y15.6505
G01 Z-2.2000
G01 Z0
G00 Z2.0000
G00 X18.5525 Y15.6505
G01 Z-2.2000
G01 Z0
G00 Z2.0000
G00 X16.0125 Y15.6505
G01 Z-2.2000
G01 Z0
G00 Z2.0000
G00 X13.4725 Y15.6505
G01 Z-2.2000
G01 Z0
G00 Z2.0000
G00 X10.9325 Y15.6505
G01 Z-2.2000
G01 Z0
G00 Z2.0000
G00 X10.9325 Y28.3505
G01 Z-2.2000
G01 Z0
G00 Z2.0000
G00 X13.4725 Y28.3505
G01 Z-2.2000
G01 Z0
G00 Z2.0000
G00 X16.0125 Y28.3505
G01 Z-2.2000
G01 Z0
G00 Z2.0000
G00 X18.5525 Y28.3505
G01 Z-2.2000
G01 Z0
G00 Z2.0000
G00 X21.0925 Y28.3505
G01 Z-2.2000
G01 Z0
G00 Z2.0000
G00 X23.6325 Y28.3505
G01 Z-2.2000
G01 Z0
G00 Z2.0000
G00 X26.1725 Y28.3505
G01 Z-2.2000
G01 Z0
G00 Z2.0000
G00 X28.7125 Y28.3505
G01 Z-2.2000
G01 Z0
G00 Z2.0000
G00 X34.1837 Y28.3505
G01 Z-2.2000
G01 Z0
G00 Z2.0000
G00 X36.7237 Y28.3505
G01 Z-2.2000
G01 Z0
G00 Z2.0000
G00 X39.2637 Y28.3505
G01 Z-2.2000
G01 Z0
G00 Z2.0000
G00 X41.8037 Y28.3505
G01 Z-2.2000
G01 Z0
G00 Z2.0000
G00 X44.3437 Y28.3505
G01 Z-2.2000
G01 Z0
G00 Z2.0000
G00 X46.8837 Y28.3505
G01 Z-2.2000
G01 Z0
G00 Z2.0000
G00 X49.4237 Y28.3505
G01 Z-2.2000
G01 Z0
G00 Z2.0000
G00 X51.9637 Y28.3505
G01 Z-2.2000
G01 Z0
G00 Z2.0000
G00 X56.5738 Y26.0010
G01 Z-2.2000
G01 Z0
G00 Z2.0000
G00 X56.5738 Y23.4610
G01 Z-2.2000
G01 Z0
G00 Z2.0000
G00 X56.5738 Y20.9210
G01 Z-2.2000
G01 Z0
G00 Z2.0000
G00 X61.0721 Y20.9210
G01 Z-2.2000
G01 Z0
G00 Z2.0000
G00 X61.0721 Y23.4610
G01 Z-2.2000
G01 Z0
G00 Z2.0000
G00 X61.0721 Y26.0010
G01 Z-2.2000
G01 Z0
G00 Z2.0000
G00 X64.6433 Y26.7300
G01 Z-2.2000
G01 Z0
G00 Z2.0000
G00 X64.6433 Y26.7300
G01 Z-2.2000
G01 Z0
G00 Z2.0000
G00 X64.6433 Y33.7150
G01 Z-2.2000
G01 Z0
G00 Z2.0000
G00 X64.6433 Y33.7150
G01 Z-2.2000
G01 Z0
G00 Z2.0000
G00 X61.0721 Y36.2499
G01 Z-2.2000
G01 Z0
G00 Z2.0000
G00 X61.0721 Y33.7099
G01 Z-2.2000
G01 Z0
G00 Z2.0000
G00 X61.0721 Y31.1699
G01 Z-2.2000
G01 Z0
G00 Z2.0000
G00 X56.5738 Y31.1699
G01 Z-2.2000
G01 Z0
G00 Z2.0000
G00 X56.5738 Y33.7099
G01 Z-2.2000
G01 Z0
G00 Z2.0000
G00 X56.5738 Y36.2499
G01 Z-2.2000
G01 Z0
G00 Z2.0000
G00 X57.7853 Y40.1920
G01 Z-2.2000
G01 Z0
G00 Z2.0000
G00 X57.7853 Y40.1920
G01 Z-2.2000
G01 Z0
G00 Z2.0000
G00 X60.7698 Y44.0706
G01 Z-2.2000
G01 Z0
G00 Z2.0000
G00 X60.7698 Y44.0706
G01 Z-2.2000
G01 Z0
G00 Z2.0000
G00 X58.2298 Y44.0706
G01 Z-2.2000
G01 Z0
G00 Z2.0000
G00 X58.2298 Y44.0706
G01 Z-2.2000
G01 Z0
G00 Z2.0000
G00 X55.6898 Y44.0706
G01 Z-2.2000
G01 Z0
G00 Z2.0000
G00 X55.6898 Y44.0706
G01 Z-2.2000
G01 Z0
G00 Z2.0000
G00 X53.1498 Y44.0706
G01 Z-2.2000
G01 Z0
G00 Z2.0000
G00 X53.1498 Y44.0706
G01 Z-2.2000
G01 Z0
G00 Z2.0000
G00 X50.6098 Y44.0706
G01 Z-2.2000
G01 Z0
G00 Z2.0000
G00 X50.6098 Y44.0706
G01 Z-2.2000
G01 Z0
G00 Z2.0000
G00 X48.0698 Y44.0706
G01 Z-2.2000
G01 Z0
G00 Z2.0000
G00 X48.0698 Y44.0706
G01 Z-2.2000
G01 Z0
G00 Z2.0000
G00 X45.5298 Y44.0706
G01 Z-2.2000
G01 Z0
G00 Z2.0000
G00 X45.5298 Y44.0706
G01 Z-2.2000
G01 Z0
G00 Z2.0000
G00 X42.9898 Y44.0706
G01 Z-2.2000
G01 Z0
G00 Z2.0000
G00 X42.9898 Y44.0706
G01 Z-2.2000
G01 Z0
G00 Z2.0000
G00 X40.4498 Y44.0706
G01 Z-2.2000
G01 Z0
G00 Z2.0000
G00 X40.4498 Y44.0706
G01 Z-2.2000
G01 Z0
G00 Z2.0000
G00 X44.3233 Y36.6360
G01 Z-2.2000
G01 Z0
G00 Z2.0000
G00 X44.3233 Y36.6360
G01 Z-2.2000
G01 Z0
G00 Z2.0000
G00 X40.2593 Y36.7909
G01 Z-2.2000
G01 Z0
G00 Z2.0000
G00 X40.2593 Y34.2509
G01 Z-2.2000
G01 Z0
G00 Z2.0000
G00 X36.5738 Y34.2509
G01 Z-2.2000
G01 Z0
G00 Z2.0000
G00 X36.5738 Y36.7909
G01 Z-2.2000
G01 Z0
G00 Z2.0000
G00 X37.9098 Y44.0706
G01 Z-2.2000
G01 Z0
G00 Z2.0000
G00 X37.9098 Y44.0706
G01 Z-2.2000
G01 Z0
G00 Z2.0000
G00 X35.3698 Y44.0706
G01 Z-2.2000
G01 Z0
G00 Z2.0000
G00 X35.3698 Y44.0706
G01 Z-2.2000
G01 Z0
G00 Z2.0000
G00 X32.8298 Y44.0706
G01 Z-2.2000
G01 Z0
G00 Z2.0000
G00 X32.8298 Y44.0706
G01 Z-2.2000
G01 Z0
G00 Z2.0000
G00 X30.2898 Y44.0706
G01 Z-2.2000
G01 Z0
G00 Z2.0000
G00 X30.2898 Y44.0706
G01 Z-2.2000
G01 Z0
G00 Z2.0000
G00 X27.7498 Y44.0706
G01 Z-2.2000
G01 Z0
G00 Z2.0000
G00 X27.7498 Y44.0706
G01 Z-2.2000
G01 Z0
G00 Z2.0000
G00 X25.2098 Y44.0706
G01 Z-2.2000
G01 Z0
G00 Z2.0000
G00 X25.2098 Y44.0706
G01 Z-2.2000
G01 Z0
G00 Z2.0000
G00 X22.6698 Y44.0706
G01 Z-2.2000
G01 Z0
G00 Z2.0000
G00 X22.6698 Y44.0706
G01 Z-2.2000
G01 Z0
G00 Z2.0000
G00 X20.1298 Y44.0706
G01 Z-2.2000
G01 Z0
G00 Z2.0000
G00 X20.1298 Y44.0706
G01 Z-2.2000
G01 Z0
G00 Z2.0000
G00 X20.1298 Y66.9306
G01 Z-2.2000
G01 Z0
G00 Z2.0000
G00 X20.1298 Y66.9306
G01 Z-2.2000
G01 Z0
G00 Z2.0000
G00 X22.6698 Y66.9306
G01 Z-2.2000
G01 Z0
G00 Z2.0000
G00 X22.6698 Y66.9306
G01 Z-2.2000
G01 Z0
G00 Z2.0000
G00 X25.2098 Y66.9306
G01 Z-2.2000
G01 Z0
G00 Z2.0000
G00 X25.2098 Y66.9306
G01 Z-2.2000
G01 Z0
G00 Z2.0000
G00 X27.7498 Y66.9306
G01 Z-2.2000
G01 Z0
G00 Z2.0000
G00 X27.7498 Y66.9306
G01 Z-2.2000
G01 Z0
G00 Z2.0000
G00 X30.2898 Y66.9306
G01 Z-2.2000
G01 Z0
G00 Z2.0000
G00 X30.2898 Y66.9306
G01 Z-2.2000
G01 Z0
G00 Z2.0000
G00 X32.8298 Y66.9306
G01 Z-2.2000
G01 Z0
G00 Z2.0000
G00 X32.8298 Y66.9306
G01 Z-2.2000
G01 Z0
G00 Z2.0000
G00 X35.3698 Y66.9306
G01 Z-2.2000
G01 Z0
G00 Z2.0000
G00 X35.3698 Y66.9306
G01 Z-2.2000
G01 Z0
G00 Z2.0000
G00 X37.9098 Y66.9306
G01 Z-2.2000
G01 Z0
G00 Z2.0000
G00 X37.9098 Y66.9306
G01 Z-2.2000
G01 Z0
G00 Z2.0000
G00 X40.4498 Y66.9306
G01 Z-2.2000
G01 Z0
G00 Z2.0000
G00 X40.4498 Y66.9306
G01 Z-2.2000
G01 Z0
G00 Z2.0000
G00 X42.9898 Y66.9306
G01 Z-2.2000
G01 Z0
G00 Z2.0000
G00 X42.9898 Y66.9306
G01 Z-2.2000
G01 Z0
G00 Z2.0000
G00 X45.5298 Y66.9306
G01 Z-2.2000
G01 Z0
G00 Z2.0000
G00 X45.5298 Y66.9306
G01 Z-2.2000
G01 Z0
G00 Z2.0000
G00 X48.0698 Y66.9306
G01 Z-2.2000
G01 Z0
G00 Z2.0000
G00 X48.0698 Y66.9306
G01 Z-2.2000
G01 Z0
G00 Z2.0000
G00 X50.6098 Y66.9306
G01 Z-2.2000
G01 Z0
G00 Z2.0000
G00 X50.6098 Y66.9306
G01 Z-2.2000
G01 Z0
G00 Z2.0000
G00 X53.1498 Y66.9306
G01 Z-2.2000
G01 Z0
G00 Z2.0000
G00 X53.1498 Y66.9306
G01 Z-2.2000
G01 Z0
G00 Z2.0000
G00 X55.6873 Y66.9331
G01 Z-2.2000
G01 Z0
G00 Z2.0000
G00 X55.6873 Y66.9331
G01 Z-2.2000
G01 Z0
G00 Z2.0000
G00 X58.2273 Y66.9331
G01 Z-2.2000
G01 Z0
G00 Z2.0000
G00 X58.2273 Y66.9331
G01 Z-2.2000
G01 Z0
G00 Z2.0000
G00 X60.7673 Y66.9331
G01 Z-2.2000
G01 Z0
G00 Z2.0000
G00 X60.7673 Y66.9331
G01 Z-2.2000
G01 Z0
G00 Z2.0000
G00 X55.1183 Y56.5750
G01 Z-2.2000
G01 Z0
G00 Z2.0000
G00 X55.1183 Y56.5750
G01 Z-2.2000
G01 Z0
G00 Z2.0000
G00 X58.2933 Y53.4000
G01 Z-2.2000
G01 Z0
G00 Z2.0000
G00 X58.2933 Y53.4000
G01 Z-2.2000
G01 Z0
G00 Z2.0000
G00 X64.6433 Y50.2250
G01 Z-2.2000
G01 Z0
G00 Z2.0000
G00 X64.6433 Y50.2250
G01 Z-2.2000
G01 Z0
G00 Z2.0000
G00 X65.2783 Y61.6550
G01 Z-2.2000
G01 Z0
G00 Z2.0000
G00 X65.2783 Y61.6550
G01 Z-2.2000
G01 Z0
G00 Z2.0000
G00 X69.4693 Y72.1960
G01 Z-2.2000
G01 Z0
G00 Z2.0000
G00 X69.4693 Y72.1960
G01 Z-2.2000
G01 Z0
G00 Z2.0000
G00 X74.0413 Y82.6100
G01 Z-2.2000
G01 Z0
G00 Z2.0000
G00 X74.0413 Y82.6100
G01 Z-2.2000
G01 Z0
G00 Z2.0000
G00 X73.3225 Y89.9989
G01 Z-2.2000
G01 Z0
G00 Z2.0000
G00 X66.8074 Y88.4012
G01 Z-2.2000
G01 Z0
G00 Z2.0000
G00 X61.7274 Y88.4012
G01 Z-2.2000
G01 Z0
G00 Z2.0000
G00 X52.2735 Y90.6948
G01 Z-2.2000
G01 Z0
G00 Z2.0000
G00 X52.2735 Y90.6948
G01 Z-2.2000
G01 Z0
G00 Z2.0000
G00 X52.2735 Y85.6936
G01 Z-2.2000
G01 Z0
G00 Z2.0000
G00 X52.2735 Y85.6936
G01 Z-2.2000
G01 Z0
G00 Z2.0000
G00 X31.6233 Y82.1604
G01 Z-2.2000
G01 Z0
G00 Z2.0000
G00 X31.6233 Y82.1604
G01 Z-2.2000
G01 Z0
G00 Z2.0000
G00 X31.6233 Y77.1592
G01 Z-2.2000
G01 Z0
G00 Z2.0000
G00 X31.6233 Y77.1592
G01 Z-2.2000
G01 Z0
G00 Z2.0000
G00 X21.5980 Y78.5003
G01 Z-2.2000
G01 Z0
G00 Z2.0000
G00 X19.0580 Y78.5003
G01 Z-2.2000
G01 Z0
G00 Z2.0000
G00 X21.5980 Y87.4995
G01 Z-2.2000
G01 Z0
G00 Z2.0000
G00 X19.0580 Y87.4995
G01 Z-2.2000
G01 Z0
G00 Z2.0000
G00 X12.5987 Y87.4995
G01 Z-2.2000
G01 Z0
G00 Z2.0000
G00 X10.0587 Y87.4995
G01 Z-2.2000
G01 Z0
G00 Z2.0000
G00 X3.3227 Y89.9989
G01 Z-2.2000
G01 Z0
G00 Z2.0000
G00 X10.0587 Y78.5003
G01 Z-2.2000
G01 Z0
G00 Z2.0000
G00 X12.5987 Y78.5003
G01 Z-2.2000
G01 Z0
G00 Z2.0000
G00 X17.5898 Y66.9306
G01 Z-2.2000
G01 Z0
G00 Z2.0000
G00 X17.5898 Y66.9306
G01 Z-2.2000
G01 Z0
G00 Z2.0000
G00 X15.0498 Y66.9306
G01 Z-2.2000
G01 Z0
G00 Z2.0000
G00 X15.0498 Y66.9306
G01 Z-2.2000
G01 Z0
G00 Z2.0000
G00 X12.5098 Y66.9306
G01 Z-2.2000
G01 Z0
G00 Z2.0000
G00 X12.5098 Y66.9306
G01 Z-2.2000
G01 Z0
G00 Z2.0000
G00 X9.9698 Y66.9306
G01 Z-2.2000
G01 Z0
G00 Z2.0000
G00 X9.9698 Y66.9306
G01 Z-2.2000
G01 Z0
G00 Z2.0000
G00 X7.4298 Y66.9306
G01 Z-2.2000
G01 Z0
G00 Z2.0000
G00 X7.4298 Y66.9306
G01 Z-2.2000
G01 Z0
G00 Z2.0000
G00 X12.5098 Y44.0706
G01 Z-2.2000
G01 Z0
G00 Z2.0000
G00 X12.5098 Y44.0706
G01 Z-2.2000
G01 Z0
G00 Z2.0000
G00 X15.0498 Y44.0706
G01 Z-2.2000
G01 Z0
G00 Z2.0000
G00 X15.0498 Y44.0706
G01 Z-2.2000
G01 Z0
G00 Z2.0000
G00 X17.5898 Y44.0706
G01 Z-2.2000
G01 Z0
G00 Z2.0000
G00 X17.5898 Y44.0706
G01 Z-2.2000
G01 Z0
G00 Z2.0000
G00 X18.4153 Y36.7655
G01 Z-2.2000
G01 Z0
G00 Z2.0000
G00 X18.4153 Y34.2255
G01 Z-2.2000
G01 Z0
G00 Z2.0000
G00 X14.6053 Y34.2255
G01 Z-2.2000
G01 Z0
G00 Z2.0000
G00 X14.6053 Y36.7655
G01 Z-2.2000
G01 Z0
G00 Z2.0000
G00 X11.0493 Y36.6360
G01 Z-2.2000
G01 Z0
G00 Z2.0000
G00 X11.0493 Y36.6360
G01 Z-2.2000
G01 Z0
G00 Z2.0000
G00 X9.9698 Y44.0706
G01 Z-2.2000
G01 Z0
G00 Z2.0000
G00 X9.9698 Y44.0706
G01 Z-2.2000
G01 Z0
G00 Z2.0000
G00 X7.4298 Y44.0706
G01 Z-2.2000
G01 Z0
G00 Z2.0000
G00 X7.4298 Y44.0706
G01 Z-2.2000
G01 Z0
G00 Z2.0000
M05
G00 Z5.00


