(G-CODE GENERATED BY FLATCAM v8.994 - www.flatcam.org - Version Date: 2020/11/7)

(Name: laser_com_v1-F_Cu.gbr_ncc_cnc)
(Type: G-code from Geometry)
(Units: MM)

(Created on Monday, 07 October 2024 at 21:59)

(This preprocessor is the default preprocessor used by FlatCAM.)
(It is made to work with MACH3 compatible motion controllers.)

(TOOL DIAMETER: 0.1268 mm)
(Feedrate_XY: 400.0 mm/min)
(Feedrate_Z: 400.0 mm/min)
(Feedrate rapids 1500.0 mm/min)

(Z_Cut: -0.05 mm)
(Z_Move: 2.0 mm)
(Z Start: None mm)
(Z End: 15.0 mm)
(X,Y End: None mm)
(Steps per circle: 64)
(Preprocessor Geometry: default)

(X range:    2.0634 ...   58.5786  mm)
(Y range:    2.2582 ...   60.3955  mm)

(Spindle Speed: 24000.0 RPM)
G21
G90
G94

G01 F400.00

M5
G00 Z15.0000
G00 X0.0000 Y0.0000
T1
M6    
(MSG, Change to Tool Dia = 0.1268)
M0
G00 Z15.0000

M03 S24000.0
G01 F400.00
G00 X18.4658 Y11.3239
G01 F400.00
G01 Z-0.0500
G01 F400.00
G01 X18.4694 Y11.3056
G01 X18.4923 Y11.2150
G01 X18.4960 Y11.2036
G01 X18.5242 Y11.1246
G01 X18.5277 Y11.1156
G01 X18.5323 Y11.1051
G01 X18.5688 Y11.0280
G01 X18.5777 Y11.0114
G01 X18.6211 Y10.9390
G01 X18.6270 Y10.9297
G01 X18.6823 Y10.8549
G01 X18.6894 Y10.8458
G01 X18.7584 Y10.7697
G01 X18.7667 Y10.7617
G01 X18.8351 Y10.7000
G01 X18.8449 Y10.6923
G01 X18.9197 Y10.6370
G01 X18.9290 Y10.6311
G01 X19.0014 Y10.5877
G01 X19.0180 Y10.5788
G01 X19.0951 Y10.5423
G01 X19.1142 Y10.5344
G01 X19.1936 Y10.5060
G01 X19.2041 Y10.5026
G01 X19.2943 Y10.4797
G01 X19.3055 Y10.4772
G01 X19.4071 Y10.4622
G01 X19.4181 Y10.4613
G01 X19.5033 Y10.4571
G01 X19.5226 Y10.4572
G01 X19.6069 Y10.4613
G01 X19.6179 Y10.4622
G01 X19.7113 Y10.4758
G01 X19.7303 Y10.4796
G01 X19.8209 Y10.5026
G01 X19.8314 Y10.5060
G01 X19.9108 Y10.5344
G01 X19.9295 Y10.5421
G01 X20.0058 Y10.5782
G01 X20.0156 Y10.5832
G01 X20.0968 Y10.6316
G01 X20.1128 Y10.6423
G01 X20.1805 Y10.6926
G01 X20.1892 Y10.6994
G01 X20.2593 Y10.7627
G01 X20.2729 Y10.7764
G01 X20.3296 Y10.8389
G01 X20.3368 Y10.8472
G01 X20.3935 Y10.9234
G01 X20.3995 Y10.9321
G01 X20.4056 Y10.9418
G01 X22.0515 Y10.9418
G01 X22.0649 Y10.9297
G01 X22.0731 Y10.9229
G01 X22.0919 Y10.9088
G01 X22.1023 Y10.9017
G01 X22.1310 Y10.8847
G01 X22.1529 Y10.8741
G01 X22.1635 Y10.8694
G01 X22.1955 Y10.8580
G01 X22.2061 Y10.8550
G01 X22.2294 Y10.8493
G01 X22.2411 Y10.8472
G01 X22.2648 Y10.8439
G01 X22.2963 Y10.8420
G01 X23.9587 Y10.8420
G01 X23.9902 Y10.8439
G01 X24.0139 Y10.8472
G01 X24.0256 Y10.8493
G01 X24.0488 Y10.8550
G01 X24.0591 Y10.8578
G01 X24.0915 Y10.8694
G01 X24.1021 Y10.8741
G01 X24.1240 Y10.8847
G01 X24.1527 Y10.9017
G01 X24.1627 Y10.9085
G01 X24.1817 Y10.9228
G01 X24.1899 Y10.9296
G01 X24.2035 Y10.9418
G01 X24.5619 Y10.9419
G01 X24.5891 Y10.9431
G01 X24.6016 Y10.9442
G01 X24.6324 Y10.9487
G01 X24.6476 Y10.9518
G01 X24.6791 Y10.9600
G01 X24.7084 Y10.9703
G01 X24.7245 Y10.9770
G01 X24.7543 Y10.9914
G01 X24.7824 Y11.0080
G01 X24.7959 Y11.0172
G01 X24.8221 Y11.0369
G01 X24.8463 Y11.0586
G01 X25.2689 Y11.4811
G01 X25.2917 Y11.5059
G01 X25.3017 Y11.5182
G01 X25.3196 Y11.5425
G01 X25.3260 Y11.5526
G01 X25.3407 Y11.5774
G01 X25.3461 Y11.5881
G01 X25.3587 Y11.6151
G01 X25.3694 Y11.6443
G01 X25.3730 Y11.6552
G01 X25.3812 Y11.6869
G01 X25.3845 Y11.7043
G01 X25.3888 Y11.7361
G01 X25.3907 Y11.7736
G01 X25.3907 Y13.8981
G01 X25.4038 Y13.8988
G01 X25.4152 Y13.9000
G01 X25.4463 Y13.9046
G01 X25.4603 Y13.9074
G01 X25.4893 Y13.9146
G01 X25.5009 Y13.9180
G01 X25.5325 Y13.9292
G01 X25.5464 Y13.9348
G01 X25.5738 Y13.9478
G01 X25.5836 Y13.9528
G01 X25.6122 Y13.9697
G01 X25.6219 Y13.9759
G01 X25.6571 Y14.0020
G01 X25.6655 Y14.0092
G01 X25.6886 Y14.0303
G01 X25.6981 Y14.0399
G01 X25.7202 Y14.0645
G01 X25.7278 Y14.0740
G01 X25.7438 Y14.0956
G01 X25.7553 Y14.1128
G01 X25.7701 Y14.1376
G01 X25.7772 Y14.1512
G01 X25.7891 Y14.1764
G01 X25.7933 Y14.1861
G01 X25.8047 Y14.2173
G01 X25.8083 Y14.2283
G01 X25.8189 Y14.2708
G01 X25.8209 Y14.2816
G01 X25.8255 Y14.3135
G01 X25.8266 Y14.3270
G01 X25.8281 Y14.3625
G01 X25.8280 Y15.2659
G01 X25.8259 Y15.3072
G01 X25.8209 Y15.3434
G01 X25.8172 Y15.3618
G01 X25.8077 Y15.3985
G01 X25.7933 Y15.4389
G01 X25.7778 Y15.4725
G01 X25.7696 Y15.4882
G01 X25.7491 Y15.5219
G01 X25.7236 Y15.5564
G01 X25.6987 Y15.5844
G01 X25.6851 Y15.5981
G01 X25.6633 Y15.6177
G01 X25.6545 Y15.6251
G01 X25.6219 Y15.6491
G01 X25.5896 Y15.6688
G01 X25.5729 Y15.6776
G01 X25.5472 Y15.6898
G01 X25.5366 Y15.6942
G01 X25.5073 Y15.7049
G01 X25.4967 Y15.7083
G01 X25.4576 Y15.7182
G01 X25.4447 Y15.7206
G01 X25.4152 Y15.7250
G01 X25.4038 Y15.7262
G01 X25.3907 Y15.7269
G01 X25.3907 Y16.3412
G01 X25.4015 Y16.3430
G01 X25.4123 Y16.3454
G01 X25.4408 Y16.3525
G01 X25.4545 Y16.3567
G01 X25.4915 Y16.3702
G01 X25.5303 Y16.3885
G01 X25.5408 Y16.3944
G01 X25.5696 Y16.4119
G01 X25.5999 Y16.4339
G01 X25.6155 Y16.4467
G01 X25.6366 Y16.4658
G01 X25.6467 Y16.4759
G01 X25.6730 Y16.5054
G01 X25.6991 Y16.5406
G01 X25.7053 Y16.5503
G01 X25.7222 Y16.5789
G01 X25.7385 Y16.6126
G01 X25.7463 Y16.6313
G01 X25.7558 Y16.6580
G01 X25.7600 Y16.6717
G01 X25.7693 Y16.7101
G01 X25.7756 Y16.7525
G01 X25.7766 Y16.7649
G01 X25.7781 Y16.8000
G01 X25.7781 Y17.7500
G01 X25.7778 Y17.7606
G01 X25.7759 Y17.7947
G01 X25.7745 Y17.8061
G01 X25.7695 Y17.8390
G01 X25.7671 Y17.8498
G01 X25.7604 Y17.8768
G01 X25.7561 Y17.8911
G01 X25.7464 Y17.9183
G01 X25.7389 Y17.9366
G01 X25.7270 Y17.9617
G01 X25.7222 Y17.9711
G01 X25.7053 Y17.9997
G01 X25.6991 Y18.0094
G01 X25.6730 Y18.0446
G01 X25.6460 Y18.0747
G01 X25.6354 Y18.0852
G01 X25.6105 Y18.1077
G01 X25.6010 Y18.1153
G01 X25.5798 Y18.1310
G01 X25.5719 Y18.1366
G01 X25.5622 Y18.1428
G01 X25.5374 Y18.1576
G01 X25.5242 Y18.1645
G01 X25.4991 Y18.1764
G01 X25.4889 Y18.1808
G01 X25.4577 Y18.1922
G01 X25.4467 Y18.1958
G01 X25.4042 Y18.2064
G01 X25.3934 Y18.2084
G01 X25.3625 Y18.2128
G01 X25.3480 Y18.2141
G01 X25.3130 Y18.2156
G01 X24.6370 Y18.2156
G01 X24.5936 Y18.2135
G01 X24.5828 Y18.2122
G01 X24.5553 Y18.2081
G01 X24.5364 Y18.2043
G01 X24.5083 Y18.1972
G01 X24.4941 Y18.1928
G01 X24.4679 Y18.1835
G01 X24.4576 Y18.1794
G01 X24.4197 Y18.1615
G01 X24.4100 Y18.1561
G01 X24.3862 Y18.1418
G01 X24.3706 Y18.1313
G01 X24.3407 Y18.1087
G01 X24.3096 Y18.0805
G01 X24.3019 Y18.0726
G01 X24.2833 Y18.0520
G01 X24.2711 Y18.0370
G01 X24.2494 Y18.0071
G01 X24.2274 Y17.9703
G01 X24.2102 Y17.9347
G01 X24.2036 Y17.9183
G01 X24.1915 Y17.8834
G01 X24.1811 Y17.8417
G01 X24.1791 Y17.8304
G01 X24.1743 Y17.7966
G01 X24.1734 Y17.7851
G01 X24.1719 Y17.7514
G01 X24.1719 Y16.7986
G01 X24.1736 Y16.7622
G01 X24.1753 Y16.7453
G01 X24.1807 Y16.7101
G01 X24.1892 Y16.6751
G01 X24.1951 Y16.6552
G01 X24.2048 Y16.6285
G01 X24.2102 Y16.6153
G01 X24.2274 Y16.5797
G01 X24.2480 Y16.5450
G01 X24.2545 Y16.5355
G01 X24.2714 Y16.5126
G01 X24.2823 Y16.4992
G01 X24.3076 Y16.4715
G01 X24.3341 Y16.4470
G01 X24.3501 Y16.4339
G01 X24.3730 Y16.4170
G01 X24.3841 Y16.4095
G01 X24.4172 Y16.3899
G01 X24.4497 Y16.3742
G01 X24.4660 Y16.3673
G01 X24.5033 Y16.3542
G01 X24.5397 Y16.3449
G01 X24.5590 Y16.3413
G01 X24.5593 Y15.7163
G01 X24.5342 Y15.7100
G01 X24.5241 Y15.7070
G01 X24.4938 Y15.6963
G01 X24.4835 Y15.6923
G01 X24.4439 Y15.6735
G01 X24.4099 Y15.6535
G01 X24.3980 Y15.6455
G01 X24.3755 Y15.6289
G01 X24.3602 Y15.6164
G01 X24.3396 Y15.5977
G01 X24.3320 Y15.5904
G01 X24.3095 Y15.5659
G01 X24.3020 Y15.5571
G01 X24.2764 Y15.5227
G01 X24.2705 Y15.5134
G01 X24.2562 Y15.4896
G01 X24.2491 Y15.4764
G01 X24.2367 Y15.4503
G01 X24.2290 Y15.4321
G01 X24.2197 Y15.4059
G01 X24.2165 Y15.3959
G01 X24.2082 Y15.3636
G01 X24.2057 Y15.3524
G01 X24.1994 Y15.3100
G01 X24.1985 Y15.2990
G01 X24.1971 Y15.2712
G01 X24.1970 Y14.3591
G01 X24.1986 Y14.3238
G01 X24.2004 Y14.3069
G01 X24.2061 Y14.2708
G01 X24.2150 Y14.2342
G01 X24.2198 Y14.2186
G01 X24.2327 Y14.1835
G01 X24.2486 Y14.1494
G01 X24.2571 Y14.1338
G01 X24.2759 Y14.1031
G01 X24.2982 Y14.0728
G01 X24.3095 Y14.0591
G01 X24.3283 Y14.0384
G01 X24.3378 Y14.0290
G01 X24.3664 Y14.0032
G01 X24.3956 Y13.9812
G01 X24.4099 Y13.9715
G01 X24.4414 Y13.9528
G01 X24.4508 Y13.9480
G01 X24.4759 Y13.9361
G01 X24.4910 Y13.9298
G01 X24.5265 Y13.9173
G01 X24.5593 Y13.9087
G01 X24.5593 Y11.9472
G01 X24.3853 Y11.7732
G01 X24.2035 Y11.7732
G01 X24.1899 Y11.7854
G01 X24.1817 Y11.7922
G01 X24.1631 Y11.8062
G01 X24.1540 Y11.8125
G01 X24.1336 Y11.8249
G01 X24.1240 Y11.8303
G01 X24.0933 Y11.8449
G01 X24.0825 Y11.8490
G01 X24.0595 Y11.8570
G01 X24.0272 Y11.8653
G01 X24.0152 Y11.8676
G01 X23.9917 Y11.8709
G01 X23.9812 Y11.8719
G01 X23.9631 Y11.8728
G01 X23.9525 Y11.8731
G01 X22.3025 Y11.8731
G01 X22.2676 Y11.8714
G01 X22.2562 Y11.8700
G01 X22.2321 Y11.8662
G01 X22.2209 Y11.8637
G01 X22.1973 Y11.8576
G01 X22.1658 Y11.8465
G01 X22.1542 Y11.8415
G01 X22.1314 Y11.8306
G01 X22.1221 Y11.8254
G01 X22.1023 Y11.8133
G01 X22.0923 Y11.8065
G01 X22.0733 Y11.7922
G01 X22.0651 Y11.7854
G01 X22.0515 Y11.7732
G01 X20.5471 Y11.7732
G01 X20.5347 Y11.8230
G01 X20.5312 Y11.8351
G01 X20.5006 Y11.9208
G01 X20.4956 Y11.9334
G01 X20.4527 Y12.0240
G01 X20.4470 Y12.0340
G01 X20.4019 Y12.1093
G01 X20.3932 Y12.1220
G01 X20.3424 Y12.1905
G01 X20.3293 Y12.2065
G01 X20.2729 Y12.2686
G01 X20.2646 Y12.2773
G01 X20.1961 Y12.3396
G01 X20.1851 Y12.3489
G01 X20.1131 Y12.4024
G01 X20.1037 Y12.4090
G01 X20.0156 Y12.4618
G01 X20.0054 Y12.4670
G01 X19.9211 Y12.5066
G01 X19.9108 Y12.5106
G01 X19.8313 Y12.5390
G01 X19.8134 Y12.5446
G01 X19.7307 Y12.5653
G01 X19.7195 Y12.5678
G01 X19.7100 Y12.5694
G01 X19.6270 Y12.5817
G01 X19.6151 Y12.5831
G01 X19.5226 Y12.5878
G01 X19.5063 Y12.5880
G01 X19.4186 Y12.5837
G01 X19.4071 Y12.5828
G01 X19.3050 Y12.5677
G01 X19.2943 Y12.5653
G01 X19.2041 Y12.5424
G01 X19.1931 Y12.5389
G01 X19.1056 Y12.5073
G01 X19.0951 Y12.5027
G01 X19.0110 Y12.4627
G01 X19.0010 Y12.4570
G01 X18.9213 Y12.4090
G01 X18.9119 Y12.4024
G01 X18.8372 Y12.3468
G01 X18.8289 Y12.3396
G01 X18.7664 Y12.2829
G01 X18.7530 Y12.2697
G01 X18.6957 Y12.2065
G01 X18.6894 Y12.1992
G01 X18.6823 Y12.1901
G01 X18.6323 Y12.1228
G01 X18.6255 Y12.1129
G01 X18.5773 Y12.0328
G01 X18.5682 Y12.0158
G01 X18.5321 Y11.9395
G01 X18.5277 Y11.9294
G01 X18.4961 Y11.8419
G01 X18.4926 Y11.8309
G01 X18.4697 Y11.7407
G01 X18.4672 Y11.7295
G01 X18.4534 Y11.6374
G01 X18.4518 Y11.6235
G01 X18.4471 Y11.5317
G01 X18.4472 Y11.5119
G01 X18.4513 Y11.4281
G01 X18.4522 Y11.4171
G01 X18.4658 Y11.3239
G01 X18.5409 Y11.3357
G01 X18.5435 Y11.3228
G01 X18.5659 Y11.2344
G01 X18.5959 Y11.1502
G01 X18.6011 Y11.1376
G01 X18.6403 Y11.0552
G01 X18.6866 Y10.9778
G01 X18.6937 Y10.9672
G01 X18.7434 Y10.9002
G01 X18.7515 Y10.8903
G01 X18.8135 Y10.8222
G01 X18.8855 Y10.7570
G01 X18.9636 Y10.6993
G01 X19.0469 Y10.6494
G01 X19.1347 Y10.6080
G01 X19.2262 Y10.5754
G01 X19.3204 Y10.5519
G01 X19.4087 Y10.5386
G01 X19.4180 Y10.5376
G01 X19.5116 Y10.5330
G01 X19.6027 Y10.5373
G01 X19.6163 Y10.5386
G01 X19.7046 Y10.5519
G01 X19.7931 Y10.5738
G01 X19.8062 Y10.5778
G01 X19.8920 Y10.6087
G01 X19.9767 Y10.6487
G01 X19.9849 Y10.6532
G01 X20.0564 Y10.6961
G01 X20.0678 Y10.7037
G01 X20.1409 Y10.7582
G01 X20.2104 Y10.8211
G01 X20.2169 Y10.8278
G01 X20.2729 Y10.8896
G01 X20.2801 Y10.8982
G01 X20.3338 Y10.9707
G01 X20.3389 Y10.9786
G01 X20.3625 Y11.0179
G01 X22.0839 Y11.0179
G01 X22.0996 Y11.0011
G01 X22.1207 Y10.9822
G01 X22.1425 Y10.9663
G01 X22.1609 Y10.9551
G01 X22.1699 Y10.9502
G01 X22.1926 Y10.9397
G01 X22.2128 Y10.9323
G01 X22.2209 Y10.9298
G01 X22.2485 Y10.9231
G01 X22.2698 Y10.9199
G01 X22.2810 Y10.9189
G01 X22.3025 Y10.9180
G01 X23.9550 Y10.9180
G01 X23.9818 Y10.9195
G01 X24.0032 Y10.9226
G01 X24.0114 Y10.9241
G01 X24.0387 Y10.9312
G01 X24.0592 Y10.9385
G01 X24.0687 Y10.9424
G01 X24.0911 Y10.9534
G01 X24.1097 Y10.9644
G01 X24.1189 Y10.9707
G01 X24.1327 Y10.9810
G01 X24.1413 Y10.9882
G01 X24.1565 Y11.0022
G01 X24.1711 Y11.0179
G01 X24.5600 Y11.0179
G01 X24.5917 Y11.0197
G01 X24.6175 Y11.0233
G01 X24.6281 Y11.0254
G01 X24.6552 Y11.0323
G01 X24.6819 Y11.0416
G01 X24.6929 Y11.0461
G01 X24.7184 Y11.0585
G01 X24.7425 Y11.0728
G01 X24.7518 Y11.0791
G01 X24.7737 Y11.0957
G01 X24.7945 Y11.1144
G01 X25.2151 Y11.5349
G01 X25.2330 Y11.5544
G01 X25.2402 Y11.5630
G01 X25.2559 Y11.5843
G01 X25.2610 Y11.5921
G01 X25.2740 Y11.6141
G01 X25.2884 Y11.6442
G01 X25.3002 Y11.6773
G01 X25.3079 Y11.7078
G01 X25.3121 Y11.7349
G01 X25.3133 Y11.7461
G01 X25.3146 Y11.7741
G01 X25.3146 Y13.9730
G01 X25.3650 Y13.9730
G01 X25.4016 Y13.9750
G01 X25.4376 Y13.9803
G01 X25.4747 Y13.9895
G01 X25.5107 Y14.0023
G01 X25.5453 Y14.0186
G01 X25.5781 Y14.0381
G01 X25.6089 Y14.0608
G01 X25.6372 Y14.0864
G01 X25.6630 Y14.1147
G01 X25.6869 Y14.1469
G01 X25.7064 Y14.1797
G01 X25.7227 Y14.2143
G01 X25.7355 Y14.2503
G01 X25.7447 Y14.2874
G01 X25.7493 Y14.3175
G01 X25.7503 Y14.3268
G01 X25.7520 Y14.3625
G01 X25.7520 Y15.2650
G01 X25.7502 Y15.2997
G01 X25.7455 Y15.3327
G01 X25.7430 Y15.3452
G01 X25.7345 Y15.3779
G01 X25.7220 Y15.4124
G01 X25.7064 Y15.4453
G01 X25.6869 Y15.4781
G01 X25.6678 Y15.5042
G01 X25.6591 Y15.5148
G01 X25.6409 Y15.5348
G01 X25.6336 Y15.5420
G01 X25.6089 Y15.5642
G01 X25.5781 Y15.5869
G01 X25.5453 Y15.6064
G01 X25.5124 Y15.6220
G01 X25.4765 Y15.6349
G01 X25.4452 Y15.6430
G01 X25.4317 Y15.6457
G01 X25.4050 Y15.6496
G01 X25.3963 Y15.6505
G01 X25.3650 Y15.6520
G01 X25.3146 Y15.6520
G01 X25.3146 Y16.4105
G01 X25.3516 Y16.4125
G01 X25.3876 Y16.4178
G01 X25.4247 Y16.4270
G01 X25.4552 Y16.4377
G01 X25.4678 Y16.4429
G01 X25.4922 Y16.4545
G01 X25.5013 Y16.4594
G01 X25.5297 Y16.4767
G01 X25.5603 Y16.4995
G01 X25.5886 Y16.5253
G01 X25.6130 Y16.5522
G01 X25.6358 Y16.5828
G01 X25.6526 Y16.6104
G01 X25.6591 Y16.6225
G01 X25.6706 Y16.6470
G01 X25.6745 Y16.6565
G01 X25.6855 Y16.6878
G01 X25.6930 Y16.7173
G01 X25.6950 Y16.7265
G01 X25.7002 Y16.7628
G01 X25.7020 Y16.8000
G01 X25.7020 Y17.7500
G01 X25.7000 Y17.7891
G01 X25.6947 Y17.8251
G01 X25.6855 Y17.8622
G01 X25.6727 Y17.8982
G01 X25.6591 Y17.9275
G01 X25.6526 Y17.9396
G01 X25.6387 Y17.9627
G01 X25.6330 Y17.9712
G01 X25.6130 Y17.9978
G01 X25.5872 Y18.0261
G01 X25.5603 Y18.0505
G01 X25.5297 Y18.0733
G01 X25.4969 Y18.0930
G01 X25.4678 Y18.1071
G01 X25.4552 Y18.1123
G01 X25.4297 Y18.1214
G01 X25.4199 Y18.1243
G01 X25.3876 Y18.1322
G01 X25.3575 Y18.1368
G01 X25.3482 Y18.1378
G01 X25.3125 Y18.1395
G01 X24.6350 Y18.1395
G01 X24.6008 Y18.1377
G01 X24.5683 Y18.1332
G01 X24.5557 Y18.1307
G01 X24.5235 Y18.1224
G01 X24.4893 Y18.1102
G01 X24.4600 Y18.0966
G01 X24.4501 Y18.0914
G01 X24.4219 Y18.0744
G01 X24.3951 Y18.0547
G01 X24.3852 Y18.0466
G01 X24.3614 Y18.0247
G01 X24.3370 Y17.9978
G01 X24.3170 Y17.9712
G01 X24.3100 Y17.9606
G01 X24.2936 Y17.9328
G01 X24.2780 Y17.8999
G01 X24.2666 Y17.8687
G01 X24.2632 Y17.8574
G01 X24.2557 Y17.8269
G01 X24.2507 Y17.7950
G01 X24.2494 Y17.7823
G01 X24.2480 Y17.7500
G01 X24.2480 Y16.7991
G01 X24.2495 Y16.7667
G01 X24.2507 Y16.7550
G01 X24.2557 Y16.7231
G01 X24.2641 Y16.6893
G01 X24.2755 Y16.6565
G01 X24.2804 Y16.6447
G01 X24.2945 Y16.6156
G01 X24.3142 Y16.5828
G01 X24.3358 Y16.5536
G01 X24.3580 Y16.5289
G01 X24.3652 Y16.5216
G01 X24.3852 Y16.5034
G01 X24.3958 Y16.4947
G01 X24.4219 Y16.4756
G01 X24.4547 Y16.4561
G01 X24.4876 Y16.4405
G01 X24.5179 Y16.4294
G01 X24.5310 Y16.4255
G01 X24.5573 Y16.4189
G01 X24.5673 Y16.4170
G01 X24.6003 Y16.4123
G01 X24.6354 Y16.4105
G01 X24.6354 Y15.6508
G01 X24.6185 Y15.6494
G01 X24.5908 Y15.6453
G01 X24.5807 Y15.6432
G01 X24.5471 Y15.6345
G01 X24.5175 Y15.6239
G01 X24.5080 Y15.6200
G01 X24.4781 Y15.6055
G01 X24.4519 Y15.5900
G01 X24.4441 Y15.5849
G01 X24.4147 Y15.5630
G01 X24.3914 Y15.5420
G01 X24.3841 Y15.5348
G01 X24.3608 Y15.5089
G01 X24.3381 Y15.4781
G01 X24.3186 Y15.4453
G01 X24.3030 Y15.4124
G01 X24.2901 Y15.3765
G01 X24.2807 Y15.3394
G01 X24.2750 Y15.3016
G01 X24.2732 Y15.2693
G01 X24.2730 Y14.3600
G01 X24.2748 Y14.3258
G01 X24.2793 Y14.2933
G01 X24.2814 Y14.2823
G01 X24.2891 Y14.2518
G01 X24.3005 Y14.2190
G01 X24.3054 Y14.2072
G01 X24.3195 Y14.1781
G01 X24.3381 Y14.1469
G01 X24.3578 Y14.1201
G01 X24.3659 Y14.1102
G01 X24.3878 Y14.0864
G01 X24.4161 Y14.0608
G01 X24.4453 Y14.0392
G01 X24.4729 Y14.0224
G01 X24.4842 Y14.0163
G01 X24.5158 Y14.0017
G01 X24.5485 Y13.9901
G01 X24.5823 Y13.9814
G01 X24.5923 Y13.9795
G01 X24.6185 Y13.9756
G01 X24.6354 Y13.9742
G01 X24.6354 Y11.9157
G01 X24.4168 Y11.6971
G01 X24.1711 Y11.6971
G01 X24.1565 Y11.7128
G01 X24.1413 Y11.7268
G01 X24.1327 Y11.7340
G01 X24.1189 Y11.7443
G01 X24.1097 Y11.7506
G01 X24.0911 Y11.7616
G01 X24.0695 Y11.7722
G01 X24.0592 Y11.7765
G01 X24.0389 Y11.7838
G01 X24.0114 Y11.7909
G01 X23.9833 Y11.7953
G01 X23.9593 Y11.7968
G01 X22.3025 Y11.7970
G01 X22.2732 Y11.7955
G01 X22.2451 Y11.7912
G01 X22.2176 Y11.7842
G01 X22.1972 Y11.7771
G01 X22.1877 Y11.7732
G01 X22.1637 Y11.7615
G01 X22.1453 Y11.7506
G01 X22.1361 Y11.7443
G01 X22.1223 Y11.7340
G01 X22.1137 Y11.7268
G01 X22.0985 Y11.7128
G01 X22.0839 Y11.6971
G01 X20.4859 Y11.6971
G01 X20.4837 Y11.7113
G01 X20.4817 Y11.7213
G01 X20.4612 Y11.8031
G01 X20.4575 Y11.8154
G01 X20.4263 Y11.9020
G01 X20.3882 Y11.9828
G01 X20.3822 Y11.9941
G01 X20.3347 Y12.0730
G01 X20.2768 Y12.1509
G01 X20.2115 Y12.2228
G01 X20.1454 Y12.2829
G01 X20.1356 Y12.2910
G01 X20.0614 Y12.3457
G01 X19.9781 Y12.3956
G01 X19.8903 Y12.4370
G01 X19.8003 Y12.4692
G01 X19.7065 Y12.4928
G01 X19.6104 Y12.5071
G01 X19.5134 Y12.5120
G01 X19.4199 Y12.5076
G01 X19.4087 Y12.5064
G01 X19.3200 Y12.4931
G01 X19.2262 Y12.4696
G01 X19.1347 Y12.4370
G01 X19.0452 Y12.3947
G01 X18.9620 Y12.3447
G01 X18.8841 Y12.2868
G01 X18.8122 Y12.2215
G01 X18.7521 Y12.1554
G01 X18.7434 Y12.1448
G01 X18.6893 Y12.0714
G01 X18.6432 Y11.9949
G01 X18.6368 Y11.9828
G01 X18.6007 Y11.9066
G01 X18.5959 Y11.8948
G01 X18.5654 Y11.8088
G01 X18.5435 Y11.7222
G01 X18.5409 Y11.7088
G01 X18.5279 Y11.6204
G01 X18.5230 Y11.5234
G01 X18.5277 Y11.4264
G01 X18.5409 Y11.3357
G00 Z2.0000
G00 X18.6161 Y11.3474
G01 F400.00
G01 Z-0.0500
G01 F400.00
G01 X18.6173 Y11.3413
G01 X18.6376 Y11.2604
G01 X18.6394 Y11.2544
G01 X18.6686 Y11.1730
G01 X18.7056 Y11.0947
G01 X18.7085 Y11.0892
G01 X18.7530 Y11.0150
G01 X18.8064 Y10.9430
G01 X18.8666 Y10.8766
G01 X18.9330 Y10.8164
G01 X19.0050 Y10.7630
G01 X19.0792 Y10.7185
G01 X19.0847 Y10.7156
G01 X19.1601 Y10.6799
G01 X19.1659 Y10.6775
G01 X19.2474 Y10.6484
G01 X19.3343 Y10.6267
G01 X19.4230 Y10.6135
G01 X19.5109 Y10.6091
G01 X19.5989 Y10.6133
G01 X19.6051 Y10.6139
G01 X19.6907 Y10.6267
G01 X19.7776 Y10.6484
G01 X19.8591 Y10.6775
G01 X19.8649 Y10.6799
G01 X19.9431 Y10.7170
G01 X20.0173 Y10.7614
G01 X20.0225 Y10.7648
G01 X20.0920 Y10.8164
G01 X20.1561 Y10.8745
G01 X20.1605 Y10.8789
G01 X20.2186 Y10.9430
G01 X20.2702 Y11.0125
G01 X20.2736 Y11.0177
G01 X20.3191 Y11.0940
G01 X22.1219 Y11.0940
G01 X22.1259 Y11.0877
G01 X22.1366 Y11.0733
G01 X22.1516 Y11.0566
G01 X22.1671 Y11.0426
G01 X22.1866 Y11.0284
G01 X22.2019 Y11.0193
G01 X22.2180 Y11.0116
G01 X22.2391 Y11.0038
G01 X22.2609 Y10.9982
G01 X22.2847 Y10.9949
G01 X22.3025 Y10.9941
G01 X23.9541 Y10.9941
G01 X23.9765 Y10.9955
G01 X23.9941 Y10.9982
G01 X24.0114 Y11.0025
G01 X24.0342 Y11.0103
G01 X24.0545 Y11.0200
G01 X24.0711 Y11.0301
G01 X24.0854 Y11.0406
G01 X24.1023 Y11.0555
G01 X24.1184 Y11.0733
G01 X24.1291 Y11.0877
G01 X24.1331 Y11.0940
G01 X24.5575 Y11.0940
G01 X24.5849 Y11.0954
G01 X24.6091 Y11.0991
G01 X24.6340 Y11.1053
G01 X24.6583 Y11.1141
G01 X24.6789 Y11.1237
G01 X24.6844 Y11.1266
G01 X24.7064 Y11.1402
G01 X24.7247 Y11.1539
G01 X24.7427 Y11.1701
G01 X25.1613 Y11.5887
G01 X25.1767 Y11.6055
G01 X25.1806 Y11.6103
G01 X25.1941 Y11.6286
G01 X25.2059 Y11.6481
G01 X25.2088 Y11.6536
G01 X25.2184 Y11.6742
G01 X25.2262 Y11.6956
G01 X25.2280 Y11.7015
G01 X25.2337 Y11.7251
G01 X25.2372 Y11.7492
G01 X25.2385 Y11.7750
G01 X25.2385 Y14.0491
G01 X25.3641 Y14.0491
G01 X25.3932 Y14.0506
G01 X25.4221 Y14.0548
G01 X25.4535 Y14.0626
G01 X25.4824 Y14.0730
G01 X25.5102 Y14.0861
G01 X25.5353 Y14.1011
G01 X25.5613 Y14.1202
G01 X25.5841 Y14.1409
G01 X25.6048 Y14.1637
G01 X25.6213 Y14.1858
G01 X25.6247 Y14.1910
G01 X25.6403 Y14.2175
G01 X25.6520 Y14.2426
G01 X25.6614 Y14.2686
G01 X25.6632 Y14.2745
G01 X25.6699 Y14.3014
G01 X25.6742 Y14.3302
G01 X25.6759 Y14.3625
G01 X25.6759 Y15.2641
G01 X25.6744 Y15.2932
G01 X25.6704 Y15.3206
G01 X25.6692 Y15.3267
G01 X25.6614 Y15.3564
G01 X25.6520 Y15.3824
G01 X25.6389 Y15.4102
G01 X25.6231 Y15.4366
G01 X25.6048 Y15.4613
G01 X25.5841 Y15.4841
G01 X25.5613 Y15.5048
G01 X25.5366 Y15.5231
G01 X25.5102 Y15.5389
G01 X25.4824 Y15.5520
G01 X25.4535 Y15.5624
G01 X25.4236 Y15.5699
G01 X25.3963 Y15.5740
G01 X25.3901 Y15.5746
G01 X25.3625 Y15.5759
G01 X25.2385 Y15.5759
G01 X25.2385 Y16.4866
G01 X25.3156 Y16.4867
G01 X25.3432 Y16.4881
G01 X25.3752 Y16.4929
G01 X25.4035 Y16.5001
G01 X25.4324 Y16.5105
G01 X25.4602 Y16.5236
G01 X25.4840 Y16.5378
G01 X25.4892 Y16.5412
G01 X25.5137 Y16.5598
G01 X25.5341 Y16.5784
G01 X25.5527 Y16.5988
G01 X25.5567 Y16.6036
G01 X25.5731 Y16.6259
G01 X25.5874 Y16.6496
G01 X25.5903 Y16.6550
G01 X25.6020 Y16.6801
G01 X25.6124 Y16.7090
G01 X25.6199 Y16.7389
G01 X25.6242 Y16.7677
G01 X25.6259 Y16.8000
G01 X25.6259 Y17.7500
G01 X25.6245 Y17.7792
G01 X25.6199 Y17.8111
G01 X25.6132 Y17.8380
G01 X25.6114 Y17.8439
G01 X25.6008 Y17.8728
G01 X25.5889 Y17.8977
G01 X25.5731 Y17.9241
G01 X25.5548 Y17.9488
G01 X25.5352 Y17.9705
G01 X25.5113 Y17.9923
G01 X25.4892 Y18.0088
G01 X25.4629 Y18.0249
G01 X25.4575 Y18.0278
G01 X25.4324 Y18.0395
G01 X25.4035 Y18.0499
G01 X25.3736 Y18.0574
G01 X25.3432 Y18.0619
G01 X25.3125 Y18.0634
G01 X24.6375 Y18.0634
G01 X24.6053 Y18.0617
G01 X24.5764 Y18.0574
G01 X24.5495 Y18.0507
G01 X24.5436 Y18.0489
G01 X24.5147 Y18.0383
G01 X24.4898 Y18.0264
G01 X24.4634 Y18.0106
G01 X24.4387 Y17.9923
G01 X24.4181 Y17.9738
G01 X24.3973 Y17.9512
G01 X24.3933 Y17.9464
G01 X24.3769 Y17.9241
G01 X24.3611 Y17.8977
G01 X24.3480 Y17.8699
G01 X24.3386 Y17.8439
G01 X24.3368 Y17.8380
G01 X24.3298 Y17.8096
G01 X24.3256 Y17.7807
G01 X24.3241 Y17.7500
G01 X24.3241 Y16.8000
G01 X24.3254 Y16.7724
G01 X24.3260 Y16.7662
G01 X24.3301 Y16.7389
G01 X24.3372 Y16.7105
G01 X24.3480 Y16.6801
G01 X24.3611 Y16.6523
G01 X24.3769 Y16.6259
G01 X24.3952 Y16.6012
G01 X24.4159 Y16.5784
G01 X24.4387 Y16.5577
G01 X24.4634 Y16.5394
G01 X24.4871 Y16.5251
G01 X24.4925 Y16.5222
G01 X24.5205 Y16.5093
G01 X24.5465 Y16.5001
G01 X24.5779 Y16.4923
G01 X24.6068 Y16.4881
G01 X24.6344 Y16.4867
G01 X24.7115 Y16.4866
G01 X24.7115 Y15.5759
G01 X24.6609 Y15.5759
G01 X24.6320 Y15.5744
G01 X24.6014 Y15.5699
G01 X24.5730 Y15.5628
G01 X24.5426 Y15.5520
G01 X24.5148 Y15.5389
G01 X24.4884 Y15.5231
G01 X24.4649 Y15.5057
G01 X24.4409 Y15.4841
G01 X24.4202 Y15.4613
G01 X24.4019 Y15.4366
G01 X24.3861 Y15.4102
G01 X24.3730 Y15.3824
G01 X24.3626 Y15.3535
G01 X24.3551 Y15.3236
G01 X24.3510 Y15.2963
G01 X24.3504 Y15.2901
G01 X24.3491 Y15.2625
G01 X24.3491 Y14.3625
G01 X24.3506 Y14.3320
G01 X24.3546 Y14.3044
G01 X24.3558 Y14.2983
G01 X24.3626 Y14.2715
G01 X24.3730 Y14.2426
G01 X24.3861 Y14.2148
G01 X24.4019 Y14.1884
G01 X24.4183 Y14.1661
G01 X24.4223 Y14.1613
G01 X24.4431 Y14.1387
G01 X24.4637 Y14.1202
G01 X24.4897 Y14.1011
G01 X24.5148 Y14.0861
G01 X24.5426 Y14.0730
G01 X24.5715 Y14.0626
G01 X24.5998 Y14.0554
G01 X24.6287 Y14.0510
G01 X24.6349 Y14.0504
G01 X24.6609 Y14.0491
G01 X24.7115 Y14.0491
G01 X24.7115 Y11.8841
G01 X24.4484 Y11.6210
G01 X24.1331 Y11.6210
G01 X24.1291 Y11.6273
G01 X24.1184 Y11.6417
G01 X24.1023 Y11.6595
G01 X24.0854 Y11.6744
G01 X24.0711 Y11.6849
G01 X24.0545 Y11.6950
G01 X24.0342 Y11.7047
G01 X24.0114 Y11.7125
G01 X23.9941 Y11.7168
G01 X23.9765 Y11.7195
G01 X23.9556 Y11.7208
G01 X22.3025 Y11.7209
G01 X22.2785 Y11.7195
G01 X22.2609 Y11.7168
G01 X22.2436 Y11.7125
G01 X22.2208 Y11.7047
G01 X22.2005 Y11.6949
G01 X22.1839 Y11.6849
G01 X22.1696 Y11.6744
G01 X22.1527 Y11.6595
G01 X22.1366 Y11.6417
G01 X22.1259 Y11.6273
G01 X22.1219 Y11.6210
G01 X20.4202 Y11.6210
G01 X20.4083 Y11.7007
G01 X20.3866 Y11.7876
G01 X20.3564 Y11.8720
G01 X20.3180 Y11.9531
G01 X20.2720 Y12.0300
G01 X20.2186 Y12.1020
G01 X20.1584 Y12.1684
G01 X20.0943 Y12.2265
G01 X20.0895 Y12.2305
G01 X20.0200 Y12.2820
G01 X19.9458 Y12.3265
G01 X19.9403 Y12.3294
G01 X19.8649 Y12.3651
G01 X19.8591 Y12.3675
G01 X19.7775 Y12.3966
G01 X19.6907 Y12.4183
G01 X19.6020 Y12.4315
G01 X19.5156 Y12.4358
G01 X19.5094 Y12.4358
G01 X19.4261 Y12.4317
G01 X19.4199 Y12.4311
G01 X19.3342 Y12.4183
G01 X19.2504 Y12.3974
G01 X19.2444 Y12.3956
G01 X19.1630 Y12.3664
G01 X19.0847 Y12.3294
G01 X19.0792 Y12.3265
G01 X19.0050 Y12.2820
G01 X18.9330 Y12.2286
G01 X18.8666 Y12.1684
G01 X18.8064 Y12.1020
G01 X18.7530 Y12.0300
G01 X18.7070 Y11.9531
G01 X18.6686 Y11.8720
G01 X18.6394 Y11.7906
G01 X18.6376 Y11.7846
G01 X18.6173 Y11.7037
G01 X18.6161 Y11.6976
G01 X18.6035 Y11.6120
G01 X18.5992 Y11.5256
G01 X18.5992 Y11.5194
G01 X18.6035 Y11.4330
G01 X18.6161 Y11.3474
G00 Z2.0000
G00 X19.0473 Y12.7687
G01 F400.00
G01 Z-0.0500
G01 F400.00
G01 X19.1671 Y12.7687
G01 X19.1460 Y12.7632
G01 X19.1279 Y12.7577
G01 X19.0589 Y12.7333
G01 X19.0536 Y12.7508
G01 X19.0473 Y12.7687
G01 X18.9351 Y12.8448
G01 X20.0907 Y12.8448
G01 X20.0831 Y12.8323
G01 X20.0763 Y12.8202
G01 X20.0700 Y12.8080
G01 X20.0642 Y12.7954
G01 X20.0588 Y12.7825
G01 X20.0539 Y12.7695
G01 X20.0496 Y12.7567
G01 X20.0457 Y12.7434
G01 X20.0401 Y12.7195
G01 X20.0359 Y12.6941
G01 X20.0340 Y12.6759
G01 X20.0302 Y12.6235
G01 X19.9902 Y12.6424
G01 X19.9729 Y12.6498
G01 X19.8767 Y12.6843
G01 X19.8516 Y12.6918
G01 X19.7598 Y12.7147
G01 X19.7337 Y12.7197
G01 X19.6488 Y12.7323
G01 X19.6337 Y12.7342
G01 X19.6140 Y12.7357
G01 X19.5295 Y12.7398
G01 X19.5137 Y12.7402
G01 X19.4957 Y12.7398
G01 X19.4111 Y12.7357
G01 X19.3920 Y12.7342
G01 X19.3762 Y12.7323
G01 X19.2913 Y12.7197
G01 X19.2672 Y12.7152
G01 X19.1738 Y12.6919
G01 X19.1489 Y12.6845
G01 X19.0523 Y12.6499
G01 X19.0350 Y12.6425
G01 X18.9994 Y12.6257
G01 X18.9978 Y12.6487
G01 X18.9949 Y12.6715
G01 X18.9904 Y12.6942
G01 X18.9847 Y12.7160
G01 X18.9774 Y12.7382
G01 X18.9508 Y12.8095
G01 X18.9437 Y12.8267
G01 X18.9351 Y12.8448
G01 X19.8579 Y12.7687
G01 X19.9738 Y12.7687
G01 X19.9692 Y12.7510
G01 X19.9653 Y12.7335
G01 X19.8980 Y12.7574
G01 X19.8792 Y12.7632
G01 X19.8579 Y12.7687
G01 X20.2488 Y12.9209
G01 X20.2318 Y12.9045
G01 X20.2162 Y12.8869
G01 X20.1671 Y12.8216
G01 X20.1592 Y12.8106
G01 X20.1480 Y12.7926
G01 X20.1378 Y12.7734
G01 X20.1291 Y12.7535
G01 X20.1218 Y12.7325
G01 X20.1182 Y12.7199
G01 X20.1151 Y12.7063
G01 X20.1127 Y12.6936
G01 X20.1109 Y12.6807
G01 X20.1097 Y12.6684
G01 X20.1047 Y12.5980
G01 X20.1040 Y12.5821
G01 X20.1045 Y12.5589
G01 X20.1070 Y12.5353
G01 X20.1112 Y12.5125
G01 X20.1173 Y12.4898
G01 X20.0623 Y12.5228
G01 X20.0486 Y12.5304
G01 X19.9585 Y12.5733
G01 X19.9363 Y12.5823
G01 X19.8561 Y12.6110
G01 X19.8393 Y12.6163
G01 X19.7492 Y12.6391
G01 X19.7361 Y12.6420
G01 X19.7218 Y12.6445
G01 X19.6384 Y12.6569
G01 X19.6258 Y12.6585
G01 X19.6122 Y12.6596
G01 X19.5261 Y12.6638
G01 X19.5116 Y12.6641
G01 X19.4984 Y12.6638
G01 X19.4128 Y12.6596
G01 X19.3992 Y12.6585
G01 X19.3864 Y12.6569
G01 X19.3028 Y12.6445
G01 X19.2882 Y12.6419
G01 X19.2758 Y12.6391
G01 X19.1838 Y12.6158
G01 X19.1684 Y12.6108
G01 X19.0881 Y12.5821
G01 X19.0769 Y12.5778
G01 X19.0651 Y12.5726
G01 X18.9869 Y12.5357
G01 X18.9756 Y12.5300
G01 X18.9627 Y12.5228
G01 X18.9031 Y12.4871
G01 X18.9192 Y12.5618
G01 X18.9220 Y12.5817
G01 X18.9234 Y12.6020
G01 X18.9236 Y12.6141
G01 X18.9232 Y12.6267
G01 X18.9211 Y12.6502
G01 X18.9192 Y12.6627
G01 X18.9168 Y12.6749
G01 X18.9106 Y12.6983
G01 X18.9053 Y12.7141
G01 X18.8765 Y12.7906
G01 X18.8665 Y12.8120
G01 X18.8602 Y12.8234
G01 X18.8538 Y12.8341
G01 X18.8448 Y12.8474
G01 X18.8361 Y12.8590
G01 X18.8265 Y12.8704
G01 X18.8167 Y12.8811
G01 X18.8063 Y12.8912
G01 X18.7955 Y12.9008
G01 X18.7858 Y12.9086
G01 X18.7695 Y12.9209
G01 X20.2488 Y12.9209
G00 Z2.0000
G00 X21.9372 Y12.7881
G01 F400.00
G01 Z-0.0500
G01 F400.00
G01 X21.9369 Y12.7775
G01 X21.9369 Y12.4775
G01 X21.9380 Y12.4508
G01 X21.9399 Y12.4316
G01 X21.9428 Y12.4123
G01 X21.9453 Y12.4001
G01 X21.9530 Y12.3705
G01 X21.9631 Y12.3416
G01 X21.9685 Y12.3292
G01 X21.9799 Y12.3056
G01 X21.9929 Y12.2833
G01 X21.9996 Y12.2729
G01 X22.0142 Y12.2528
G01 X22.0221 Y12.2430
G01 X22.0265 Y12.2379
G01 X22.0268 Y12.2376
G01 X22.0367 Y12.2267
G01 X22.0390 Y12.2242
G01 X22.0503 Y12.2130
G01 X22.0670 Y12.1979
G01 X22.0789 Y12.1884
G01 X22.1002 Y12.1730
G01 X22.1222 Y12.1596
G01 X22.1357 Y12.1523
G01 X22.1595 Y12.1411
G01 X22.1707 Y12.1366
G01 X22.1931 Y12.1287
G01 X22.2033 Y12.1257
G01 X22.2227 Y12.1208
G01 X22.2402 Y12.1174
G01 X22.2685 Y12.1135
G01 X22.3011 Y12.1119
G01 X23.9530 Y12.1119
G01 X23.9865 Y12.1135
G01 X24.0148 Y12.1174
G01 X24.0341 Y12.1213
G01 X24.0539 Y12.1263
G01 X24.0673 Y12.1305
G01 X24.0857 Y12.1371
G01 X24.0955 Y12.1411
G01 X24.1171 Y12.1512
G01 X24.1286 Y12.1572
G01 X24.1564 Y12.1741
G01 X24.1830 Y12.1937
G01 X24.1914 Y12.2009
G01 X24.2085 Y12.2166
G01 X24.2160 Y12.2242
G01 X24.2282 Y12.2376
G01 X24.2413 Y12.2536
G01 X24.2529 Y12.2693
G01 X24.2603 Y12.2804
G01 X24.2758 Y12.3068
G01 X24.2899 Y12.3367
G01 X24.2939 Y12.3470
G01 X24.3018 Y12.3696
G01 X24.3095 Y12.3992
G01 X24.3122 Y12.4123
G01 X24.3151 Y12.4316
G01 X24.3171 Y12.4518
G01 X24.3181 Y12.4775
G01 X24.3181 Y12.7775
G01 X24.3171 Y12.8028
G01 X24.3153 Y12.8220
G01 X24.3123 Y12.8418
G01 X24.3101 Y12.8531
G01 X24.3027 Y12.8822
G01 X24.2934 Y12.9093
G01 X24.2874 Y12.9240
G01 X24.2765 Y12.9468
G01 X24.2704 Y12.9578
G01 X24.2575 Y12.9790
G01 X24.2504 Y12.9892
G01 X24.2345 Y13.0101
G01 X24.2173 Y13.0294
G01 X24.2079 Y13.0390
G01 X24.1910 Y13.0544
G01 X24.1810 Y13.0628
G01 X24.1607 Y13.0779
G01 X24.1479 Y13.0864
G01 X24.1286 Y13.0978
G01 X24.1154 Y13.1047
G01 X24.0933 Y13.1149
G01 X24.0687 Y13.1240
G01 X24.0489 Y13.1300
G01 X24.0299 Y13.1347
G01 X24.0168 Y13.1373
G01 X23.9865 Y13.1415
G01 X23.9544 Y13.1430
G01 X22.2991 Y13.1430
G01 X22.2729 Y13.1418
G01 X22.2566 Y13.1401
G01 X22.2303 Y13.1358
G01 X22.2033 Y13.1293
G01 X22.1881 Y13.1246
G01 X22.1635 Y13.1156
G01 X22.1387 Y13.1042
G01 X22.1246 Y13.0968
G01 X22.1002 Y13.0820
G01 X22.0789 Y13.0666
G01 X22.0673 Y13.0573
G01 X22.0485 Y13.0403
G01 X22.0377 Y13.0294
G01 X22.0189 Y13.0081
G01 X22.0026 Y12.9865
G01 X21.9931 Y12.9721
G01 X21.9797 Y12.9490
G01 X21.9683 Y12.9254
G01 X21.9621 Y12.9107
G01 X21.9530 Y12.8845
G01 X21.9458 Y12.8573
G01 X21.9427 Y12.8418
G01 X21.9388 Y12.8143
G01 X21.9372 Y12.7881
G01 X22.0132 Y12.7843
G01 X22.0130 Y12.4775
G01 X22.0141 Y12.4535
G01 X22.0151 Y12.4433
G01 X22.0184 Y12.4219
G01 X22.0248 Y12.3959
G01 X22.0341 Y12.3690
G01 X22.0368 Y12.3627
G01 X22.0378 Y12.3605
G01 X22.0441 Y12.3472
G01 X22.0443 Y12.3468
G01 X22.0494 Y12.3372
G01 X22.0604 Y12.3188
G01 X22.0772 Y12.2958
G01 X22.0826 Y12.2894
G01 X22.0972 Y12.2735
G01 X22.1168 Y12.2555
G01 X22.1235 Y12.2501
G01 X22.1409 Y12.2373
G01 X22.1652 Y12.2226
G01 X22.1909 Y12.2104
G01 X22.2161 Y12.2012
G01 X22.2403 Y12.1949
G01 X22.2528 Y12.1924
G01 X22.2751 Y12.1893
G01 X22.3016 Y12.1880
G01 X23.9525 Y12.1880
G01 X23.9818 Y12.1895
G01 X24.0081 Y12.1934
G01 X24.0307 Y12.1989
G01 X24.0421 Y12.2023
G01 X24.0656 Y12.2110
G01 X24.0881 Y12.2218
G01 X24.1097 Y12.2344
G01 X24.1169 Y12.2393
G01 X24.1307 Y12.2495
G01 X24.1413 Y12.2582
G01 X24.1578 Y12.2735
G01 X24.1757 Y12.2931
G01 X24.1927 Y12.3159
G01 X24.2044 Y12.3351
G01 X24.2109 Y12.3472
G01 X24.2182 Y12.3627
G01 X24.2215 Y12.3708
G01 X24.2292 Y12.3926
G01 X24.2355 Y12.4168
G01 X24.2374 Y12.4268
G01 X24.2405 Y12.4482
G01 X24.2420 Y12.4750
G01 X24.2420 Y12.7800
G01 X24.2407 Y12.8049
G01 X24.2376 Y12.8272
G01 X24.2355 Y12.8382
G01 X24.2293 Y12.8622
G01 X24.2224 Y12.8819
G01 X24.2190 Y12.8906
G01 X24.2098 Y12.9101
G01 X24.2044 Y12.9199
G01 X24.1927 Y12.9391
G01 X24.1799 Y12.9565
G01 X24.1735 Y12.9645
G01 X24.1578 Y12.9815
G01 X24.1354 Y13.0019
G01 X24.1169 Y13.0157
G01 X24.1075 Y13.0219
G01 X24.0881 Y13.0332
G01 X24.0687 Y13.0426
G01 X24.0592 Y13.0465
G01 X24.0389 Y13.0538
G01 X24.0147 Y13.0601
G01 X24.0022 Y13.0626
G01 X23.9799 Y13.0657
G01 X23.9525 Y13.0670
G01 X22.3025 Y13.0670
G01 X22.2732 Y13.0655
G01 X22.2518 Y13.0624
G01 X22.2418 Y13.0605
G01 X22.2176 Y13.0542
G01 X22.1926 Y13.0453
G01 X22.1680 Y13.0338
G01 X22.1475 Y13.0219
G01 X22.1361 Y13.0143
G01 X22.1223 Y13.0040
G01 X22.1155 Y12.9985
G01 X22.0972 Y12.9815
G01 X22.0795 Y12.9620
G01 X22.0623 Y12.9391
G01 X22.0506 Y12.9199
G01 X22.0441 Y12.9078
G01 X22.0368 Y12.8923
G01 X22.0335 Y12.8842
G01 X22.0252 Y12.8606
G01 X22.0188 Y12.8349
G01 X22.0145 Y12.8068
G01 X22.0132 Y12.7843
G01 X22.0892 Y12.7806
G01 X22.0892 Y12.4744
G01 X22.0901 Y12.4566
G01 X22.0932 Y12.4359
G01 X22.0983 Y12.4156
G01 X22.1060 Y12.3944
G01 X22.1144 Y12.3768
G01 X22.1269 Y12.3564
G01 X22.1396 Y12.3398
G01 X22.1516 Y12.3266
G01 X22.1648 Y12.3146
G01 X22.1839 Y12.3001
G01 X22.2019 Y12.2893
G01 X22.2208 Y12.2803
G01 X22.2391 Y12.2738
G01 X22.2578 Y12.2689
G01 X22.2639 Y12.2677
G01 X22.2816 Y12.2651
G01 X22.3025 Y12.2641
G01 X23.9525 Y12.2641
G01 X23.9719 Y12.2650
G01 X23.9911 Y12.2677
G01 X23.9972 Y12.2689
G01 X24.0143 Y12.2732
G01 X24.0342 Y12.2803
G01 X24.0558 Y12.2908
G01 X24.0711 Y12.3001
G01 X24.0879 Y12.3125
G01 X24.1034 Y12.3266
G01 X24.1154 Y12.3398
G01 X24.1299 Y12.3589
G01 X24.1421 Y12.3797
G01 X24.1497 Y12.3958
G01 X24.1562 Y12.4141
G01 X24.1611 Y12.4328
G01 X24.1623 Y12.4389
G01 X24.1649 Y12.4566
G01 X24.1659 Y12.4775
G01 X24.1659 Y12.7791
G01 X24.1649 Y12.7984
G01 X24.1611 Y12.8222
G01 X24.1568 Y12.8393
G01 X24.1508 Y12.8563
G01 X24.1407 Y12.8781
G01 X24.1281 Y12.8986
G01 X24.1175 Y12.9129
G01 X24.1055 Y12.9261
G01 X24.0879 Y12.9425
G01 X24.0684 Y12.9566
G01 X24.0531 Y12.9657
G01 X24.0370 Y12.9734
G01 X24.0144 Y12.9817
G01 X23.9941 Y12.9868
G01 X23.9765 Y12.9895
G01 X23.9525 Y12.9909
G01 X22.3025 Y12.9909
G01 X22.2816 Y12.9899
G01 X22.2578 Y12.9861
G01 X22.2406 Y12.9817
G01 X22.2237 Y12.9758
G01 X22.2018 Y12.9656
G01 X22.1839 Y12.9549
G01 X22.1696 Y12.9444
G01 X22.1516 Y12.9284
G01 X22.1356 Y12.9104
G01 X22.1251 Y12.8961
G01 X22.1143 Y12.8781
G01 X22.1042 Y12.8563
G01 X22.0983 Y12.8394
G01 X22.0939 Y12.8222
G01 X22.0901 Y12.7984
G01 X22.0892 Y12.7806
G01 X21.9957 Y11.9258
G01 X22.0150 Y11.9558
G01 X22.0269 Y11.9770
G01 X22.0331 Y11.9894
G01 X22.0386 Y12.0017
G01 X22.0482 Y12.0266
G01 X22.0656 Y12.0172
G01 X22.0903 Y12.0054
G01 X22.1059 Y11.9986
G01 X22.1218 Y11.9925
G01 X22.1072 Y11.9870
G01 X22.0935 Y11.9811
G01 X22.0711 Y11.9705
G01 X22.0571 Y11.9634
G01 X22.0448 Y11.9564
G01 X22.0232 Y11.9434
G01 X22.0103 Y11.9349
G01 X21.9977 Y11.9258
G01 X21.9957 Y11.9258
G01 X21.8303 Y11.8493
G01 X21.8470 Y11.8620
G01 X21.8629 Y11.8760
G01 X21.8782 Y11.8915
G01 X21.8916 Y11.9073
G01 X21.9052 Y11.9260
G01 X21.9456 Y11.9884
G01 X21.9527 Y11.9999
G01 X21.9597 Y12.0126
G01 X21.9682 Y12.0305
G01 X21.9751 Y12.0479
G01 X21.9809 Y12.0659
G01 X21.9855 Y12.0840
G01 X21.9891 Y12.1035
G01 X21.9912 Y12.1214
G01 X21.9922 Y12.1377
G01 X21.9924 Y12.1631
G01 X22.0120 Y12.1450
G01 X22.0176 Y12.1401
G01 X22.0186 Y12.1392
G01 X22.0198 Y12.1382
G01 X22.0202 Y12.1379
G01 X22.0228 Y12.1357
G01 X22.0334 Y12.1274
G01 X22.0552 Y12.1116
G01 X22.0676 Y12.1036
G01 X22.0905 Y12.0901
G01 X22.1032 Y12.0835
G01 X22.1248 Y12.0733
G01 X22.1414 Y12.0663
G01 X22.1666 Y12.0573
G01 X22.1821 Y12.0526
G01 X22.2031 Y12.0473
G01 X22.2173 Y12.0442
G01 X22.2302 Y12.0419
G01 X22.2535 Y12.0386
G01 X22.2714 Y12.0370
G01 X22.3025 Y12.0359
G01 X23.9532 Y12.0359
G01 X23.9668 Y12.0362
G01 X23.9949 Y12.0379
G01 X24.0093 Y12.0396
G01 X24.0364 Y12.0439
G01 X24.0484 Y12.0465
G01 X24.0691 Y12.0516
G01 X24.0895 Y12.0577
G01 X24.1202 Y12.0689
G01 X24.1481 Y12.0817
G01 X24.1682 Y12.0922
G01 X24.1955 Y12.1087
G01 X24.2057 Y12.1157
G01 X24.2216 Y12.1274
G01 X24.2360 Y12.1389
G01 X24.2590 Y12.1596
G01 X24.2742 Y12.1751
G01 X24.2948 Y12.1984
G01 X24.3148 Y12.2251
G01 X24.3263 Y12.2424
G01 X24.3371 Y12.2606
G01 X24.3431 Y12.2714
G01 X24.3571 Y12.3006
G01 X24.3654 Y12.3212
G01 X24.3722 Y12.3403
G01 X24.3764 Y12.3535
G01 X24.3827 Y12.3783
G01 X24.3858 Y12.3923
G01 X24.3881 Y12.4052
G01 X24.3917 Y12.4314
G01 X24.3928 Y12.4441
G01 X24.3939 Y12.4653
G01 X24.3941 Y12.4775
G01 X24.3941 Y12.7823
G01 X24.3921 Y12.8194
G01 X24.3906 Y12.8325
G01 X24.3871 Y12.8557
G01 X24.3836 Y12.8729
G01 X24.3769 Y12.8994
G01 X24.3726 Y12.9136
G01 X24.3650 Y12.9349
G01 X24.3583 Y12.9518
G01 X24.3483 Y12.9731
G01 X24.3424 Y12.9849
G01 X24.3351 Y12.9979
G01 X24.3244 Y13.0157
G01 X24.3162 Y13.0280
G01 X24.3001 Y13.0499
G01 X24.2899 Y13.0624
G01 X24.2728 Y13.0815
G01 X24.2617 Y13.0928
G01 X24.2414 Y13.1114
G01 X24.2278 Y13.1228
G01 X24.2493 Y13.1259
G01 X24.2635 Y13.1286
G01 X24.2780 Y13.1322
G01 X24.2942 Y13.1370
G01 X24.3091 Y13.1424
G01 X24.3252 Y13.1493
G01 X24.3402 Y13.1569
G01 X24.3540 Y13.1648
G01 X24.3694 Y13.1749
G01 X24.3856 Y13.1871
G01 X24.4465 Y13.2397
G01 X24.4558 Y13.2482
G01 X24.4657 Y13.2581
G01 X24.4749 Y13.2681
G01 X24.4833 Y13.2782
G01 X24.4833 Y11.9787
G01 X24.3538 Y11.8492
G01 X24.2322 Y11.8492
G01 X24.2214 Y11.8577
G01 X24.1990 Y11.8739
G01 X24.1874 Y11.8814
G01 X24.1645 Y11.8949
G01 X24.1504 Y11.9022
G01 X24.1268 Y11.9133
G01 X24.1136 Y11.9187
G01 X24.0943 Y11.9256
G01 X24.0820 Y11.9297
G01 X24.0687 Y11.9335
G01 X24.0466 Y11.9390
G01 X24.0293 Y11.9424
G01 X24.0057 Y11.9459
G01 X23.9930 Y11.9473
G01 X23.9666 Y11.9488
G01 X23.9525 Y11.9491
G01 X22.3025 Y11.9491
G01 X22.2884 Y11.9488
G01 X22.2677 Y11.9477
G01 X22.2544 Y11.9465
G01 X22.2286 Y11.9428
G01 X22.2150 Y11.9404
G01 X22.2024 Y11.9375
G01 X22.1765 Y11.9308
G01 X22.1648 Y11.9271
G01 X22.1428 Y11.9192
G01 X22.1278 Y11.9131
G01 X22.1071 Y11.9034
G01 X22.0959 Y11.8978
G01 X22.0855 Y11.8921
G01 X22.0655 Y11.8801
G01 X22.0548 Y11.8731
G01 X22.0334 Y11.8576
G01 X22.0229 Y11.8494
G01 X21.8303 Y11.8493
G00 Z2.0000
G00 X22.0475 Y10.6880
G01 F400.00
G01 Z-0.0500
G01 F400.00
G01 X22.0389 Y10.7136
G01 X22.0339 Y10.7262
G01 X22.0285 Y10.7386
G01 X22.0163 Y10.7626
G01 X22.0024 Y10.7858
G01 X22.0135 Y10.7779
G01 X22.0254 Y10.7703
G01 X22.0460 Y10.7579
G01 X22.0599 Y10.7501
G01 X22.0724 Y10.7439
G01 X22.0950 Y10.7332
G01 X22.1078 Y10.7278
G01 X22.1218 Y10.7225
G01 X22.1059 Y10.7164
G01 X22.0900 Y10.7095
G01 X22.0664 Y10.6982
G01 X22.0475 Y10.6880
G01 X21.9937 Y10.5532
G01 X21.9826 Y10.6304
G01 X21.9780 Y10.6535
G01 X21.9732 Y10.6707
G01 X21.9674 Y10.6876
G01 X21.9608 Y10.7037
G01 X21.9530 Y10.7198
G01 X21.9452 Y10.7337
G01 X21.9365 Y10.7475
G01 X21.9272 Y10.7604
G01 X21.9179 Y10.7721
G01 X21.8615 Y10.8369
G01 X21.8460 Y10.8522
G01 X21.8301 Y10.8658
G01 X22.0228 Y10.8658
G01 X22.0334 Y10.8574
G01 X22.0548 Y10.8419
G01 X22.0655 Y10.8349
G01 X22.0856 Y10.8229
G01 X22.0964 Y10.8169
G01 X22.1071 Y10.8116
G01 X22.1278 Y10.8019
G01 X22.1428 Y10.7958
G01 X22.1648 Y10.7879
G01 X22.1765 Y10.7842
G01 X22.2024 Y10.7775
G01 X22.2150 Y10.7746
G01 X22.2286 Y10.7722
G01 X22.2544 Y10.7685
G01 X22.2677 Y10.7673
G01 X22.2884 Y10.7662
G01 X22.3025 Y10.7659
G01 X23.9573 Y10.7659
G01 X23.9834 Y10.7670
G01 X23.9967 Y10.7681
G01 X24.0098 Y10.7697
G01 X24.0359 Y10.7738
G01 X24.0506 Y10.7770
G01 X24.0757 Y10.7834
G01 X24.0895 Y10.7877
G01 X24.1088 Y10.7946
G01 X24.1206 Y10.7991
G01 X24.1337 Y10.8049
G01 X24.1552 Y10.8151
G01 X24.1690 Y10.8226
G01 X24.1895 Y10.8349
G01 X24.2002 Y10.8419
G01 X24.2216 Y10.8574
G01 X24.2321 Y10.8656
G01 X24.5584 Y10.8658
G01 X24.5711 Y10.8661
G01 X24.6014 Y10.8677
G01 X24.6178 Y10.8696
G01 X24.6496 Y10.8745
G01 X24.6634 Y10.8774
G01 X24.6911 Y10.8843
G01 X24.7084 Y10.8895
G01 X24.7364 Y10.8995
G01 X24.7497 Y10.9049
G01 X24.7639 Y10.9114
G01 X24.7571 Y10.8893
G01 X24.7523 Y10.8671
G01 X24.7492 Y10.8451
G01 X24.7477 Y10.8216
G01 X24.7478 Y10.8052
G01 X24.7490 Y10.7873
G01 X24.7594 Y10.7041
G01 X24.7624 Y10.6870
G01 X24.7666 Y10.6696
G01 X24.7720 Y10.6521
G01 X24.7783 Y10.6353
G01 X24.7857 Y10.6186
G01 X24.7938 Y10.6032
G01 X24.8033 Y10.5875
G01 X24.8133 Y10.5731
G01 X24.7942 Y10.5759
G01 X24.7814 Y10.5773
G01 X24.7401 Y10.5792
G01 X24.2322 Y10.5792
G01 X24.2216 Y10.5876
G01 X24.2002 Y10.6031
G01 X24.1895 Y10.6101
G01 X24.1694 Y10.6221
G01 X24.1586 Y10.6281
G01 X24.1479 Y10.6334
G01 X24.1272 Y10.6431
G01 X24.1122 Y10.6492
G01 X24.0902 Y10.6571
G01 X24.0780 Y10.6609
G01 X24.0524 Y10.6676
G01 X24.0396 Y10.6705
G01 X24.0255 Y10.6730
G01 X24.0001 Y10.6766
G01 X23.9863 Y10.6778
G01 X23.9649 Y10.6789
G01 X23.9525 Y10.6791
G01 X22.3006 Y10.6791
G01 X22.2728 Y10.6780
G01 X22.2578 Y10.6769
G01 X22.2302 Y10.6731
G01 X22.2154 Y10.6705
G01 X22.1881 Y10.6639
G01 X22.1752 Y10.6604
G01 X22.1609 Y10.6557
G01 X22.1348 Y10.6461
G01 X22.1210 Y10.6400
G01 X22.0959 Y10.6278
G01 X22.0826 Y10.6204
G01 X22.0591 Y10.6060
G01 X22.0462 Y10.5970
G01 X22.0241 Y10.5804
G01 X22.0131 Y10.5709
G01 X21.9937 Y10.5532
G01 X22.0132 Y10.2443
G01 X22.0131 Y10.2434
G01 X22.0131 Y10.2419
G01 X22.0130 Y10.2375
G01 X22.0130 Y9.9350
G01 X22.0147 Y9.9067
G01 X22.0178 Y9.8853
G01 X22.0201 Y9.8743
G01 X22.0258 Y9.8526
G01 X22.0329 Y9.8322
G01 X22.0368 Y9.8227
G01 X22.0469 Y9.8016
G01 X22.0586 Y9.7817
G01 X22.0652 Y9.7718
G01 X22.0793 Y9.7531
G01 X22.0937 Y9.7371
G01 X22.1009 Y9.7298
G01 X22.1180 Y9.7145
G01 X22.1368 Y9.7002
G01 X22.1453 Y9.6944
G01 X22.1652 Y9.6826
G01 X22.1855 Y9.6728
G01 X22.1958 Y9.6685
G01 X22.2161 Y9.6612
G01 X22.2403 Y9.6549
G01 X22.2528 Y9.6524
G01 X22.2751 Y9.6493
G01 X22.3016 Y9.6480
G01 X23.9593 Y9.6482
G01 X23.9833 Y9.6497
G01 X24.0114 Y9.6541
G01 X24.0387 Y9.6612
G01 X24.0592 Y9.6685
G01 X24.0695 Y9.6728
G01 X24.0911 Y9.6834
G01 X24.1097 Y9.6944
G01 X24.1189 Y9.7007
G01 X24.1327 Y9.7110
G01 X24.1413 Y9.7182
G01 X24.1565 Y9.7322
G01 X24.1711 Y9.7479
G01 X24.5968 Y9.7479
G01 X24.6729 Y9.6718
G01 X24.6729 Y7.9532
G01 X24.3099 Y7.5901
G01 X24.2891 Y7.5673
G01 X24.2833 Y7.5600
G01 X24.2671 Y7.5379
G01 X24.2534 Y7.5152
G01 X24.2485 Y7.5062
G01 X24.2380 Y7.4839
G01 X24.2341 Y7.4744
G01 X24.2253 Y7.4495
G01 X24.2195 Y7.4270
G01 X24.2066 Y7.4269
G01 X24.1758 Y7.4252
G01 X24.1374 Y7.4197
G01 X24.1003 Y7.4105
G01 X24.0643 Y7.3977
G01 X24.0297 Y7.3814
G01 X23.9953 Y7.3608
G01 X23.9647 Y7.3380
G01 X23.9421 Y7.3176
G01 X23.9354 Y7.3111
G01 X23.9108 Y7.2839
G01 X23.8892 Y7.2547
G01 X23.8695 Y7.2219
G01 X23.8554 Y7.1928
G01 X23.8502 Y7.1802
G01 X23.8411 Y7.1547
G01 X23.8386 Y7.1464
G01 X23.8303 Y7.1126
G01 X23.8252 Y7.0782
G01 X23.8244 Y7.0688
G01 X23.8230 Y7.0375
G01 X23.8230 Y6.0850
G01 X23.8248 Y6.0508
G01 X23.8293 Y6.0183
G01 X23.8314 Y6.0073
G01 X23.8391 Y5.9768
G01 X23.8505 Y5.9440
G01 X23.8554 Y5.9322
G01 X23.8695 Y5.9031
G01 X23.8892 Y5.8703
G01 X23.9108 Y5.8411
G01 X23.9330 Y5.8164
G01 X23.9402 Y5.8091
G01 X23.9602 Y5.7909
G01 X23.9708 Y5.7822
G01 X23.9969 Y5.7631
G01 X24.0297 Y5.7436
G01 X24.0626 Y5.7280
G01 X24.0929 Y5.7169
G01 X24.1060 Y5.7130
G01 X24.1323 Y5.7064
G01 X24.1423 Y5.7045
G01 X24.1753 Y5.6998
G01 X24.2104 Y5.6980
G01 X24.2104 Y5.1145
G01 X24.1932 Y5.1143
G01 X24.1667 Y5.1130
G01 X24.1550 Y5.1118
G01 X24.1216 Y5.1065
G01 X24.0911 Y5.0989
G01 X24.0813 Y5.0959
G01 X24.0501 Y5.0845
G01 X24.0225 Y5.0716
G01 X24.0142 Y5.0673
G01 X23.9828 Y5.0483
G01 X23.9576 Y5.0297
G01 X23.9496 Y5.0233
G01 X23.9239 Y4.9997
G01 X23.8983 Y4.9714
G01 X23.8756 Y4.9406
G01 X23.8561 Y4.9078
G01 X23.8405 Y4.8749
G01 X23.8276 Y4.8390
G01 X23.8182 Y4.8019
G01 X23.8125 Y4.7641
G01 X23.8105 Y4.7250
G01 X23.8105 Y3.8250
G01 X23.8119 Y3.7929
G01 X23.8131 Y3.7810
G01 X23.8185 Y3.7466
G01 X23.8261 Y3.7161
G01 X23.8294 Y3.7054
G01 X23.8405 Y3.6751
G01 X23.8534 Y3.6475
G01 X23.8586 Y3.6376
G01 X23.8730 Y3.6136
G01 X23.8795 Y3.6038
G01 X23.8983 Y3.5786
G01 X23.9239 Y3.5503
G01 X23.9536 Y3.5233
G01 X23.9780 Y3.5051
G01 X23.9857 Y3.4998
G01 X24.0126 Y3.4836
G01 X24.0225 Y3.4784
G01 X24.0518 Y3.4648
G01 X24.0813 Y3.4541
G01 X24.0926 Y3.4507
G01 X24.1231 Y3.4432
G01 X24.1550 Y3.4382
G01 X24.1662 Y3.4370
G01 X24.2000 Y3.4355
G01 X24.9000 Y3.4355
G01 X24.9313 Y3.4369
G01 X24.9407 Y3.4377
G01 X24.9717 Y3.4422
G01 X24.9827 Y3.4445
G01 X25.0122 Y3.4520
G01 X25.0427 Y3.4627
G01 X25.0530 Y3.4669
G01 X25.0828 Y3.4811
G01 X25.1172 Y3.5017
G01 X25.1437 Y3.5212
G01 X25.1523 Y3.5284
G01 X25.1761 Y3.5503
G01 X25.1972 Y3.5734
G01 X25.2047 Y3.5826
G01 X25.2244 Y3.6094
G01 X25.2414 Y3.6376
G01 X25.2466 Y3.6475
G01 X25.2602 Y3.6768
G01 X25.2706 Y3.7054
G01 X25.2739 Y3.7161
G01 X25.2805 Y3.7423
G01 X25.2828 Y3.7533
G01 X25.2873 Y3.7843
G01 X25.2894 Y3.8206
G01 X25.2895 Y4.7259
G01 X25.2877 Y4.7622
G01 X25.2825 Y4.7985
G01 X25.2805 Y4.8077
G01 X25.2730 Y4.8372
G01 X25.2620 Y4.8685
G01 X25.2581 Y4.8780
G01 X25.2466 Y4.9025
G01 X25.2401 Y4.9146
G01 X25.2233 Y4.9422
G01 X25.2005 Y4.9728
G01 X25.1747 Y5.0011
G01 X25.1464 Y5.0267
G01 X25.1156 Y5.0494
G01 X25.0844 Y5.0680
G01 X25.0499 Y5.0845
G01 X25.0172 Y5.0964
G01 X25.0074 Y5.0993
G01 X24.9784 Y5.1065
G01 X24.9440 Y5.1119
G01 X24.9338 Y5.1130
G01 X24.9068 Y5.1143
G01 X24.8896 Y5.1145
G01 X24.8896 Y5.6980
G01 X24.9213 Y5.6995
G01 X24.9325 Y5.7007
G01 X24.9644 Y5.7057
G01 X24.9940 Y5.7130
G01 X25.0047 Y5.7161
G01 X25.0357 Y5.7273
G01 X25.0703 Y5.7436
G01 X25.1047 Y5.7642
G01 X25.1299 Y5.7828
G01 X25.1391 Y5.7903
G01 X25.1598 Y5.8091
G01 X25.1676 Y5.8171
G01 X25.1892 Y5.8411
G01 X25.2074 Y5.8655
G01 X25.2137 Y5.8748
G01 X25.2305 Y5.9031
G01 X25.2470 Y5.9376
G01 X25.2605 Y5.9753
G01 X25.2697 Y6.0124
G01 X25.2750 Y6.0484
G01 X25.2769 Y6.0831
G01 X25.2770 Y6.2229
G01 X26.0230 Y6.2229
G01 X26.0231 Y6.1066
G01 X26.0250 Y6.0738
G01 X26.0303 Y6.0374
G01 X26.0395 Y6.0003
G01 X26.0523 Y5.9643
G01 X26.0686 Y5.9297
G01 X26.0863 Y5.8998
G01 X26.0920 Y5.8913
G01 X26.1108 Y5.8661
G01 X26.1364 Y5.8378
G01 X26.1647 Y5.8120
G01 X26.1953 Y5.7892
G01 X26.2281 Y5.7695
G01 X26.2626 Y5.7530
G01 X26.2985 Y5.7401
G01 X26.3323 Y5.7314
G01 X26.3423 Y5.7295
G01 X26.3734 Y5.7250
G01 X26.4116 Y5.7230
G01 X27.1150 Y5.7230
G01 X27.1516 Y5.7250
G01 X27.1894 Y5.7307
G01 X27.2265 Y5.7401
G01 X27.2624 Y5.7530
G01 X27.2908 Y5.7663
G01 X27.3013 Y5.7719
G01 X27.3281 Y5.7881
G01 X27.3542 Y5.8072
G01 X27.3629 Y5.8142
G01 X27.3872 Y5.8364
G01 X27.4142 Y5.8661
G01 X27.4339 Y5.8925
G01 X27.4400 Y5.9019
G01 X27.4564 Y5.9297
G01 X27.4700 Y5.9580
G01 X27.4745 Y5.9690
G01 X27.4855 Y6.0003
G01 X27.4936 Y6.0323
G01 X27.4957 Y6.0433
G01 X27.5002 Y6.0753
G01 X27.5020 Y6.1116
G01 X27.5020 Y7.0150
G01 X27.5000 Y7.0516
G01 X27.4943 Y7.0894
G01 X27.4849 Y7.1265
G01 X27.4720 Y7.1624
G01 X27.4587 Y7.1908
G01 X27.4531 Y7.2013
G01 X27.4369 Y7.2281
G01 X27.4178 Y7.2542
G01 X27.4108 Y7.2629
G01 X27.3886 Y7.2872
G01 X27.3603 Y7.3130
G01 X27.3281 Y7.3369
G01 X27.2999 Y7.3539
G01 X27.2900 Y7.3591
G01 X27.2607 Y7.3727
G01 X27.2321 Y7.3831
G01 X27.2214 Y7.3864
G01 X27.1909 Y7.3940
G01 X27.1817 Y7.3957
G01 X27.1516 Y7.4000
G01 X27.1134 Y7.4020
G01 X26.4125 Y7.4020
G01 X26.3812 Y7.4006
G01 X26.3722 Y7.3999
G01 X26.3356 Y7.3943
G01 X26.2985 Y7.3849
G01 X26.2626 Y7.3720
G01 X26.2328 Y7.3580
G01 X26.2229 Y7.3526
G01 X26.1953 Y7.3358
G01 X26.1708 Y7.3178
G01 X26.1621 Y7.3108
G01 X26.1421 Y7.2926
G01 X26.1341 Y7.2848
G01 X26.1130 Y7.2615
G01 X26.1078 Y7.2549
G01 X26.0901 Y7.2309
G01 X26.0850 Y7.2231
G01 X26.0695 Y7.1969
G01 X26.0530 Y7.1624
G01 X26.0401 Y7.1265
G01 X26.0307 Y7.0894
G01 X26.0250 Y7.0516
G01 X26.0231 Y7.0184
G01 X26.0230 Y6.9021
G01 X25.2770 Y6.9021
G01 X25.2770 Y7.0384
G01 X25.2750 Y7.0766
G01 X25.2697 Y7.1126
G01 X25.2620 Y7.1440
G01 X25.2584 Y7.1562
G01 X25.2464 Y7.1888
G01 X25.2305 Y7.2219
G01 X25.2119 Y7.2531
G01 X25.1892 Y7.2839
G01 X25.1659 Y7.3098
G01 X25.1586 Y7.3170
G01 X25.1365 Y7.3370
G01 X25.1095 Y7.3574
G01 X25.1002 Y7.3637
G01 X25.0771 Y7.3776
G01 X25.0645 Y7.3843
G01 X25.2544 Y7.5742
G01 X25.2744 Y7.5964
G01 X25.2915 Y7.6190
G01 X25.2980 Y7.6288
G01 X25.3115 Y7.6516
G01 X25.3235 Y7.6763
G01 X25.3278 Y7.6866
G01 X25.3372 Y7.7130
G01 X25.3441 Y7.7396
G01 X25.3463 Y7.7505
G01 X25.3502 Y7.7767
G01 X25.3509 Y7.7860
G01 X25.3521 Y7.8125
G01 X25.3521 Y9.8125
G01 X25.3503 Y9.8467
G01 X25.3457 Y9.8782
G01 X25.3393 Y9.9045
G01 X25.3356 Y9.9167
G01 X25.3259 Y9.9433
G01 X25.3124 Y9.9718
G01 X25.2985 Y9.9954
G01 X25.2915 Y10.0060
G01 X25.2743 Y10.0287
G01 X25.2526 Y10.0526
G01 X24.9758 Y10.3294
G01 X24.9562 Y10.3472
G01 X24.9475 Y10.3542
G01 X24.9254 Y10.3704
G01 X24.8998 Y10.3858
G01 X24.8915 Y10.3901
G01 X24.8683 Y10.4009
G01 X24.8352 Y10.4127
G01 X24.8028 Y10.4207
G01 X24.7767 Y10.4247
G01 X24.7649 Y10.4259
G01 X24.7375 Y10.4271
G01 X24.1711 Y10.4271
G01 X24.1554 Y10.4439
G01 X24.1342 Y10.4628
G01 X24.1125 Y10.4787
G01 X24.0941 Y10.4899
G01 X24.0851 Y10.4948
G01 X24.0624 Y10.5053
G01 X24.0422 Y10.5127
G01 X24.0341 Y10.5152
G01 X24.0065 Y10.5219
G01 X23.9852 Y10.5251
G01 X23.9740 Y10.5261
G01 X23.9525 Y10.5270
G01 X22.2957 Y10.5268
G01 X22.2732 Y10.5255
G01 X22.2469 Y10.5216
G01 X22.2194 Y10.5148
G01 X22.1981 Y10.5074
G01 X22.1855 Y10.5022
G01 X22.1696 Y10.4946
G01 X22.1622 Y10.4906
G01 X22.1409 Y10.4777
G01 X22.1223 Y10.4640
G01 X22.1144 Y10.4574
G01 X22.0985 Y10.4428
G01 X22.0782 Y10.4205
G01 X22.0613 Y10.3975
G01 X22.0501 Y10.3791
G01 X22.0452 Y10.3701
G01 X22.0341 Y10.3460
G01 X22.0268 Y10.3257
G01 X22.0237 Y10.3149
G01 X22.0188 Y10.2949
G01 X22.0153 Y10.2727
G01 X22.0141 Y10.2615
G01 X22.0139 Y10.2590
G01 X22.0132 Y10.2443
G01 X21.9372 Y10.2481
G01 X21.9369 Y10.2375
G01 X21.9369 Y9.9375
G01 X21.9381 Y9.9088
G01 X21.9394 Y9.8955
G01 X21.9422 Y9.8761
G01 X21.9462 Y9.8563
G01 X21.9507 Y9.8383
G01 X21.9537 Y9.8281
G01 X21.9616 Y9.8057
G01 X21.9661 Y9.7945
G01 X21.9771 Y9.7710
G01 X21.9846 Y9.7571
G01 X21.9980 Y9.7352
G01 X22.0134 Y9.7139
G01 X22.0239 Y9.7008
G01 X22.0416 Y9.6815
G01 X22.0506 Y9.6727
G01 X22.0696 Y9.6557
G01 X22.0908 Y9.6396
G01 X22.1010 Y9.6325
G01 X22.1239 Y9.6186
G01 X22.1379 Y9.6112
G01 X22.1617 Y9.6001
G01 X22.1863 Y9.5910
G01 X22.2006 Y9.5865
G01 X22.2251 Y9.5803
G01 X22.2398 Y9.5774
G01 X22.2648 Y9.5739
G01 X22.2768 Y9.5729
G01 X22.3020 Y9.5719
G01 X23.9587 Y9.5720
G01 X23.9902 Y9.5739
G01 X24.0139 Y9.5772
G01 X24.0256 Y9.5793
G01 X24.0488 Y9.5850
G01 X24.0591 Y9.5878
G01 X24.0915 Y9.5994
G01 X24.1021 Y9.6041
G01 X24.1240 Y9.6147
G01 X24.1527 Y9.6317
G01 X24.1627 Y9.6385
G01 X24.1817 Y9.6528
G01 X24.1899 Y9.6596
G01 X24.2035 Y9.6718
G01 X24.5653 Y9.6718
G01 X24.5968 Y9.6403
G01 X24.5968 Y7.9847
G01 X24.2561 Y7.6439
G01 X24.2353 Y7.6214
G01 X24.2260 Y7.6103
G01 X24.2105 Y7.5896
G01 X24.2049 Y7.5817
G01 X24.1987 Y7.5720
G01 X24.1869 Y7.5522
G01 X24.1814 Y7.5421
G01 X24.1688 Y7.5156
G01 X24.1626 Y7.5003
G01 X24.1316 Y7.4959
G01 X24.1208 Y7.4939
G01 X24.0783 Y7.4833
G01 X24.0673 Y7.4797
G01 X24.0361 Y7.4683
G01 X24.0259 Y7.4639
G01 X24.0008 Y7.4520
G01 X23.9876 Y7.4451
G01 X23.9628 Y7.4303
G01 X23.9546 Y7.4251
G01 X23.9452 Y7.4185
G01 X23.9240 Y7.4028
G01 X23.9145 Y7.3952
G01 X23.8896 Y7.3727
G01 X23.8790 Y7.3622
G01 X23.8532 Y7.3336
G01 X23.8295 Y7.3020
G01 X23.8215 Y7.2901
G01 X23.8069 Y7.2658
G01 X23.7974 Y7.2479
G01 X23.7817 Y7.2139
G01 X23.7673 Y7.1735
G01 X23.7642 Y7.1624
G01 X23.7563 Y7.1302
G01 X23.7505 Y7.0936
G01 X23.7486 Y7.0760
G01 X23.7469 Y7.0380
G01 X23.7469 Y6.0870
G01 X23.7484 Y6.0524
G01 X23.7492 Y6.0416
G01 X23.7541 Y6.0071
G01 X23.7561 Y5.9958
G01 X23.7665 Y5.9541
G01 X23.7786 Y5.9192
G01 X23.7852 Y5.9028
G01 X23.8024 Y5.8672
G01 X23.8244 Y5.8304
G01 X23.8464 Y5.8001
G01 X23.8586 Y5.7852
G01 X23.8773 Y5.7646
G01 X23.8857 Y5.7559
G01 X23.9164 Y5.7282
G01 X23.9463 Y5.7057
G01 X23.9616 Y5.6955
G01 X23.9854 Y5.6812
G01 X23.9961 Y5.6753
G01 X24.0335 Y5.6577
G01 X24.0705 Y5.6442
G01 X24.0842 Y5.6400
G01 X24.1127 Y5.6329
G01 X24.1235 Y5.6305
G01 X24.1340 Y5.6288
G01 X24.1343 Y5.1856
G01 X24.1162 Y5.1829
G01 X24.1058 Y5.1809
G01 X24.0690 Y5.1717
G01 X24.0580 Y5.1683
G01 X24.0317 Y5.1589
G01 X24.0161 Y5.1527
G01 X23.9814 Y5.1360
G01 X23.9474 Y5.1160
G01 X23.9327 Y5.1060
G01 X23.9103 Y5.0893
G01 X23.8999 Y5.0809
G01 X23.8715 Y5.0549
G01 X23.8461 Y5.0273
G01 X23.8347 Y5.0135
G01 X23.8182 Y4.9912
G01 X23.8119 Y4.9821
G01 X23.7903 Y4.9461
G01 X23.7740 Y4.9124
G01 X23.7665 Y4.8946
G01 X23.7572 Y4.8684
G01 X23.7535 Y4.8569
G01 X23.7449 Y4.8228
G01 X23.7416 Y4.8054
G01 X23.7366 Y4.7697
G01 X23.7345 Y4.7284
G01 X23.7344 Y3.8250
G01 X23.7363 Y3.7837
G01 X23.7377 Y3.7708
G01 X23.7418 Y3.7432
G01 X23.7456 Y3.7243
G01 X23.7550 Y3.6881
G01 X23.7695 Y3.6477
G01 X23.7861 Y3.6119
G01 X23.7946 Y3.5963
G01 X23.8139 Y3.5648
G01 X23.8395 Y3.5304
G01 X23.8470 Y3.5216
G01 X23.8695 Y3.4971
G01 X23.8966 Y3.4720
G01 X23.9103 Y3.4607
G01 X23.9421 Y3.4374
G01 X23.9789 Y3.4153
G01 X24.0126 Y3.3990
G01 X24.0304 Y3.3915
G01 X24.0566 Y3.3822
G01 X24.0681 Y3.3785
G01 X24.1022 Y3.3699
G01 X24.1196 Y3.3666
G01 X24.1553 Y3.3616
G01 X24.1956 Y3.3595
G01 X24.9034 Y3.3595
G01 X24.9355 Y3.3609
G01 X24.9466 Y3.3618
G01 X24.9809 Y3.3666
G01 X24.9927 Y3.3688
G01 X25.0254 Y3.3768
G01 X25.0369 Y3.3800
G01 X25.0696 Y3.3915
G01 X25.0822 Y3.3966
G01 X25.1131 Y3.4111
G01 X25.1283 Y3.4194
G01 X25.1594 Y3.4384
G01 X25.1874 Y3.4589
G01 X25.2008 Y3.4698
G01 X25.2279 Y3.4945
G01 X25.2365 Y3.5035
G01 X25.2605 Y3.5304
G01 X25.2813 Y3.5581
G01 X25.2890 Y3.5692
G01 X25.3071 Y3.5993
G01 X25.3153 Y3.6150
G01 X25.3305 Y3.6477
G01 X25.3427 Y3.6811
G01 X25.3475 Y3.6967
G01 X25.3562 Y3.7323
G01 X25.3584 Y3.7441
G01 X25.3632 Y3.7784
G01 X25.3641 Y3.7899
G01 X25.3656 Y3.8236
G01 X25.3656 Y4.7250
G01 X25.3641 Y4.7601
G01 X25.3632 Y4.7716
G01 X25.3620 Y4.7811
G01 X25.3577 Y4.8097
G01 X25.3544 Y4.8257
G01 X25.3479 Y4.8518
G01 X25.3445 Y4.8634
G01 X25.3333 Y4.8950
G01 X25.3277 Y4.9089
G01 X25.3101 Y4.9453
G01 X25.2876 Y4.9829
G01 X25.2810 Y4.9923
G01 X25.2611 Y5.0189
G01 X25.2539 Y5.0273
G01 X25.2342 Y5.0491
G01 X25.2241 Y5.0592
G01 X25.2030 Y5.0783
G01 X25.1874 Y5.0911
G01 X25.1658 Y5.1071
G01 X25.1558 Y5.1140
G01 X25.1275 Y5.1311
G01 X25.1156 Y5.1376
G01 X25.0874 Y5.1510
G01 X25.0773 Y5.1555
G01 X25.0384 Y5.1695
G01 X25.0263 Y5.1730
G01 X24.9951 Y5.1807
G01 X24.9838 Y5.1829
G01 X24.9657 Y5.1856
G01 X24.9657 Y5.6287
G01 X24.9774 Y5.6307
G01 X24.9882 Y5.6331
G01 X25.0167 Y5.6403
G01 X25.0323 Y5.6451
G01 X25.0590 Y5.6548
G01 X25.0697 Y5.6591
G01 X25.1006 Y5.6736
G01 X25.1158 Y5.6819
G01 X25.1388 Y5.6957
G01 X25.1490 Y5.7023
G01 X25.1756 Y5.7219
G01 X25.1862 Y5.7304
G01 X25.2101 Y5.7519
G01 X25.2191 Y5.7607
G01 X25.2427 Y5.7867
G01 X25.2536 Y5.8001
G01 X25.2696 Y5.8217
G01 X25.2765 Y5.8317
G01 X25.2936 Y5.8600
G01 X25.2997 Y5.8711
G01 X25.3135 Y5.9001
G01 X25.3183 Y5.9111
G01 X25.3299 Y5.9427
G01 X25.3340 Y5.9556
G01 X25.3419 Y5.9868
G01 X25.3443 Y5.9976
G01 X25.3507 Y6.0409
G01 X25.3516 Y6.0520
G01 X25.3530 Y6.0831
G01 X25.3531 Y6.1468
G01 X25.9469 Y6.1468
G01 X25.9471 Y6.1053
G01 X25.9486 Y6.0747
G01 X25.9496 Y6.0630
G01 X25.9541 Y6.0316
G01 X25.9561 Y6.0208
G01 X25.9643 Y5.9871
G01 X25.9675 Y5.9756
G01 X25.9786 Y5.9442
G01 X25.9827 Y5.9335
G01 X26.0010 Y5.8947
G01 X26.0069 Y5.8842
G01 X26.0244 Y5.8554
G01 X26.0307 Y5.8463
G01 X26.0472 Y5.8240
G01 X26.0566 Y5.8124
G01 X26.0760 Y5.7910
G01 X26.0826 Y5.7840
G01 X26.0910 Y5.7760
G01 X26.1105 Y5.7583
G01 X26.1198 Y5.7505
G01 X26.1480 Y5.7295
G01 X26.1599 Y5.7215
G01 X26.1850 Y5.7064
G01 X26.1947 Y5.7010
G01 X26.2247 Y5.6867
G01 X26.2352 Y5.6820
G01 X26.2765 Y5.6673
G01 X26.2871 Y5.6643
G01 X26.3183 Y5.6566
G01 X26.3316 Y5.6541
G01 X26.3659 Y5.6493
G01 X26.3774 Y5.6484
G01 X26.4106 Y5.6470
G01 X27.1125 Y5.6469
G01 X27.1494 Y5.6485
G01 X27.1668 Y5.6502
G01 X27.2024 Y5.6557
G01 X27.2388 Y5.6645
G01 X27.2536 Y5.6689
G01 X27.2849 Y5.6801
G01 X27.3003 Y5.6867
G01 X27.3328 Y5.7024
G01 X27.3634 Y5.7205
G01 X27.3770 Y5.7295
G01 X27.4064 Y5.7514
G01 X27.4155 Y5.7592
G01 X27.4410 Y5.7826
G01 X27.4655 Y5.8091
G01 X27.4736 Y5.8186
G01 X27.4946 Y5.8467
G01 X27.5035 Y5.8599
G01 X27.5201 Y5.8876
G01 X27.5276 Y5.9021
G01 X27.5423 Y5.9335
G01 X27.5547 Y5.9673
G01 X27.5600 Y5.9842
G01 X27.5684 Y6.0183
G01 X27.5707 Y6.0307
G01 X27.5753 Y6.0625
G01 X27.5766 Y6.0770
G01 X27.5781 Y6.1125
G01 X27.5780 Y7.0187
G01 X27.5765 Y7.0490
G01 X27.5756 Y7.0600
G01 X27.5709 Y7.0934
G01 X27.5687 Y7.1052
G01 X27.5607 Y7.1379
G01 X27.5575 Y7.1494
G01 X27.5460 Y7.1821
G01 X27.5409 Y7.1947
G01 X27.5264 Y7.2256
G01 X27.5181 Y7.2408
G01 X27.4991 Y7.2719
G01 X27.4786 Y7.2999
G01 X27.4677 Y7.3133
G01 X27.4441 Y7.3393
G01 X27.4344 Y7.3487
G01 X27.4086 Y7.3718
G01 X27.3798 Y7.3935
G01 X27.3696 Y7.4006
G01 X27.3382 Y7.4196
G01 X27.3242 Y7.4270
G01 X27.2915 Y7.4423
G01 X27.2577 Y7.4547
G01 X27.2417 Y7.4597
G01 X27.2118 Y7.4672
G01 X27.1963 Y7.4704
G01 X27.1615 Y7.4755
G01 X27.1480 Y7.4766
G01 X27.1144 Y7.4780
G01 X26.4125 Y7.4781
G01 X26.3774 Y7.4766
G01 X26.3666 Y7.4758
G01 X26.3226 Y7.4693
G01 X26.3114 Y7.4668
G01 X26.2783 Y7.4583
G01 X26.2673 Y7.4547
G01 X26.2352 Y7.4430
G01 X26.2247 Y7.4383
G01 X26.1939 Y7.4235
G01 X26.1838 Y7.4179
G01 X26.1546 Y7.4001
G01 X26.1452 Y7.3935
G01 X26.1179 Y7.3730
G01 X26.1091 Y7.3655
G01 X26.0840 Y7.3424
G01 X26.0763 Y7.3344
G01 X26.0548 Y7.3105
G01 X26.0464 Y7.2999
G01 X26.0259 Y7.2719
G01 X26.0197 Y7.2622
G01 X26.0028 Y7.2336
G01 X25.9974 Y7.2229
G01 X25.9831 Y7.1924
G01 X25.9790 Y7.1821
G01 X25.9683 Y7.1518
G01 X25.9645 Y7.1388
G01 X25.9563 Y7.1052
G01 X25.9543 Y7.0943
G01 X25.9497 Y7.0625
G01 X25.9485 Y7.0494
G01 X25.9471 Y7.0197
G01 X25.9469 Y6.9782
G01 X25.3531 Y6.9782
G01 X25.3530 Y7.0437
G01 X25.3513 Y7.0769
G01 X25.3495 Y7.0936
G01 X25.3439 Y7.1292
G01 X25.3355 Y7.1638
G01 X25.3308 Y7.1795
G01 X25.3183 Y7.2139
G01 X25.3028 Y7.2475
G01 X25.2972 Y7.2586
G01 X25.2785 Y7.2901
G01 X25.2688 Y7.3044
G01 X25.2468 Y7.3336
G01 X25.2231 Y7.3601
G01 X25.2116 Y7.3717
G01 X25.1844 Y7.3961
G01 X25.3114 Y7.5237
G01 X25.3281 Y7.5422
G01 X25.3350 Y7.5503
G01 X25.3528 Y7.5741
G01 X25.3600 Y7.5844
G01 X25.3756 Y7.6103
G01 X25.3832 Y7.6247
G01 X25.3962 Y7.6526
G01 X25.4071 Y7.6822
G01 X25.4122 Y7.6987
G01 X25.4198 Y7.7296
G01 X25.4220 Y7.7418
G01 X25.4262 Y7.7727
G01 X25.4282 Y7.8125
G01 X25.4282 Y9.8125
G01 X25.4269 Y9.8432
G01 X25.4258 Y9.8566
G01 X25.4204 Y9.8924
G01 X25.4130 Y9.9234
G01 X25.4081 Y9.9400
G01 X25.3962 Y9.9724
G01 X25.3823 Y10.0021
G01 X25.3739 Y10.0176
G01 X25.3571 Y10.0450
G01 X25.3358 Y10.0737
G01 X25.3272 Y10.0839
G01 X25.3067 Y10.1061
G01 X25.0290 Y10.3838
G01 X25.0082 Y10.4028
G01 X24.9985 Y10.4110
G01 X24.9736 Y10.4296
G01 X24.9595 Y10.4388
G01 X24.9326 Y10.4545
G01 X24.9058 Y10.4674
G01 X24.8908 Y10.4738
G01 X24.8650 Y10.4831
G01 X24.8498 Y10.4876
G01 X24.8195 Y10.4950
G01 X24.7883 Y10.4999
G01 X24.7748 Y10.5015
G01 X24.7375 Y10.5032
G01 X24.2035 Y10.5032
G01 X24.1899 Y10.5154
G01 X24.1817 Y10.5222
G01 X24.1627 Y10.5365
G01 X24.1527 Y10.5433
G01 X24.1328 Y10.5554
G01 X24.1232 Y10.5608
G01 X24.1016 Y10.5711
G01 X24.0907 Y10.5759
G01 X24.0682 Y10.5842
G01 X24.0577 Y10.5876
G01 X24.0247 Y10.5958
G01 X24.0139 Y10.5978
G01 X23.9902 Y10.6011
G01 X23.9792 Y10.6020
G01 X23.9569 Y10.6030
G01 X22.3025 Y10.6031
G01 X22.2758 Y10.6020
G01 X22.2605 Y10.6006
G01 X22.2373 Y10.5972
G01 X22.2251 Y10.5947
G01 X22.2066 Y10.5901
G01 X22.1973 Y10.5876
G01 X22.1863 Y10.5840
G01 X22.1666 Y10.5769
G01 X22.1542 Y10.5715
G01 X22.1360 Y10.5629
G01 X22.1269 Y10.5581
G01 X22.1067 Y10.5461
G01 X22.0966 Y10.5395
G01 X22.0778 Y10.5258
G01 X22.0692 Y10.5189
G01 X22.0506 Y10.5023
G01 X22.0410 Y10.4929
G01 X22.0260 Y10.4765
G01 X22.0189 Y10.4681
G01 X22.0044 Y10.4489
G01 X22.0010 Y10.4442
G01 X22.0005 Y10.4434
G01 X21.9996 Y10.4421
G01 X21.9980 Y10.4398
G01 X21.9806 Y10.4106
G01 X21.9755 Y10.4008
G01 X21.9655 Y10.3791
G01 X21.9611 Y10.3680
G01 X21.9532 Y10.3454
G01 X21.9502 Y10.3348
G01 X21.9447 Y10.3122
G01 X21.9424 Y10.3002
G01 X21.9391 Y10.2767
G01 X21.9381 Y10.2662
G01 X21.9372 Y10.2481
G01 X22.0892 Y10.2406
G01 X22.0891 Y9.9359
G01 X22.0901 Y9.9166
G01 X22.0927 Y9.8989
G01 X22.0983 Y9.8756
G01 X22.1053 Y9.8558
G01 X22.1158 Y9.8342
G01 X22.1251 Y9.8189
G01 X22.1356 Y9.8046
G01 X22.1516 Y9.7866
G01 X22.1696 Y9.7706
G01 X22.1839 Y9.7601
G01 X22.1992 Y9.7508
G01 X22.2208 Y9.7403
G01 X22.2406 Y9.7333
G01 X22.2609 Y9.7282
G01 X22.2785 Y9.7255
G01 X22.3025 Y9.7241
G01 X23.9556 Y9.7242
G01 X23.9765 Y9.7255
G01 X23.9941 Y9.7282
G01 X24.0114 Y9.7325
G01 X24.0342 Y9.7403
G01 X24.0545 Y9.7500
G01 X24.0711 Y9.7601
G01 X24.0854 Y9.7706
G01 X24.1023 Y9.7855
G01 X24.1184 Y9.8033
G01 X24.1291 Y9.8177
G01 X24.1331 Y9.8240
G01 X24.6284 Y9.8240
G01 X24.7490 Y9.7034
G01 X24.7490 Y7.9216
G01 X24.3637 Y7.5363
G01 X24.3463 Y7.5172
G01 X24.3309 Y7.4964
G01 X24.3191 Y7.4769
G01 X24.3162 Y7.4714
G01 X24.3054 Y7.4479
G01 X24.2978 Y7.4265
G01 X24.2916 Y7.4014
G01 X24.2878 Y7.3758
G01 X24.2865 Y7.3509
G01 X24.2094 Y7.3508
G01 X24.1820 Y7.3494
G01 X24.1498 Y7.3446
G01 X24.1215 Y7.3374
G01 X24.0926 Y7.3270
G01 X24.0648 Y7.3139
G01 X24.0410 Y7.2997
G01 X24.0358 Y7.2963
G01 X24.0113 Y7.2777
G01 X23.9909 Y7.2591
G01 X23.9723 Y7.2387
G01 X23.9683 Y7.2339
G01 X23.9519 Y7.2116
G01 X23.9376 Y7.1879
G01 X23.9347 Y7.1825
G01 X23.9230 Y7.1574
G01 X23.9126 Y7.1285
G01 X23.9051 Y7.0986
G01 X23.9008 Y7.0698
G01 X23.8991 Y7.0375
G01 X23.8991 Y6.0875
G01 X23.9006 Y6.0570
G01 X23.9046 Y6.0294
G01 X23.9058 Y6.0233
G01 X23.9126 Y5.9965
G01 X23.9230 Y5.9676
G01 X23.9361 Y5.9398
G01 X23.9519 Y5.9134
G01 X23.9702 Y5.8887
G01 X23.9909 Y5.8659
G01 X24.0137 Y5.8452
G01 X24.0384 Y5.8269
G01 X24.0621 Y5.8126
G01 X24.0675 Y5.8097
G01 X24.0955 Y5.7968
G01 X24.1215 Y5.7876
G01 X24.1529 Y5.7798
G01 X24.1818 Y5.7756
G01 X24.2094 Y5.7742
G01 X24.2865 Y5.7741
G01 X24.2865 Y5.0384
G01 X24.1969 Y5.0383
G01 X24.1695 Y5.0369
G01 X24.1389 Y5.0324
G01 X24.1090 Y5.0249
G01 X24.0801 Y5.0145
G01 X24.0523 Y5.0014
G01 X24.0246 Y4.9847
G01 X24.0012 Y4.9673
G01 X23.9806 Y4.9488
G01 X23.9762 Y4.9444
G01 X23.9558 Y4.9214
G01 X23.9394 Y4.8991
G01 X23.9251 Y4.8754
G01 X23.9222 Y4.8700
G01 X23.9105 Y4.8449
G01 X23.9001 Y4.8160
G01 X23.8926 Y4.7861
G01 X23.8881 Y4.7557
G01 X23.8866 Y4.7250
G01 X23.8866 Y3.8250
G01 X23.8883 Y3.7928
G01 X23.8921 Y3.7669
G01 X23.8933 Y3.7608
G01 X23.9001 Y3.7340
G01 X23.9093 Y3.7080
G01 X23.9117 Y3.7022
G01 X23.9236 Y3.6773
G01 X23.9394 Y3.6509
G01 X23.9577 Y3.6262
G01 X23.9762 Y3.6056
G01 X23.9806 Y3.6012
G01 X24.0012 Y3.5827
G01 X24.0233 Y3.5662
G01 X24.0285 Y3.5628
G01 X24.0509 Y3.5494
G01 X24.0801 Y3.5355
G01 X24.1061 Y3.5261
G01 X24.1120 Y3.5243
G01 X24.1419 Y3.5171
G01 X24.1693 Y3.5131
G01 X24.1969 Y3.5117
G01 X24.9000 Y3.5116
G01 X24.9276 Y3.5129
G01 X24.9338 Y3.5135
G01 X24.9611 Y3.5176
G01 X24.9880 Y3.5243
G01 X24.9939 Y3.5261
G01 X25.0199 Y3.5355
G01 X25.0450 Y3.5472
G01 X25.0504 Y3.5501
G01 X25.0741 Y3.5644
G01 X25.0964 Y3.5808
G01 X25.1012 Y3.5848
G01 X25.1216 Y3.6034
G01 X25.1402 Y3.6238
G01 X25.1442 Y3.6286
G01 X25.1606 Y3.6509
G01 X25.1749 Y3.6746
G01 X25.1778 Y3.6800
G01 X25.1895 Y3.7051
G01 X25.1999 Y3.7340
G01 X25.2074 Y3.7639
G01 X25.2119 Y3.7943
G01 X25.2134 Y3.8234
G01 X25.2134 Y4.7250
G01 X25.2119 Y4.7557
G01 X25.2077 Y4.7846
G01 X25.1999 Y4.8160
G01 X25.1895 Y4.8449
G01 X25.1764 Y4.8727
G01 X25.1606 Y4.8991
G01 X25.1423 Y4.9238
G01 X25.1216 Y4.9466
G01 X25.0988 Y4.9673
G01 X25.0728 Y4.9864
G01 X25.0477 Y5.0014
G01 X25.0199 Y5.0145
G01 X24.9910 Y5.0249
G01 X24.9611 Y5.0324
G01 X24.9307 Y5.0369
G01 X24.9031 Y5.0383
G01 X24.8135 Y5.0384
G01 X24.8135 Y5.7741
G01 X24.8891 Y5.7741
G01 X24.9198 Y5.7758
G01 X24.9486 Y5.7801
G01 X24.9755 Y5.7868
G01 X24.9814 Y5.7886
G01 X25.0074 Y5.7980
G01 X25.0325 Y5.8097
G01 X25.0379 Y5.8126
G01 X25.0616 Y5.8269
G01 X25.0863 Y5.8452
G01 X25.1069 Y5.8637
G01 X25.1113 Y5.8681
G01 X25.1298 Y5.8887
G01 X25.1463 Y5.9108
G01 X25.1497 Y5.9160
G01 X25.1639 Y5.9398
G01 X25.1758 Y5.9647
G01 X25.1782 Y5.9705
G01 X25.1874 Y5.9965
G01 X25.1942 Y6.0233
G01 X25.1990 Y6.0537
G01 X25.1996 Y6.0599
G01 X25.2009 Y6.0875
G01 X25.2009 Y6.2990
G01 X26.0991 Y6.2990
G01 X26.0991 Y6.1125
G01 X26.1008 Y6.0803
G01 X26.1051 Y6.0514
G01 X26.1126 Y6.0215
G01 X26.1230 Y5.9926
G01 X26.1354 Y5.9661
G01 X26.1519 Y5.9384
G01 X26.1702 Y5.9137
G01 X26.1909 Y5.8909
G01 X26.2113 Y5.8723
G01 X26.2161 Y5.8683
G01 X26.2384 Y5.8519
G01 X26.2621 Y5.8376
G01 X26.2897 Y5.8242
G01 X26.2955 Y5.8218
G01 X26.3215 Y5.8126
G01 X26.3498 Y5.8054
G01 X26.3818 Y5.8006
G01 X26.4125 Y5.7991
G01 X27.1141 Y5.7991
G01 X27.1432 Y5.8006
G01 X27.1736 Y5.8051
G01 X27.2035 Y5.8126
G01 X27.2295 Y5.8218
G01 X27.2575 Y5.8347
G01 X27.2629 Y5.8376
G01 X27.2866 Y5.8519
G01 X27.3089 Y5.8683
G01 X27.3137 Y5.8723
G01 X27.3341 Y5.8909
G01 X27.3527 Y5.9113
G01 X27.3567 Y5.9161
G01 X27.3731 Y5.9384
G01 X27.3874 Y5.9621
G01 X27.3903 Y5.9675
G01 X27.4020 Y5.9926
G01 X27.4114 Y6.0186
G01 X27.4132 Y6.0245
G01 X27.4199 Y6.0514
G01 X27.4240 Y6.0787
G01 X27.4246 Y6.0849
G01 X27.4259 Y6.1125
G01 X27.4259 Y7.0125
G01 X27.4244 Y7.0432
G01 X27.4204 Y7.0706
G01 X27.4192 Y7.0767
G01 X27.4124 Y7.1035
G01 X27.4032 Y7.1295
G01 X27.4008 Y7.1353
G01 X27.3889 Y7.1602
G01 X27.3747 Y7.1840
G01 X27.3713 Y7.1892
G01 X27.3548 Y7.2113
G01 X27.3363 Y7.2319
G01 X27.3319 Y7.2363
G01 X27.3113 Y7.2548
G01 X27.2892 Y7.2713
G01 X27.2840 Y7.2747
G01 X27.2602 Y7.2889
G01 X27.2353 Y7.3008
G01 X27.2295 Y7.3032
G01 X27.2035 Y7.3124
G01 X27.1752 Y7.3196
G01 X27.1432 Y7.3244
G01 X27.1125 Y7.3259
G01 X26.4125 Y7.3259
G01 X26.3803 Y7.3242
G01 X26.3544 Y7.3204
G01 X26.3483 Y7.3192
G01 X26.3215 Y7.3124
G01 X26.2955 Y7.3032
G01 X26.2897 Y7.3008
G01 X26.2648 Y7.2889
G01 X26.2384 Y7.2731
G01 X26.2137 Y7.2548
G01 X26.1931 Y7.2363
G01 X26.1887 Y7.2319
G01 X26.1702 Y7.2113
G01 X26.1537 Y7.1892
G01 X26.1503 Y7.1840
G01 X26.1369 Y7.1616
G01 X26.1230 Y7.1324
G01 X26.1126 Y7.1035
G01 X26.1051 Y7.0736
G01 X26.1008 Y7.0448
G01 X26.0991 Y7.0125
G01 X26.0991 Y6.8260
G01 X25.2009 Y6.8260
G01 X25.2009 Y7.0375
G01 X25.1994 Y7.0682
G01 X25.1949 Y7.0986
G01 X25.1874 Y7.1285
G01 X25.1770 Y7.1574
G01 X25.1639 Y7.1852
G01 X25.1481 Y7.2116
G01 X25.1317 Y7.2339
G01 X25.1277 Y7.2387
G01 X25.1091 Y7.2591
G01 X25.0887 Y7.2777
G01 X25.0839 Y7.2817
G01 X25.0616 Y7.2981
G01 X25.0352 Y7.3139
G01 X25.0103 Y7.3258
G01 X25.0045 Y7.3282
G01 X24.9755 Y7.3382
G01 X24.9486 Y7.3449
G01 X24.9216 Y7.3490
G01 X25.1988 Y7.6262
G01 X25.2162 Y7.6453
G01 X25.2316 Y7.6661
G01 X25.2434 Y7.6856
G01 X25.2463 Y7.6911
G01 X25.2559 Y7.7117
G01 X25.2637 Y7.7331
G01 X25.2655 Y7.7390
G01 X25.2709 Y7.7611
G01 X25.2744 Y7.7836
G01 X25.2750 Y7.7898
G01 X25.2760 Y7.8125
G01 X25.2760 Y9.8125
G01 X25.2747 Y9.8383
G01 X25.2709 Y9.8641
G01 X25.2655 Y9.8860
G01 X25.2637 Y9.8919
G01 X25.2559 Y9.9133
G01 X25.2449 Y9.9367
G01 X25.2333 Y9.9563
G01 X25.2298 Y9.9614
G01 X25.2152 Y9.9809
G01 X25.1988 Y9.9988
G01 X24.9227 Y10.2749
G01 X24.9022 Y10.2931
G01 X24.8839 Y10.3066
G01 X24.8644 Y10.3184
G01 X24.8589 Y10.3213
G01 X24.8383 Y10.3309
G01 X24.8169 Y10.3387
G01 X24.8110 Y10.3405
G01 X24.7889 Y10.3459
G01 X24.7664 Y10.3494
G01 X24.7406 Y10.3509
G01 X24.1331 Y10.3510
G01 X24.1291 Y10.3573
G01 X24.1184 Y10.3717
G01 X24.1034 Y10.3884
G01 X24.0879 Y10.4025
G01 X24.0684 Y10.4166
G01 X24.0531 Y10.4257
G01 X24.0370 Y10.4334
G01 X24.0159 Y10.4412
G01 X23.9941 Y10.4468
G01 X23.9703 Y10.4501
G01 X23.9525 Y10.4509
G01 X22.3009 Y10.4509
G01 X22.2816 Y10.4499
G01 X22.2609 Y10.4468
G01 X22.2406 Y10.4417
G01 X22.2208 Y10.4347
G01 X22.2018 Y10.4256
G01 X22.1839 Y10.4149
G01 X22.1671 Y10.4025
G01 X22.1516 Y10.3884
G01 X22.1376 Y10.3729
G01 X22.1251 Y10.3561
G01 X22.1143 Y10.3381
G01 X22.1053 Y10.3192
G01 X22.0983 Y10.2994
G01 X22.0932 Y10.2791
G01 X22.0901 Y10.2584
G01 X22.0892 Y10.2406
G00 Z2.0000
G00 X24.1332 Y10.7225
G01 F400.00
G01 Z-0.0500
G01 F400.00
G01 X24.1474 Y10.7279
G01 X24.1606 Y10.7335
G01 X24.1835 Y10.7443
G01 X24.1976 Y10.7515
G01 X24.2101 Y10.7586
G01 X24.2318 Y10.7716
G01 X24.2447 Y10.7801
G01 X24.2573 Y10.7892
G01 X24.5684 Y10.7898
G01 X24.6004 Y10.7914
G01 X24.6184 Y10.7930
G01 X24.6530 Y10.7979
G01 X24.6719 Y10.8013
G01 X24.6738 Y10.7750
G01 X24.6744 Y10.7697
G01 X24.6831 Y10.7004
G01 X24.6836 Y10.6970
G01 X24.6870 Y10.6761
G01 X24.6917 Y10.6553
G01 X24.2579 Y10.6553
G01 X24.2453 Y10.6645
G01 X24.2334 Y10.6724
G01 X24.2111 Y10.6859
G01 X24.1980 Y10.6933
G01 X24.1838 Y10.7006
G01 X24.1615 Y10.7111
G01 X24.1478 Y10.7170
G01 X24.1332 Y10.7225
G01 X24.8341 Y10.7193
G01 X24.8359 Y10.7078
G01 X24.8381 Y10.6973
G01 X24.8407 Y10.6870
G01 X24.8439 Y10.6767
G01 X24.8476 Y10.6667
G01 X24.8518 Y10.6568
G01 X24.8565 Y10.6472
G01 X24.8617 Y10.6378
G01 X24.8692 Y10.6258
G01 X24.8786 Y10.6128
G01 X24.9336 Y10.5473
G01 X24.9407 Y10.5399
G01 X24.9494 Y10.5316
G01 X24.9654 Y10.5187
G01 X25.0466 Y10.4642
G01 X25.1998 Y10.3110
G01 X25.2193 Y10.2933
G01 X25.2290 Y10.2858
G01 X25.2377 Y10.2796
G01 X25.2500 Y10.2721
G01 X25.2633 Y10.2651
G01 X25.3389 Y10.2307
G01 X25.3516 Y10.2260
G01 X25.3642 Y10.2222
G01 X25.3774 Y10.2190
G01 X25.3914 Y10.2167
G01 X25.4049 Y10.2153
G01 X25.4181 Y10.2147
G01 X25.4316 Y10.2150
G01 X25.4467 Y10.2163
G01 X25.5273 Y10.2280
G01 X25.5446 Y10.2318
G01 X25.5608 Y10.2368
G01 X25.5775 Y10.2434
G01 X25.5927 Y10.2510
G01 X25.6078 Y10.2600
G01 X25.6217 Y10.2699
G01 X25.6307 Y10.2773
G01 X25.6889 Y10.3279
G01 X25.7019 Y10.3411
G01 X25.7149 Y10.3569
G01 X25.7241 Y10.3701
G01 X25.7314 Y10.3826
G01 X25.7386 Y10.3969
G01 X25.7447 Y10.4118
G01 X25.7490 Y10.4248
G01 X25.7697 Y10.4955
G01 X25.7728 Y10.5081
G01 X25.7752 Y10.5214
G01 X25.7769 Y10.5367
G01 X25.7776 Y10.5530
G01 X25.7776 Y11.0720
G01 X25.7764 Y11.1001
G01 X25.7750 Y11.1116
G01 X25.7732 Y11.1221
G01 X25.7706 Y11.1340
G01 X25.7677 Y11.1443
G01 X25.7638 Y11.1557
G01 X25.7391 Y11.2221
G01 X25.7335 Y11.2356
G01 X25.7267 Y11.2491
G01 X25.7194 Y11.2616
G01 X25.7103 Y11.2748
G01 X25.7027 Y11.2845
G01 X25.6950 Y11.2932
G01 X25.6861 Y11.3022
G01 X25.6775 Y11.3100
G01 X25.6668 Y11.3186
G01 X25.6070 Y11.3633
G01 X25.5920 Y11.3732
G01 X25.5756 Y11.3820
G01 X25.5583 Y11.3895
G01 X25.5407 Y11.3954
G01 X25.5214 Y11.4000
G01 X25.5011 Y11.4028
G01 X25.4236 Y11.4084
G01 X25.4037 Y11.4086
G01 X25.3930 Y11.4079
G01 X25.3808 Y11.4065
G01 X25.3703 Y11.4047
G01 X25.3589 Y11.4022
G01 X25.3486 Y11.3993
G01 X25.3367 Y11.3952
G01 X25.3267 Y11.3913
G01 X25.3170 Y11.3868
G01 X25.2392 Y11.3444
G01 X25.2228 Y11.3334
G01 X25.2067 Y11.3204
G01 X25.1979 Y11.3121
G01 X24.9216 Y11.0358
G01 X24.9101 Y11.0237
G01 X24.9022 Y11.0145
G01 X24.8953 Y11.0055
G01 X24.8880 Y10.9950
G01 X24.8818 Y10.9845
G01 X24.8752 Y10.9720
G01 X24.8446 Y10.9081
G01 X24.8381 Y10.8929
G01 X24.8329 Y10.8777
G01 X24.8289 Y10.8622
G01 X24.8260 Y10.8464
G01 X24.8246 Y10.8348
G01 X24.8239 Y10.8242
G01 X24.8238 Y10.8119
G01 X24.8242 Y10.8012
G01 X24.8254 Y10.7891
G01 X24.8341 Y10.7193
G01 X24.9096 Y10.7288
G01 X24.9122 Y10.7142
G01 X24.9166 Y10.6995
G01 X24.9219 Y10.6866
G01 X24.9294 Y10.6728
G01 X24.9341 Y10.6657
G01 X24.9404 Y10.6575
G01 X24.9858 Y10.6031
G01 X24.9918 Y10.5964
G01 X25.0014 Y10.5872
G01 X25.0118 Y10.5790
G01 X25.0951 Y10.5233
G01 X25.2527 Y10.3658
G01 X25.2662 Y10.3533
G01 X25.2771 Y10.3448
G01 X25.2858 Y10.3392
G01 X25.2966 Y10.3335
G01 X25.3679 Y10.3010
G01 X25.3795 Y10.2969
G01 X25.3895 Y10.2943
G01 X25.3997 Y10.2923
G01 X25.4116 Y10.2911
G01 X25.4255 Y10.2909
G01 X25.4377 Y10.2919
G01 X25.5094 Y10.3022
G01 X25.5205 Y10.3042
G01 X25.5353 Y10.3085
G01 X25.5482 Y10.3137
G01 X25.5604 Y10.3201
G01 X25.5720 Y10.3277
G01 X25.5809 Y10.3348
G01 X25.6381 Y10.3846
G01 X25.6443 Y10.3908
G01 X25.6499 Y10.3972
G01 X25.6553 Y10.4042
G01 X25.6601 Y10.4112
G01 X25.6646 Y10.4188
G01 X25.6684 Y10.4264
G01 X25.6719 Y10.4345
G01 X25.6748 Y10.4425
G01 X25.6961 Y10.5146
G01 X25.6994 Y10.5290
G01 X25.7009 Y10.5407
G01 X25.7015 Y10.5530
G01 X25.7015 Y11.0733
G01 X25.7010 Y11.0883
G01 X25.7000 Y11.0986
G01 X25.6979 Y11.1106
G01 X25.6949 Y11.1222
G01 X25.6670 Y11.1974
G01 X25.6621 Y11.2086
G01 X25.6563 Y11.2191
G01 X25.6505 Y11.2277
G01 X25.6441 Y11.2359
G01 X25.6372 Y11.2436
G01 X25.6296 Y11.2508
G01 X25.6209 Y11.2579
G01 X25.5614 Y11.3024
G01 X25.5482 Y11.3105
G01 X25.5358 Y11.3166
G01 X25.5210 Y11.3219
G01 X25.5060 Y11.3254
G01 X25.4922 Y11.3272
G01 X25.4191 Y11.3324
G01 X25.4087 Y11.3326
G01 X25.3964 Y11.3318
G01 X25.3862 Y11.3303
G01 X25.3745 Y11.3276
G01 X25.3628 Y11.3238
G01 X25.3532 Y11.3198
G01 X25.3448 Y11.3156
G01 X25.2827 Y11.2817
G01 X25.2743 Y11.2766
G01 X25.2676 Y11.2719
G01 X25.2597 Y11.2657
G01 X25.2517 Y11.2583
G01 X24.9754 Y10.9820
G01 X24.9666 Y10.9727
G01 X24.9600 Y10.9651
G01 X24.9522 Y10.9542
G01 X24.9455 Y10.9426
G01 X24.9135 Y10.8757
G01 X24.9097 Y10.8671
G01 X24.9052 Y10.8539
G01 X24.9021 Y10.8405
G01 X24.9001 Y10.8248
G01 X24.8999 Y10.8110
G01 X24.9008 Y10.7991
G01 X24.9096 Y10.7288
G01 X24.9851 Y10.7383
G01 X24.9866 Y10.7306
G01 X24.9890 Y10.7231
G01 X24.9916 Y10.7173
G01 X24.9956 Y10.7106
G01 X24.9994 Y10.7055
G01 X25.0442 Y10.6519
G01 X25.0482 Y10.6475
G01 X25.0527 Y10.6434
G01 X25.0576 Y10.6399
G01 X25.1436 Y10.5824
G01 X25.3055 Y10.4205
G01 X25.3171 Y10.4098
G01 X25.3263 Y10.4037
G01 X25.3940 Y10.3726
G01 X25.3999 Y10.3703
G01 X25.4075 Y10.3682
G01 X25.4137 Y10.3672
G01 X25.4215 Y10.3669
G01 X25.4294 Y10.3675
G01 X25.5001 Y10.3777
G01 X25.5078 Y10.3795
G01 X25.5166 Y10.3829
G01 X25.5235 Y10.3867
G01 X25.5298 Y10.3913
G01 X25.5862 Y10.4402
G01 X25.5915 Y10.4460
G01 X25.5961 Y10.4524
G01 X25.5991 Y10.4579
G01 X25.6022 Y10.4651
G01 X25.6232 Y10.5366
G01 X25.6245 Y10.5425
G01 X25.6252 Y10.5485
G01 X25.6254 Y11.0720
G01 X25.6249 Y11.0862
G01 X25.6237 Y11.0940
G01 X25.6216 Y11.1015
G01 X25.5967 Y11.1684
G01 X25.5927 Y11.1770
G01 X25.5885 Y11.1837
G01 X25.5835 Y11.1897
G01 X25.5765 Y11.1961
G01 X25.5193 Y11.2389
G01 X25.5100 Y11.2447
G01 X25.4998 Y11.2488
G01 X25.4937 Y11.2504
G01 X25.4874 Y11.2513
G01 X25.4146 Y11.2565
G01 X25.4067 Y11.2564
G01 X25.3989 Y11.2553
G01 X25.3899 Y11.2527
G01 X25.3813 Y11.2488
G01 X25.3187 Y11.2146
G01 X25.3124 Y11.2105
G01 X25.3066 Y11.2056
G01 X25.0292 Y10.9282
G01 X25.0214 Y10.9199
G01 X25.0176 Y10.9151
G01 X25.0123 Y10.9059
G01 X24.9814 Y10.8414
G01 X24.9787 Y10.8341
G01 X24.9768 Y10.8264
G01 X24.9760 Y10.8186
G01 X24.9762 Y10.8092
G01 X24.9851 Y10.7383
G00 Z2.0000
G00 X25.5172 Y10.0727
G01 F400.00
G01 Z-0.0500
G01 F400.00
G01 X25.5518 Y10.0778
G01 X25.5747 Y10.0825
G01 X25.6004 Y10.0896
G01 X25.6245 Y10.0982
G01 X25.6492 Y10.1090
G01 X25.6613 Y10.1151
G01 X25.6732 Y10.1217
G01 X25.6848 Y10.1286
G01 X25.6964 Y10.1362
G01 X25.7179 Y10.1520
G01 X25.7240 Y10.1328
G01 X25.7365 Y10.0987
G01 X25.7401 Y10.0901
G01 X25.7419 Y10.0858
G01 X25.7422 Y10.0852
G01 X25.7426 Y10.0844
G01 X25.7427 Y10.0841
G01 X25.7438 Y10.0818
G01 X25.7578 Y10.0523
G01 X25.7332 Y10.0488
G01 X25.7321 Y10.0486
G01 X25.7232 Y10.0472
G01 X25.7003 Y10.0425
G01 X25.6746 Y10.0354
G01 X25.6505 Y10.0268
G01 X25.6258 Y10.0160
G01 X25.6137 Y10.0099
G01 X25.6018 Y10.0033
G01 X25.5902 Y9.9964
G01 X25.5786 Y9.9888
G01 X25.5571 Y9.9730
G01 X25.5510 Y9.9922
G01 X25.5385 Y10.0263
G01 X25.5312 Y10.0432
G01 X25.5172 Y10.0727
G01 X25.5915 Y9.8019
G01 X25.5823 Y9.7934
G01 X25.5737 Y9.7846
G01 X25.5661 Y9.7758
G01 X25.5584 Y9.7658
G01 X25.5518 Y9.7562
G01 X25.5454 Y9.7457
G01 X25.5399 Y9.7355
G01 X25.5346 Y9.7240
G01 X25.5303 Y9.7132
G01 X25.5269 Y9.7031
G01 X25.5046 Y9.6269
G01 X25.5020 Y9.6160
G01 X25.5001 Y9.6059
G01 X25.4986 Y9.5943
G01 X25.4977 Y9.5831
G01 X25.4974 Y9.5720
G01 X25.4974 Y7.7647
G01 X25.4893 Y7.7237
G01 X25.4871 Y7.7096
G01 X25.4861 Y7.6986
G01 X25.4839 Y7.6636
G01 X25.4835 Y7.6462
G01 X25.4843 Y7.6312
G01 X25.4859 Y7.6182
G01 X25.4884 Y7.6050
G01 X25.4918 Y7.5913
G01 X25.4969 Y7.5757
G01 X25.5216 Y7.5094
G01 X25.5258 Y7.4990
G01 X25.5308 Y7.4885
G01 X25.5366 Y7.4776
G01 X25.5422 Y7.4685
G01 X25.5487 Y7.4589
G01 X25.5564 Y7.4489
G01 X25.5634 Y7.4408
G01 X25.5714 Y7.4323
G01 X25.5792 Y7.4250
G01 X25.5939 Y7.4128
G01 X25.6506 Y7.3704
G01 X25.6605 Y7.3634
G01 X25.6717 Y7.3565
G01 X25.6837 Y7.3501
G01 X25.6957 Y7.3446
G01 X25.7074 Y7.3401
G01 X25.7185 Y7.3365
G01 X25.7313 Y7.3331
G01 X25.7437 Y7.3307
G01 X25.7568 Y7.3289
G01 X25.8381 Y7.3230
G01 X25.8516 Y7.3227
G01 X25.8667 Y7.3234
G01 X25.8836 Y7.3255
G01 X25.8993 Y7.3287
G01 X25.9148 Y7.3330
G01 X25.9299 Y7.3384
G01 X25.9397 Y7.3427
G01 X25.9493 Y7.3474
G01 X26.0149 Y7.3832
G01 X26.0305 Y7.3927
G01 X26.0462 Y7.4044
G01 X26.0585 Y7.4151
G01 X26.0784 Y7.4350
G01 X26.1849 Y7.5006
G01 X26.3051 Y7.5405
G01 X26.3735 Y7.5474
G01 X27.1515 Y7.5474
G01 X27.2199 Y7.5405
G01 X27.3401 Y7.5006
G01 X27.4465 Y7.4350
G01 X27.5237 Y7.3579
G01 X27.5312 Y7.3508
G01 X27.5402 Y7.3432
G01 X27.5555 Y7.3320
G01 X27.6056 Y7.2999
G01 X27.6182 Y7.2926
G01 X27.6319 Y7.2860
G01 X27.6451 Y7.2806
G01 X27.6596 Y7.2759
G01 X27.6737 Y7.2723
G01 X27.6887 Y7.2697
G01 X27.7024 Y7.2681
G01 X27.7740 Y7.2630
G01 X27.7930 Y7.2625
G01 X27.8046 Y7.2631
G01 X27.8181 Y7.2645
G01 X27.8311 Y7.2667
G01 X27.8443 Y7.2698
G01 X27.8570 Y7.2736
G01 X27.8688 Y7.2779
G01 X27.8809 Y7.2832
G01 X27.8922 Y7.2889
G01 X27.9572 Y7.3244
G01 X27.9675 Y7.3307
G01 X27.9767 Y7.3370
G01 X27.9888 Y7.3465
G01 X27.9996 Y7.3562
G01 X28.0785 Y7.4350
G01 X28.1849 Y7.5006
G01 X28.3051 Y7.5405
G01 X28.3735 Y7.5474
G01 X29.1515 Y7.5474
G01 X29.2199 Y7.5405
G01 X29.3401 Y7.5006
G01 X29.4465 Y7.4350
G01 X29.5350 Y7.3465
G01 X29.6006 Y7.2401
G01 X29.6405 Y7.1199
G01 X29.6474 Y7.0515
G01 X29.6474 Y6.5040
G01 X29.6477 Y6.4935
G01 X29.6485 Y6.4830
G01 X29.6519 Y6.4512
G01 X29.6544 Y6.4356
G01 X29.6589 Y6.4174
G01 X29.6647 Y6.4000
G01 X29.6699 Y6.3877
G01 X29.6758 Y6.3760
G01 X29.7109 Y6.3116
G01 X29.7196 Y6.2973
G01 X29.7255 Y6.2888
G01 X29.7324 Y6.2799
G01 X29.7392 Y6.2721
G01 X29.7466 Y6.2642
G01 X30.5264 Y5.4844
G01 X30.5356 Y5.4758
G01 X30.5653 Y5.4515
G01 X30.5785 Y5.4418
G01 X30.5874 Y5.4361
G01 X30.5965 Y5.4308
G01 X30.6147 Y5.4220
G01 X30.6255 Y5.4177
G01 X30.6355 Y5.4144
G01 X30.7099 Y5.3925
G01 X30.7290 Y5.3882
G01 X30.7469 Y5.3858
G01 X30.7665 Y5.3849
G01 X38.7585 Y5.3849
G01 X38.7768 Y5.3857
G01 X38.8122 Y5.3895
G01 X38.8279 Y5.3921
G01 X38.8433 Y5.3959
G01 X38.8625 Y5.4022
G01 X38.8796 Y5.4097
G01 X38.9524 Y5.4492
G01 X38.9642 Y5.4565
G01 X38.9761 Y5.4648
G01 X38.9866 Y5.4733
G01 X38.9973 Y5.4831
G01 X41.8167 Y8.3025
G01 X41.8297 Y8.3170
G01 X41.8485 Y8.3403
G01 X41.8552 Y8.3491
G01 X41.8611 Y8.3579
G01 X41.8666 Y8.3669
G01 X41.8717 Y8.3762
G01 X41.8763 Y8.3858
G01 X41.8813 Y8.3978
G01 X41.8854 Y8.4096
G01 X41.9068 Y8.4825
G01 X41.9110 Y8.4998
G01 X41.9137 Y8.5177
G01 X41.9147 Y8.5295
G01 X41.9151 Y8.5415
G01 X41.9151 Y10.7095
G01 X41.9142 Y10.7332
G01 X41.9123 Y10.7507
G01 X41.9085 Y10.7700
G01 X41.9026 Y10.7895
G01 X41.8755 Y10.8624
G01 X41.8713 Y10.8722
G01 X41.8663 Y10.8827
G01 X41.8611 Y10.8921
G01 X41.8545 Y10.9028
G01 X41.8478 Y10.9123
G01 X41.8412 Y10.9208
G01 X41.8331 Y10.9300
G01 X41.8250 Y10.9384
G01 X41.8157 Y10.9469
G01 X41.8074 Y10.9537
G01 X41.7469 Y10.9991
G01 X41.7340 Y11.0079
G01 X41.7240 Y11.0138
G01 X41.7123 Y11.0199
G01 X41.6999 Y11.0254
G01 X41.6875 Y11.0300
G01 X41.6754 Y11.0337
G01 X41.6641 Y11.0364
G01 X41.6520 Y11.0386
G01 X41.6405 Y11.0401
G01 X41.5601 Y11.0459
G01 X41.5475 Y11.0462
G01 X41.5343 Y11.0457
G01 X41.5155 Y11.0436
G01 X41.4964 Y11.0397
G01 X41.4768 Y11.0337
G01 X41.4593 Y11.0266
G01 X41.4463 Y11.0201
G01 X41.3775 Y10.9824
G01 X41.3615 Y10.9718
G01 X41.3461 Y10.9595
G01 X41.3354 Y10.9496
G01 X40.5716 Y10.1858
G01 X40.4922 Y10.1328
G01 X40.4040 Y10.0962
G01 X40.3103 Y10.0776
G01 X39.4429 Y10.0775
G01 X39.4250 Y10.0764
G01 X39.4082 Y10.0740
G01 X39.3376 Y10.0579
G01 X39.3200 Y10.0524
G01 X39.3032 Y10.0455
G01 X39.2885 Y10.0379
G01 X39.2728 Y10.0283
G01 X39.2623 Y10.0207
G01 X39.2528 Y10.0129
G01 X39.1963 Y9.9621
G01 X39.1818 Y9.9476
G01 X39.1742 Y9.9387
G01 X39.1679 Y9.9305
G01 X39.1593 Y9.9178
G01 X39.1350 Y9.8785
G01 X39.0465 Y9.7900
G01 X38.9401 Y9.7244
G01 X38.8199 Y9.6845
G01 X38.7515 Y9.6776
G01 X38.0378 Y9.6776
G01 X38.0264 Y9.6773
G01 X38.0150 Y9.6763
G01 X38.0003 Y9.6743
G01 X37.9867 Y9.6714
G01 X37.9169 Y9.6523
G01 X37.8993 Y9.6466
G01 X37.8816 Y9.6391
G01 X37.8702 Y9.6332
G01 X37.8589 Y9.6265
G01 X37.8483 Y9.6193
G01 X37.8386 Y9.6119
G01 X37.8300 Y9.6046
G01 X37.8225 Y9.5974
G01 X37.7993 Y9.5728
G01 X37.7904 Y9.5875
G01 X37.7798 Y9.6020
G01 X37.7687 Y9.6149
G01 X37.7562 Y9.6273
G01 X37.7473 Y9.6349
G01 X37.7373 Y9.6426
G01 X37.6748 Y9.6859
G01 X37.6573 Y9.6966
G01 X37.6389 Y9.7056
G01 X37.6245 Y9.7112
G01 X37.5849 Y9.7244
G01 X37.4785 Y9.7900
G01 X37.3900 Y9.8785
G01 X37.3172 Y9.9965
G01 X37.3084 Y10.0122
G01 X37.2985 Y10.0269
G01 X37.2887 Y10.0393
G01 X37.2391 Y10.0964
G01 X37.2262 Y10.1093
G01 X37.2119 Y10.1213
G01 X37.1962 Y10.1324
G01 X37.1800 Y10.1417
G01 X37.1635 Y10.1495
G01 X37.1460 Y10.1559
G01 X37.0745 Y10.1775
G01 X37.0594 Y10.1814
G01 X37.0464 Y10.1838
G01 X37.0329 Y10.1854
G01 X37.0213 Y10.1862
G01 X37.0081 Y10.1863
G01 X36.9974 Y10.1857
G01 X36.9849 Y10.1844
G01 X36.9743 Y10.1827
G01 X36.9638 Y10.1805
G01 X36.8872 Y10.1589
G01 X36.8761 Y10.1554
G01 X36.8579 Y10.1482
G01 X36.8411 Y10.1397
G01 X36.8253 Y10.1300
G01 X36.8101 Y10.1187
G01 X36.7980 Y10.1081
G01 X36.7868 Y10.0966
G01 X36.7371 Y10.0403
G01 X36.7261 Y10.0263
G01 X36.7165 Y10.0121
G01 X36.7078 Y9.9965
G01 X36.6350 Y9.8785
G01 X36.5465 Y9.7900
G01 X36.4401 Y9.7244
G01 X36.3199 Y9.6845
G01 X36.2515 Y9.6776
G01 X35.9626 Y9.6775
G01 X35.9453 Y9.6767
G01 X35.9287 Y9.6746
G01 X35.9106 Y9.6707
G01 X35.8439 Y9.6524
G01 X35.8331 Y9.6491
G01 X35.8225 Y9.6453
G01 X35.8060 Y9.6380
G01 X35.7899 Y9.6293
G01 X35.7749 Y9.6193
G01 X35.7612 Y9.6086
G01 X35.7528 Y9.6010
G01 X35.7454 Y9.5937
G01 X35.6952 Y9.5397
G01 X35.6857 Y9.5287
G01 X35.6766 Y9.5166
G01 X35.6707 Y9.5076
G01 X35.6653 Y9.4984
G01 X35.6603 Y9.4889
G01 X35.6558 Y9.4792
G01 X35.6517 Y9.4693
G01 X35.6482 Y9.4592
G01 X35.6452 Y9.4489
G01 X35.6425 Y9.4376
G01 X35.6289 Y9.3622
G01 X35.6271 Y9.3502
G01 X35.6260 Y9.3380
G01 X35.6256 Y9.3263
G01 X35.6259 Y9.3137
G01 X35.6268 Y9.3021
G01 X35.6284 Y9.2899
G01 X35.6306 Y9.2785
G01 X35.6336 Y9.2663
G01 X35.6371 Y9.2551
G01 X35.6419 Y9.2423
G01 X35.6706 Y9.1733
G01 X35.6760 Y9.1619
G01 X35.6812 Y9.1525
G01 X35.6872 Y9.1426
G01 X35.6942 Y9.1325
G01 X35.7014 Y9.1233
G01 X35.7096 Y9.1138
G01 X35.7178 Y9.1055
G01 X35.7268 Y9.0972
G01 X35.7401 Y9.0865
G01 X35.7622 Y9.0711
G01 X35.7777 Y9.0574
G01 X35.7933 Y9.0460
G01 X35.8046 Y9.0389
G01 X35.8162 Y9.0327
G01 X35.9340 Y8.9600
G01 X36.0291 Y8.8649
G01 X36.0602 Y8.8290
G01 X36.0734 Y8.8155
G01 X36.0855 Y8.8050
G01 X36.0968 Y8.7964
G01 X36.1103 Y8.7877
G01 X36.1244 Y8.7800
G01 X36.1345 Y8.7752
G01 X36.1990 Y8.7472
G01 X36.2131 Y8.7417
G01 X36.2260 Y8.7376
G01 X36.2406 Y8.7339
G01 X36.2536 Y8.7316
G01 X36.2671 Y8.7301
G01 X36.2787 Y8.7294
G01 X36.2920 Y8.7295
G01 X36.3045 Y8.7302
G01 X36.3161 Y8.7316
G01 X36.3956 Y8.7446
G01 X36.4127 Y8.7488
G01 X36.4289 Y8.7540
G01 X36.4463 Y8.7614
G01 X36.4627 Y8.7701
G01 X36.4799 Y8.7812
G01 X36.4947 Y8.7929
G01 X36.5534 Y8.8456
G01 X36.5633 Y8.8556
G01 X36.5708 Y8.8641
G01 X36.6663 Y8.9596
G01 X36.7726 Y9.0252
G01 X36.8719 Y9.0581
G01 X36.8719 Y8.9850
G01 X36.8580 Y8.9808
G01 X36.8317 Y8.9714
G01 X36.8139 Y8.9641
G01 X36.7887 Y8.9522
G01 X36.7789 Y8.9472
G01 X36.7421 Y8.9251
G01 X36.7327 Y8.9185
G01 X36.7061 Y8.8986
G01 X36.6781 Y8.8737
G01 X36.6638 Y8.8594
G01 X36.6448 Y8.8383
G01 X36.6362 Y8.8280
G01 X36.6164 Y8.8013
G01 X36.6075 Y8.7876
G01 X36.5899 Y8.7578
G01 X36.5742 Y8.7253
G01 X36.5673 Y8.7090
G01 X36.5558 Y8.6768
G01 X36.5521 Y8.6643
G01 X36.5447 Y8.6344
G01 X36.5419 Y8.6197
G01 X36.5369 Y8.5850
G01 X36.5359 Y8.5730
G01 X36.5345 Y8.5394
G01 X36.5344 Y7.5875
G01 X36.5361 Y7.5497
G01 X36.5380 Y7.5314
G01 X36.5438 Y7.4948
G01 X36.5542 Y7.4533
G01 X36.5667 Y7.4175
G01 X36.5740 Y7.4001
G01 X36.5899 Y7.3672
G01 X36.6110 Y7.3317
G01 X36.6187 Y7.3206
G01 X36.6389 Y7.2936
G01 X36.6467 Y7.2845
G01 X36.6684 Y7.2607
G01 X36.6774 Y7.2519
G01 X36.7020 Y7.2298
G01 X36.7115 Y7.2222
G01 X36.7331 Y7.2062
G01 X36.7466 Y7.1970
G01 X36.7713 Y7.1821
G01 X36.7896 Y7.1724
G01 X36.8139 Y7.1609
G01 X36.8250 Y7.1561
G01 X36.8580 Y7.1442
G01 X36.8719 Y7.1400
G01 X36.8719 Y7.0669
G01 X36.7726 Y7.0998
G01 X36.6663 Y7.1654
G01 X36.5709 Y7.2608
G01 X36.5414 Y7.2949
G01 X36.5303 Y7.3065
G01 X36.5206 Y7.3154
G01 X36.5108 Y7.3234
G01 X36.5001 Y7.3311
G01 X36.4903 Y7.3373
G01 X36.4784 Y7.3439
G01 X36.4669 Y7.3494
G01 X36.4002 Y7.3784
G01 X36.3848 Y7.3843
G01 X36.3679 Y7.3892
G01 X36.3512 Y7.3927
G01 X36.3334 Y7.3949
G01 X36.3174 Y7.3957
G01 X36.3032 Y7.3953
G01 X36.2872 Y7.3938
G01 X36.2034 Y7.3800
G01 X36.1893 Y7.3767
G01 X36.1749 Y7.3721
G01 X36.1617 Y7.3670
G01 X36.1494 Y7.3612
G01 X36.1386 Y7.3554
G01 X36.1295 Y7.3498
G01 X36.1207 Y7.3438
G01 X36.1121 Y7.3373
G01 X36.1029 Y7.3295
G01 X36.0521 Y7.2840
G01 X36.0402 Y7.2724
G01 X36.0298 Y7.2609
G01 X35.9340 Y7.1650
G01 X35.8276 Y7.0994
G01 X35.7074 Y7.0595
G01 X35.6390 Y7.0526
G01 X34.8860 Y7.0526
G01 X34.8176 Y7.0595
G01 X34.6974 Y7.0994
G01 X34.5910 Y7.1650
G01 X34.4960 Y7.2599
G01 X34.4826 Y7.2723
G01 X34.4724 Y7.2803
G01 X34.4616 Y7.2878
G01 X34.4132 Y7.3189
G01 X34.3983 Y7.3273
G01 X34.3837 Y7.3342
G01 X34.3686 Y7.3399
G01 X34.3531 Y7.3445
G01 X34.3373 Y7.3479
G01 X34.3266 Y7.3496
G01 X34.3164 Y7.3506
G01 X34.2355 Y7.3562
G01 X34.2229 Y7.3561
G01 X34.2097 Y7.3553
G01 X34.1963 Y7.3536
G01 X34.1833 Y7.3511
G01 X34.1720 Y7.3483
G01 X34.1591 Y7.3443
G01 X34.1467 Y7.3396
G01 X34.1353 Y7.3344
G01 X34.0642 Y7.2958
G01 X34.0487 Y7.2864
G01 X34.0362 Y7.2773
G01 X34.0230 Y7.2661
G01 X33.9840 Y7.2275
G01 X33.8776 Y7.1619
G01 X33.7574 Y7.1220
G01 X33.6890 Y7.1151
G01 X32.9110 Y7.1151
G01 X32.8426 Y7.1220
G01 X32.7224 Y7.1619
G01 X32.6160 Y7.2275
G01 X32.5391 Y7.3043
G01 X32.5242 Y7.3177
G01 X32.5078 Y7.3300
G01 X32.4599 Y7.3608
G01 X32.4490 Y7.3673
G01 X32.4381 Y7.3731
G01 X32.4233 Y7.3796
G01 X32.4081 Y7.3851
G01 X32.3941 Y7.3890
G01 X32.3782 Y7.3922
G01 X32.3592 Y7.3944
G01 X32.2885 Y7.3995
G01 X32.2764 Y7.4000
G01 X32.2632 Y7.3997
G01 X32.2497 Y7.3987
G01 X32.2348 Y7.3965
G01 X32.2218 Y7.3937
G01 X32.2088 Y7.3900
G01 X32.1963 Y7.3856
G01 X32.1838 Y7.3804
G01 X32.1716 Y7.3743
G01 X32.1056 Y7.3382
G01 X32.0953 Y7.3320
G01 X32.0860 Y7.3256
G01 X32.0738 Y7.3161
G01 X32.0629 Y7.3064
G01 X31.9840 Y7.2275
G01 X31.8776 Y7.1619
G01 X31.7574 Y7.1220
G01 X31.6890 Y7.1151
G01 X30.9110 Y7.1151
G01 X30.8426 Y7.1220
G01 X30.7224 Y7.1619
G01 X30.6160 Y7.2275
G01 X30.5275 Y7.3160
G01 X30.4619 Y7.4224
G01 X30.4220 Y7.5426
G01 X30.4151 Y7.6110
G01 X30.4151 Y8.6099
G01 X30.4143 Y8.6230
G01 X30.4128 Y8.6353
G01 X30.4096 Y8.6522
G01 X30.4007 Y8.7065
G01 X30.3980 Y8.7177
G01 X30.3946 Y8.7294
G01 X30.3907 Y8.7402
G01 X30.3858 Y8.7517
G01 X30.3807 Y8.7621
G01 X30.3747 Y8.7727
G01 X30.3685 Y8.7825
G01 X30.3613 Y8.7926
G01 X30.3095 Y8.8548
G01 X30.2959 Y8.8695
G01 X30.2838 Y8.8805
G01 X30.2705 Y8.8908
G01 X30.2034 Y8.9358
G01 X29.9152 Y9.2240
G01 X29.9004 Y9.2377
G01 X29.8896 Y9.2466
G01 X29.8773 Y9.2554
G01 X29.8637 Y9.2637
G01 X29.8482 Y9.2716
G01 X29.7752 Y9.3046
G01 X29.7634 Y9.3090
G01 X29.7523 Y9.3124
G01 X29.7404 Y9.3154
G01 X29.7289 Y9.3175
G01 X29.7164 Y9.3192
G01 X29.7032 Y9.3201
G01 X29.6897 Y9.3202
G01 X29.6781 Y9.3196
G01 X29.6644 Y9.3182
G01 X29.5877 Y9.3070
G01 X29.5772 Y9.3048
G01 X29.5653 Y9.3018
G01 X29.5551 Y9.2985
G01 X29.5442 Y9.2944
G01 X29.5327 Y9.2893
G01 X29.5231 Y9.2845
G01 X29.5138 Y9.2792
G01 X29.5048 Y9.2734
G01 X29.4953 Y9.2666
G01 X29.4870 Y9.2599
G01 X29.4289 Y9.2096
G01 X29.4154 Y9.1964
G01 X29.4033 Y9.1824
G01 X29.3939 Y9.1694
G01 X29.3849 Y9.1549
G01 X29.3768 Y9.1389
G01 X29.3706 Y9.1241
G01 X29.3660 Y9.1102
G01 X29.3453 Y9.0395
G01 X29.3420 Y9.0260
G01 X29.3395 Y9.0118
G01 X29.3379 Y8.9965
G01 X29.3374 Y8.9824
G01 X29.3374 Y8.6103
G01 X29.3369 Y8.6039
G01 X29.3048 Y8.4934
G01 X29.2489 Y8.3988
G01 X29.1712 Y8.3211
G01 X29.0766 Y8.2652
G01 X28.9661 Y8.2331
G01 X28.9597 Y8.2326
G01 X27.1953 Y8.2326
G01 X27.1889 Y8.2331
G01 X27.0784 Y8.2652
G01 X26.9838 Y8.3211
G01 X26.9061 Y8.3988
G01 X26.8502 Y8.4934
G01 X26.8181 Y8.6039
G01 X26.8176 Y8.6103
G01 X26.8176 Y9.0247
G01 X26.8181 Y9.0311
G01 X26.8579 Y9.1683
G01 X26.8609 Y9.1797
G01 X26.8662 Y9.2042
G01 X26.8686 Y9.2195
G01 X26.8699 Y9.2359
G01 X26.8700 Y9.2533
G01 X26.8684 Y9.2725
G01 X26.8578 Y9.3466
G01 X26.8553 Y9.3601
G01 X26.8516 Y9.3747
G01 X26.8484 Y9.3849
G01 X26.8446 Y9.3949
G01 X26.8364 Y9.4130
G01 X26.8312 Y9.4224
G01 X26.8257 Y9.4315
G01 X26.8138 Y9.4482
G01 X26.7595 Y9.5111
G01 X26.7501 Y9.5209
G01 X26.7404 Y9.5299
G01 X26.7257 Y9.5416
G01 X26.7102 Y9.5519
G01 X26.6936 Y9.5609
G01 X26.6757 Y9.5687
G01 X26.6610 Y9.5737
G01 X26.5908 Y9.5943
G01 X26.5785 Y9.5974
G01 X26.5658 Y9.5999
G01 X26.5505 Y9.6017
G01 X26.5361 Y9.6025
G01 X26.4397 Y9.6026
G01 X26.3461 Y9.6212
G01 X26.2578 Y9.6578
G01 X26.1784 Y9.7108
G01 X26.0720 Y9.8170
G01 X26.0618 Y9.8264
G01 X26.0537 Y9.8333
G01 X26.0438 Y9.8409
G01 X26.0342 Y9.8474
G01 X26.0228 Y9.8541
G01 X26.0095 Y9.8610
G01 X25.9429 Y9.8914
G01 X25.9285 Y9.8972
G01 X25.9123 Y9.9024
G01 X25.8951 Y9.9064
G01 X25.8792 Y9.9089
G01 X25.8623 Y9.9101
G01 X25.8462 Y9.9101
G01 X25.8302 Y9.9089
G01 X25.7514 Y9.8976
G01 X25.7399 Y9.8955
G01 X25.7277 Y9.8924
G01 X25.7217 Y9.8907
G01 X25.7193 Y9.8899
G01 X25.7175 Y9.8893
G01 X25.7166 Y9.8890
G01 X25.7051 Y9.8848
G01 X25.6927 Y9.8793
G01 X25.6809 Y9.8733
G01 X25.6693 Y9.8663
G01 X25.6584 Y9.8589
G01 X25.6454 Y9.8486
G01 X25.5915 Y9.8019
G01 X25.6413 Y9.7444
G01 X25.6296 Y9.7330
G01 X25.6197 Y9.7208
G01 X25.6114 Y9.7078
G01 X25.6073 Y9.7000
G01 X25.6038 Y9.6923
G01 X25.5991 Y9.6792
G01 X25.5785 Y9.6090
G01 X25.5756 Y9.5960
G01 X25.5738 Y9.5810
G01 X25.5735 Y9.5720
G01 X25.5735 Y7.7572
G01 X25.5643 Y7.7108
G01 X25.5627 Y7.7008
G01 X25.5598 Y7.6584
G01 X25.5597 Y7.6430
G01 X25.5607 Y7.6328
G01 X25.5621 Y7.6241
G01 X25.5644 Y7.6141
G01 X25.5675 Y7.6042
G01 X25.5944 Y7.5323
G01 X25.6002 Y7.5197
G01 X25.6073 Y7.5078
G01 X25.6123 Y7.5009
G01 X25.6188 Y7.4929
G01 X25.6260 Y7.4853
G01 X25.6325 Y7.4794
G01 X25.6398 Y7.4735
G01 X25.7022 Y7.4271
G01 X25.7155 Y7.4193
G01 X25.7235 Y7.4155
G01 X25.7314 Y7.4123
G01 X25.7464 Y7.4077
G01 X25.7616 Y7.4049
G01 X25.8391 Y7.3991
G01 X25.8485 Y7.3988
G01 X25.8589 Y7.3991
G01 X25.8693 Y7.4003
G01 X25.8779 Y7.4018
G01 X25.8880 Y7.4043
G01 X25.9011 Y7.4089
G01 X25.9120 Y7.4138
G01 X25.9772 Y7.4493
G01 X25.9850 Y7.4539
G01 X25.9947 Y7.4606
G01 X26.0035 Y7.4679
G01 X26.0309 Y7.4951
G01 X26.1525 Y7.5700
G01 X26.2891 Y7.6153
G01 X26.3696 Y7.6235
G01 X27.1554 Y7.6235
G01 X27.2359 Y7.6153
G01 X27.3725 Y7.5700
G01 X27.4941 Y7.4951
G01 X27.5762 Y7.4129
G01 X27.5853 Y7.4046
G01 X27.5920 Y7.3994
G01 X27.5994 Y7.3942
G01 X27.6446 Y7.3652
G01 X27.6567 Y7.3583
G01 X27.6662 Y7.3540
G01 X27.6760 Y7.3504
G01 X27.6876 Y7.3472
G01 X27.6979 Y7.3452
G01 X27.7092 Y7.3439
G01 X27.7868 Y7.3386
G01 X27.8006 Y7.3391
G01 X27.8143 Y7.3409
G01 X27.8278 Y7.3441
G01 X27.8409 Y7.3487
G01 X27.8549 Y7.3552
G01 X27.9170 Y7.3891
G01 X27.9248 Y7.3937
G01 X27.9371 Y7.4025
G01 X27.9471 Y7.4112
G01 X28.0309 Y7.4951
G01 X28.1525 Y7.5700
G01 X28.2891 Y7.6153
G01 X28.3696 Y7.6235
G01 X29.1554 Y7.6235
G01 X29.2359 Y7.6153
G01 X29.3725 Y7.5700
G01 X29.4941 Y7.4951
G01 X29.5951 Y7.3941
G01 X29.6700 Y7.2725
G01 X29.7153 Y7.1359
G01 X29.7235 Y7.0554
G01 X29.7235 Y6.5040
G01 X29.7241 Y6.4918
G01 X29.7274 Y6.4603
G01 X29.7291 Y6.4501
G01 X29.7315 Y6.4402
G01 X29.7346 Y6.4304
G01 X29.7392 Y6.4192
G01 X29.7434 Y6.4108
G01 X29.7769 Y6.3495
G01 X29.7824 Y6.3403
G01 X29.7911 Y6.3283
G01 X29.8007 Y6.3177
G01 X30.5849 Y5.5337
G01 X30.6120 Y5.5116
G01 X30.6194 Y5.5060
G01 X30.6310 Y5.4987
G01 X30.6432 Y5.4925
G01 X30.6578 Y5.4871
G01 X30.7272 Y5.4667
G01 X30.7360 Y5.4644
G01 X30.7458 Y5.4626
G01 X30.7557 Y5.4614
G01 X30.7665 Y5.4610
G01 X38.7585 Y5.4610
G01 X38.7687 Y5.4614
G01 X38.8007 Y5.4648
G01 X38.8108 Y5.4663
G01 X38.8256 Y5.4700
G01 X38.8402 Y5.4753
G01 X38.8517 Y5.4809
G01 X38.9180 Y5.5173
G01 X38.9317 Y5.5266
G01 X38.9382 Y5.5320
G01 X38.9448 Y5.5382
G01 X41.7637 Y8.3572
G01 X41.7711 Y8.3655
G01 X41.7931 Y8.3932
G01 X41.8006 Y8.4047
G01 X41.8068 Y8.4168
G01 X41.8107 Y8.4263
G01 X41.8136 Y8.4352
G01 X41.8340 Y8.5045
G01 X41.8372 Y8.5193
G01 X41.8386 Y8.5307
G01 X41.8390 Y8.5415
G01 X41.8390 Y10.7095
G01 X41.8385 Y10.7258
G01 X41.8377 Y10.7346
G01 X41.8351 Y10.7497
G01 X41.8313 Y10.7629
G01 X41.8055 Y10.8325
G01 X41.8004 Y10.8444
G01 X41.7928 Y10.8582
G01 X41.7838 Y10.8707
G01 X41.7733 Y10.8825
G01 X41.7618 Y10.8928
G01 X41.6960 Y10.9419
G01 X41.6888 Y10.9463
G01 X41.6810 Y10.9505
G01 X41.6733 Y10.9541
G01 X41.6651 Y10.9573
G01 X41.6502 Y10.9616
G01 X41.6416 Y10.9633
G01 X41.6332 Y10.9644
G01 X41.5581 Y10.9698
G01 X41.5497 Y10.9701
G01 X41.5408 Y10.9699
G01 X41.5271 Y10.9684
G01 X41.5154 Y10.9660
G01 X41.5021 Y10.9620
G01 X41.4893 Y10.9566
G01 X41.4162 Y10.9169
G01 X41.4036 Y10.9084
G01 X41.3934 Y10.8998
G01 X40.6201 Y10.1267
G01 X40.5282 Y10.0653
G01 X40.4261 Y10.0230
G01 X40.3178 Y10.0015
G01 X39.4473 Y10.0015
G01 X39.4344 Y10.0009
G01 X39.4222 Y9.9992
G01 X39.3619 Y9.9856
G01 X39.3474 Y9.9814
G01 X39.3363 Y9.9769
G01 X39.3259 Y9.9717
G01 X39.3144 Y9.9646
G01 X39.3049 Y9.9573
G01 X39.2485 Y9.9068
G01 X39.2397 Y9.8981
G01 X39.2320 Y9.8892
G01 X39.2253 Y9.8799
G01 X39.1951 Y9.8309
G01 X39.0941 Y9.7299
G01 X38.9725 Y9.6550
G01 X38.8359 Y9.6097
G01 X38.7554 Y9.6015
G01 X38.0301 Y9.6013
G01 X38.0166 Y9.5998
G01 X38.0051 Y9.5976
G01 X37.9302 Y9.5768
G01 X37.9193 Y9.5727
G01 X37.9086 Y9.5675
G01 X37.8986 Y9.5616
G01 X37.8889 Y9.5547
G01 X37.8812 Y9.5483
G01 X37.8739 Y9.5413
G01 X37.8195 Y9.4824
G01 X37.8123 Y9.4729
G01 X37.8057 Y9.4625
G01 X37.8009 Y9.4533
G01 X37.7963 Y9.4423
G01 X37.7930 Y9.4324
G01 X37.7901 Y9.4205
G01 X37.7771 Y9.3483
G01 X37.7754 Y9.3345
G01 X37.7752 Y9.3191
G01 X37.7764 Y9.3053
G01 X37.7795 Y9.2899
G01 X37.7836 Y9.2767
G01 X37.8126 Y9.2066
G01 X37.8165 Y9.1980
G01 X37.8207 Y9.1902
G01 X37.8262 Y9.1814
G01 X37.8324 Y9.1731
G01 X37.8392 Y9.1652
G01 X37.8465 Y9.1578
G01 X37.8544 Y9.1511
G01 X37.8876 Y9.1277
G01 X37.8978 Y9.1182
G01 X37.9100 Y9.1090
G01 X37.9187 Y9.1036
G01 X37.9278 Y9.0989
G01 X38.0562 Y9.0197
G01 X38.1572 Y8.9187
G01 X38.2321 Y8.7973
G01 X38.2773 Y8.6608
G01 X38.2855 Y8.5804
G01 X38.2855 Y8.4520
G01 X38.0645 Y8.4520
G01 X38.0643 Y8.5443
G01 X38.0625 Y8.5766
G01 X38.0582 Y8.6067
G01 X38.0565 Y8.6159
G01 X38.0474 Y8.6515
G01 X38.0345 Y8.6874
G01 X38.0180 Y8.7219
G01 X38.0020 Y8.7489
G01 X37.9964 Y8.7575
G01 X37.9755 Y8.7853
G01 X37.9551 Y8.8079
G01 X37.9486 Y8.8146
G01 X37.9214 Y8.8392
G01 X37.8962 Y8.8580
G01 X37.8864 Y8.8645
G01 X37.8564 Y8.8821
G01 X37.8280 Y8.8956
G01 X37.8185 Y8.8995
G01 X37.7922 Y8.9089
G01 X37.7824 Y8.9118
G01 X37.7519 Y8.9193
G01 X37.7270 Y8.9232
G01 X37.7270 Y9.2368
G01 X37.7413 Y9.2567
G01 X37.7475 Y9.2669
G01 X37.7543 Y9.2811
G01 X37.7590 Y9.2941
G01 X37.7627 Y9.3091
G01 X37.7753 Y9.3797
G01 X37.7768 Y9.3916
G01 X37.7773 Y9.4020
G01 X37.7769 Y9.4142
G01 X37.7757 Y9.4246
G01 X37.7738 Y9.4348
G01 X37.7706 Y9.4463
G01 X37.7667 Y9.4569
G01 X37.7398 Y9.5214
G01 X37.7351 Y9.5317
G01 X37.7281 Y9.5437
G01 X37.7212 Y9.5535
G01 X37.7122 Y9.5640
G01 X37.7033 Y9.5725
G01 X37.6912 Y9.5820
G01 X37.6295 Y9.6247
G01 X37.6167 Y9.6321
G01 X37.6046 Y9.6375
G01 X37.5525 Y9.6550
G01 X37.4309 Y9.7299
G01 X37.3299 Y9.8309
G01 X37.2506 Y9.9595
G01 X37.2435 Y9.9726
G01 X37.2380 Y9.9808
G01 X37.2319 Y9.9887
G01 X37.1852 Y10.0426
G01 X37.1757 Y10.0524
G01 X37.1667 Y10.0601
G01 X37.1584 Y10.0661
G01 X37.1481 Y10.0725
G01 X37.1376 Y10.0778
G01 X37.1295 Y10.0811
G01 X37.1216 Y10.0838
G01 X37.0481 Y10.1059
G01 X37.0379 Y10.1081
G01 X37.0276 Y10.1095
G01 X37.0173 Y10.1102
G01 X37.0084 Y10.1102
G01 X36.9946 Y10.1090
G01 X36.9810 Y10.1064
G01 X36.9056 Y10.0850
G01 X36.8958 Y10.0816
G01 X36.8877 Y10.0782
G01 X36.8801 Y10.0744
G01 X36.8711 Y10.0691
G01 X36.8584 Y10.0599
G01 X36.8519 Y10.0544
G01 X36.8456 Y10.0482
G01 X36.7954 Y9.9913
G01 X36.7877 Y9.9817
G01 X36.7811 Y9.9720
G01 X36.7744 Y9.9596
G01 X36.6951 Y9.8309
G01 X36.5941 Y9.7299
G01 X36.4725 Y9.6550
G01 X36.3359 Y9.6097
G01 X36.2554 Y9.6015
G01 X35.9644 Y9.6015
G01 X35.9533 Y9.6010
G01 X35.9432 Y9.5998
G01 X35.9275 Y9.5965
G01 X35.8632 Y9.5788
G01 X35.8522 Y9.5752
G01 X35.8412 Y9.5706
G01 X35.8294 Y9.5642
G01 X35.8197 Y9.5578
G01 X35.8091 Y9.5495
G01 X35.7995 Y9.5402
G01 X35.7483 Y9.4850
G01 X35.7430 Y9.4785
G01 X35.7378 Y9.4713
G01 X35.7299 Y9.4581
G01 X35.7261 Y9.4501
G01 X35.7228 Y9.4423
G01 X35.7200 Y9.4339
G01 X35.7178 Y9.4257
G01 X35.7037 Y9.3483
G01 X35.7019 Y9.3330
G01 X35.7018 Y9.3191
G01 X35.7033 Y9.3035
G01 X35.7065 Y9.2884
G01 X35.7090 Y9.2799
G01 X35.7124 Y9.2711
G01 X35.7402 Y9.2042
G01 X35.7473 Y9.1902
G01 X35.7528 Y9.1814
G01 X35.7590 Y9.1731
G01 X35.7657 Y9.1652
G01 X35.7731 Y9.1578
G01 X35.7850 Y9.1480
G01 X35.8114 Y9.1296
G01 X35.8204 Y9.1209
G01 X35.8311 Y9.1123
G01 X35.8396 Y9.1066
G01 X35.8530 Y9.0994
G01 X35.9816 Y9.0201
G01 X36.0856 Y8.9160
G01 X36.1194 Y8.8770
G01 X36.1282 Y8.8684
G01 X36.1363 Y8.8618
G01 X36.1490 Y8.8532
G01 X36.1612 Y8.8466
G01 X36.2293 Y8.8170
G01 X36.2381 Y8.8135
G01 X36.2514 Y8.8095
G01 X36.2668 Y8.8066
G01 X36.2822 Y8.8054
G01 X36.2979 Y8.8060
G01 X36.3073 Y8.8072
G01 X36.3821 Y8.8195
G01 X36.3974 Y8.8236
G01 X36.4053 Y8.8265
G01 X36.4134 Y8.8300
G01 X36.4270 Y8.8373
G01 X36.4344 Y8.8422
G01 X36.4411 Y8.8473
G01 X36.4981 Y8.8980
G01 X36.5079 Y8.9078
G01 X36.5145 Y8.9154
G01 X36.6188 Y9.0197
G01 X36.7402 Y9.0946
G01 X36.8767 Y9.1398
G01 X36.9480 Y9.1471
G01 X36.9480 Y8.9232
G01 X36.9216 Y8.9190
G01 X36.8860 Y8.9099
G01 X36.8518 Y8.8977
G01 X36.8217 Y8.8837
G01 X36.8104 Y8.8776
G01 X36.7873 Y8.8637
G01 X36.7800 Y8.8589
G01 X36.7522 Y8.8380
G01 X36.7277 Y8.8159
G01 X36.7216 Y8.8098
G01 X36.7034 Y8.7898
G01 X36.6953 Y8.7799
G01 X36.6756 Y8.7531
G01 X36.6570 Y8.7219
G01 X36.6425 Y8.6920
G01 X36.6377 Y8.6802
G01 X36.6270 Y8.6497
G01 X36.6185 Y8.6159
G01 X36.6168 Y8.6067
G01 X36.6125 Y8.5766
G01 X36.6105 Y8.5384
G01 X36.6105 Y7.5875
G01 X36.6125 Y7.5488
G01 X36.6178 Y7.5124
G01 X36.6270 Y7.4753
G01 X36.6377 Y7.4448
G01 X36.6419 Y7.4345
G01 X36.6534 Y7.4100
G01 X36.6599 Y7.3979
G01 X36.6776 Y7.3691
G01 X36.6953 Y7.3451
G01 X36.7017 Y7.3371
G01 X36.7253 Y7.3114
G01 X36.7536 Y7.2858
G01 X36.7828 Y7.2642
G01 X36.8156 Y7.2445
G01 X36.8501 Y7.2280
G01 X36.8846 Y7.2155
G01 X36.8926 Y7.2132
G01 X36.9216 Y7.2060
G01 X36.9480 Y7.2018
G01 X36.9480 Y6.9779
G01 X36.8767 Y6.9852
G01 X36.7402 Y7.0304
G01 X36.6188 Y7.1053
G01 X36.5145 Y7.2096
G01 X36.4851 Y7.2436
G01 X36.4787 Y7.2505
G01 X36.4697 Y7.2589
G01 X36.4587 Y7.2672
G01 X36.4485 Y7.2736
G01 X36.4376 Y7.2792
G01 X36.3639 Y7.3110
G01 X36.3525 Y7.3146
G01 X36.3406 Y7.3173
G01 X36.3287 Y7.3190
G01 X36.3164 Y7.3196
G01 X36.3061 Y7.3193
G01 X36.2957 Y7.3182
G01 X36.2243 Y7.3065
G01 X36.2150 Y7.3047
G01 X36.2032 Y7.3014
G01 X36.1920 Y7.2972
G01 X36.1809 Y7.2919
G01 X36.1720 Y7.2866
G01 X36.1634 Y7.2808
G01 X36.1553 Y7.2742
G01 X36.1010 Y7.2255
G01 X36.0927 Y7.2172
G01 X36.0860 Y7.2095
G01 X35.9815 Y7.1049
G01 X35.8600 Y7.0300
G01 X35.7234 Y6.9847
G01 X35.6429 Y6.9765
G01 X34.8821 Y6.9765
G01 X34.8016 Y6.9847
G01 X34.6650 Y7.0300
G01 X34.5434 Y7.1049
G01 X34.4426 Y7.2058
G01 X34.4346 Y7.2132
G01 X34.4282 Y7.2183
G01 X34.4201 Y7.2240
G01 X34.3742 Y7.2535
G01 X34.3638 Y7.2595
G01 X34.3525 Y7.2647
G01 X34.3427 Y7.2683
G01 X34.3327 Y7.2712
G01 X34.3209 Y7.2735
G01 X34.3095 Y7.2748
G01 X34.2339 Y7.2801
G01 X34.2200 Y7.2798
G01 X34.2063 Y7.2781
G01 X34.1928 Y7.2751
G01 X34.1796 Y7.2708
G01 X34.1715 Y7.2673
G01 X34.1639 Y7.2636
G01 X34.0983 Y7.2277
G01 X34.0858 Y7.2195
G01 X34.0755 Y7.2111
G01 X34.0316 Y7.1674
G01 X33.9100 Y7.0925
G01 X33.7734 Y7.0472
G01 X33.6929 Y7.0390
G01 X32.9071 Y7.0390
G01 X32.8266 Y7.0472
G01 X32.6900 Y7.0925
G01 X32.5684 Y7.1674
G01 X32.4863 Y7.2496
G01 X32.4772 Y7.2579
G01 X32.4705 Y7.2631
G01 X32.4631 Y7.2683
G01 X32.4179 Y7.2973
G01 X32.4058 Y7.3042
G01 X32.3963 Y7.3085
G01 X32.3850 Y7.3126
G01 X32.3749 Y7.3153
G01 X32.3646 Y7.3173
G01 X32.3533 Y7.3186
G01 X32.2757 Y7.3239
G01 X32.2619 Y7.3234
G01 X32.2482 Y7.3216
G01 X32.2347 Y7.3184
G01 X32.2216 Y7.3138
G01 X32.2076 Y7.3073
G01 X32.1455 Y7.2734
G01 X32.1379 Y7.2689
G01 X32.1255 Y7.2601
G01 X32.1154 Y7.2513
G01 X32.0316 Y7.1674
G01 X31.9100 Y7.0925
G01 X31.7734 Y7.0472
G01 X31.6929 Y7.0390
G01 X30.9071 Y7.0390
G01 X30.8266 Y7.0472
G01 X30.6900 Y7.0925
G01 X30.5684 Y7.1674
G01 X30.4674 Y7.2684
G01 X30.3925 Y7.3900
G01 X30.3472 Y7.5266
G01 X30.3390 Y7.6071
G01 X30.3391 Y8.6054
G01 X30.3386 Y8.6156
G01 X30.3373 Y8.6258
G01 X30.3349 Y8.6374
G01 X30.3269 Y8.6877
G01 X30.3251 Y8.6959
G01 X30.3227 Y8.7043
G01 X30.3192 Y8.7140
G01 X30.3143 Y8.7248
G01 X30.3093 Y8.7339
G01 X30.3026 Y8.7440
G01 X30.2968 Y8.7514
G01 X30.2520 Y8.8050
G01 X30.2437 Y8.8141
G01 X30.2350 Y8.8221
G01 X30.2260 Y8.8291
G01 X30.1549 Y8.8767
G01 X29.8623 Y9.1692
G01 X29.8514 Y9.1795
G01 X29.8435 Y9.1861
G01 X29.8350 Y9.1921
G01 X29.8262 Y9.1975
G01 X29.8161 Y9.2026
G01 X29.7471 Y9.2340
G01 X29.7388 Y9.2370
G01 X29.7307 Y9.2395
G01 X29.7153 Y9.2427
G01 X29.7068 Y9.2437
G01 X29.6980 Y9.2442
G01 X29.6826 Y9.2437
G01 X29.6013 Y9.2321
G01 X29.5863 Y9.2286
G01 X29.5714 Y9.2234
G01 X29.5576 Y9.2166
G01 X29.5443 Y9.2082
G01 X29.5341 Y9.2002
G01 X29.4781 Y9.1515
G01 X29.4684 Y9.1416
G01 X29.4597 Y9.1308
G01 X29.4539 Y9.1222
G01 X29.4488 Y9.1131
G01 X29.4444 Y9.1037
G01 X29.4407 Y9.0940
G01 X29.4185 Y9.0190
G01 X29.4162 Y9.0093
G01 X29.4146 Y8.9994
G01 X29.4138 Y8.9910
G01 X29.4135 Y8.9820
G01 X29.4135 Y8.6073
G01 X29.4122 Y8.5901
G01 X29.3752 Y8.4629
G01 X29.3095 Y8.3518
G01 X29.2182 Y8.2605
G01 X29.1071 Y8.1948
G01 X28.9799 Y8.1578
