(G-CODE GENERATED BY FLATCAM v8.994 - www.flatcam.org - Version Date: 2020/11/7)

(Name: laser_com_v1-PTH.drl_cnc)
(Type: G-code from Geometry)
(Units: MM)

(Created on Monday, 07 October 2024 at 22:03)

(This preprocessor is the default preprocessor used by FlatCAM.)
(It is made to work with MACH3 compatible motion controllers.)


(TOOLS DIAMETER: )
(Tool: 1 -> Dia: 0.8000999999999999)
(Tool: 2 -> Dia: 0.889)
(Tool: 3 -> Dia: 1.0007599999999999)
(Tool: 4 -> Dia: 1.56972)
(Tool: 5 -> Dia: 2.9997399999999996)

(FEEDRATE Z: )
(Tool: 1 -> Feedrate: 300.0)
(Tool: 2 -> Feedrate: 300.0)
(Tool: 3 -> Feedrate: 300.0)
(Tool: 4 -> Feedrate: 300.0)
(Tool: 5 -> Feedrate: 300.0)

(FEEDRATE RAPIDS: )
(Tool: 1 -> Feedrate Rapids: 1500)
(Tool: 2 -> Feedrate Rapids: 1500)
(Tool: 3 -> Feedrate Rapids: 1500)
(Tool: 4 -> Feedrate Rapids: 1500)
(Tool: 5 -> Feedrate Rapids: 1500)

(Z_CUT: )
(Tool: 1 -> Z_Cut: -2.2)
(Tool: 2 -> Z_Cut: -2.2)
(Tool: 3 -> Z_Cut: -2.2)
(Tool: 4 -> Z_Cut: -2.2)
(Tool: 5 -> Z_Cut: -2.2)

(Tools Offset: )
(Tool: 1 -> Offset Z: 0.0)
(Tool: 2 -> Offset Z: 0.0)
(Tool: 3 -> Offset Z: 0.0)
(Tool: 4 -> Offset Z: 0.0)
(Tool: 5 -> Offset Z: 0.0)

(Z_MOVE: )
(Tool: 1 -> Z_Move: 2.0)
(Tool: 2 -> Z_Move: 2.0)
(Tool: 3 -> Z_Move: 2.0)
(Tool: 4 -> Z_Move: 2.0)
(Tool: 5 -> Z_Move: 2.0)

(Z Toolchange: 15.0 mm)
(X,Y Toolchange: 0.0000, 0.0000 mm)
(Z Start: None mm)
(Z End: 5.0 mm)
(X,Y End: None mm)
(Steps per circle: 64)
(Preprocessor Excellon: default)

(X range:    2.4007 ...   59.4986  mm)
(Y range:    3.1003 ...   59.5010  mm)

(Spindle Speed: 24000 RPM)
G21
G90
G94

G01 F300.00

M5
G00 Z15.0000
T1
G00 X0.0000 Y0.0000                
M6
(MSG, Change to Tool Dia = 0.8001 ||| Total drills for tool T1 = 36)
M0
G00 Z15.0000

G01 F300.00
M03 S24000
G00 X14.9000 Y22.2989
G01 Z-2.2000
G01 Z0
G00 Z2.0000
G00 X4.9991 Y58.0012
G01 Z-2.2000
G01 Z0
G00 Z2.0000
G00 X15.6493 Y37.0995
G01 Z-2.2000
G01 Z0
G00 Z2.0000
G00 X23.8002 Y27.4373
G01 Z-2.2000
G01 Z0
G00 Z2.0000
G00 X25.4994 Y23.0000
G01 Z-2.2000
G01 Z0
G00 Z2.0000
G00 X30.3000 Y26.7998
G01 Z-2.2000
G01 Z0
G00 Z2.0000
G00 X36.7008 Y27.2011
G01 Z-2.2000
G01 Z0
G00 Z2.0000
G00 X40.8995 Y25.1996
G01 Z-2.2000
G01 Z0
G00 Z2.0000
G00 X49.7666 Y33.3759
G01 Z-2.2000
G01 Z0
G00 Z2.0000
G00 X49.7666 Y35.9159
G01 Z-2.2000
G01 Z0
G00 Z2.0000
G00 X45.9998 Y40.8003
G01 Z-2.2000
G01 Z0
G00 Z2.0000
G00 X44.6993 Y45.6009
G01 Z-2.2000
G01 Z0
G00 Z2.0000
G00 X41.9002 Y39.2991
G01 Z-2.2000
G01 Z0
G00 Z2.0000
G00 X37.2012 Y41.4988
G01 Z-2.2000
G01 Z0
G00 Z2.0000
G00 X38.1994 Y44.9989
G01 Z-2.2000
G01 Z0
G00 Z2.0000
G00 X32.4743 Y55.1538
G01 Z-2.2000
G01 Z0
G00 Z2.0000
G00 X37.0437 Y56.0428
G01 Z-2.2000
G01 Z0
G00 Z2.0000
G00 X38.0597 Y54.2623
G01 Z-2.2000
G01 Z0
G00 Z2.0000
G00 X39.0757 Y56.0428
G01 Z-2.2000
G01 Z0
G00 Z2.0000
G00 X41.1077 Y56.0428
G01 Z-2.2000
G01 Z0
G00 Z2.0000
G00 X40.0917 Y54.2623
G01 Z-2.2000
G01 Z0
G00 Z2.0000
G00 X42.1237 Y54.2623
G01 Z-2.2000
G01 Z0
G00 Z2.0000
G00 X43.1397 Y56.0428
G01 Z-2.2000
G01 Z0
G00 Z2.0000
G00 X44.1557 Y54.2623
G01 Z-2.2000
G01 Z0
G00 Z2.0000
G00 X48.7328 Y55.1538
G01 Z-2.2000
G01 Z0
G00 Z2.0000
G00 X57.9987 Y58.0012
G01 Z-2.2000
G01 Z0
G00 Z2.0000
G00 X54.3996 Y41.9001
G01 Z-2.2000
G01 Z0
G00 Z2.0000
G00 X54.8009 Y22.6012
G01 Z-2.2000
G01 Z0
G00 Z2.0000
G00 X57.9987 Y4.9990
G01 Z-2.2000
G01 Z0
G00 Z2.0000
G00 X44.0008 Y6.2995
G01 Z-2.2000
G01 Z0
G00 Z2.0000
G00 X40.6988 Y8.9004
G01 Z-2.2000
G01 Z0
G00 Z2.0000
G00 X32.5987 Y3.5004
G01 Z-2.2000
G01 Z0
G00 Z2.0000
G00 X32.9010 Y15.9997
G01 Z-2.2000
G01 Z0
G00 Z2.0000
G00 X19.5127 Y14.0617
G01 Z-2.2000
G01 Z0
G00 Z2.0000
G00 X19.5127 Y11.5217
G01 Z-2.2000
G01 Z0
G00 Z2.0000
G00 X4.9991 Y4.9990
G01 Z-2.2000
G01 Z0
G00 Z2.0000
M05
G00 Z5.00


