(G-CODE GENERATED BY FLATCAM v8.994 - www.flatcam.org - Version Date: 2020/11/7)

(Name: laser_com_v1-Edge_Cuts.gbr_cutout_cnc)
(Type: G-code from Geometry)
(Units: MM)

(Created on Monday, 07 October 2024 at 22:00)

(This preprocessor is the default preprocessor used by FlatCAM.)
(It is made to work with MACH3 compatible motion controllers.)

(TOOL DIAMETER: 2.0 mm)
(Feedrate_XY: 200.0 mm/min)
(Feedrate_Z: 200.0 mm/min)
(Feedrate rapids 1500.0 mm/min)

(Z_Cut: -2.0 mm)
(DepthPerCut: 1.0 mm <=>2 passes)
(Z_Move: 2.0 mm)
(Z Start: None mm)
(Z End: 15.0 mm)
(X,Y End: None mm)
(Steps per circle: 64)
(Preprocessor Geometry: default)

(X range:   -0.4250 ...   62.8250  mm)
(Y range:   -0.0250 ...   63.3250  mm)

(Spindle Speed: 24000.0 RPM)
G21
G90
G94

G01 F200.00

M5
G00 Z15.0000
G00 X0.0000 Y0.0000
T1
M6    
(MSG, Change to Tool Dia = 2.0000)
M0
G00 Z15.0000

M03 S24000.0
G01 F200.00
G00 X29.3000 Y-0.0250
G01 F200.00
G01 Z-1.0000
G01 F200.00
G01 X0.6750 Y-0.0250
G01 X0.5672 Y-0.0197
G01 X0.4604 Y-0.0039
G01 X0.3557 Y0.0224
G01 X0.2540 Y0.0587
G01 X0.1565 Y0.1049
G01 X0.0639 Y0.1604
G01 X-0.0228 Y0.2247
G01 X-0.1028 Y0.2972
G01 X-0.1753 Y0.3772
G01 X-0.2396 Y0.4639
G01 X-0.2951 Y0.5565
G01 X-0.3413 Y0.6540
G01 X-0.3776 Y0.7557
G01 X-0.4039 Y0.8604
G01 X-0.4197 Y0.9672
G01 X-0.4250 Y1.0750
G01 X-0.4250 Y62.2250
G01 X-0.4197 Y62.3328
G01 X-0.4039 Y62.4396
G01 X-0.3776 Y62.5443
G01 X-0.3413 Y62.6460
G01 X-0.2951 Y62.7435
G01 X-0.2396 Y62.8361
G01 X-0.1753 Y62.9228
G01 X-0.1028 Y63.0028
G01 X-0.0228 Y63.0753
G01 X0.0639 Y63.1396
G01 X0.1565 Y63.1951
G01 X0.2540 Y63.2413
G01 X0.3557 Y63.2776
G01 X0.4604 Y63.3039
G01 X0.5672 Y63.3197
G01 X0.6750 Y63.3250
G01 X29.3000 Y63.3250
G00 X29.3000 Y63.3250
G01 F200.00
G01 Z-2.0000
G01 F200.00
G01 X0.6750 Y63.3250
G01 X0.5672 Y63.3197
G01 X0.4604 Y63.3039
G01 X0.3557 Y63.2776
G01 X0.2540 Y63.2413
G01 X0.1565 Y63.1951
G01 X0.0639 Y63.1396
G01 X-0.0228 Y63.0753
G01 X-0.1028 Y63.0028
G01 X-0.1753 Y62.9228
G01 X-0.2396 Y62.8361
G01 X-0.2951 Y62.7435
G01 X-0.3413 Y62.6460
G01 X-0.3776 Y62.5443
G01 X-0.4039 Y62.4396
G01 X-0.4197 Y62.3328
G01 X-0.4250 Y62.2250
G01 X-0.4250 Y1.0750
G01 X-0.4197 Y0.9672
G01 X-0.4039 Y0.8604
G01 X-0.3776 Y0.7557
G01 X-0.3413 Y0.6540
G01 X-0.2951 Y0.5565
G01 X-0.2396 Y0.4639
G01 X-0.1753 Y0.3772
G01 X-0.1028 Y0.2972
G01 X-0.0228 Y0.2247
G01 X0.0639 Y0.1604
G01 X0.1565 Y0.1049
G01 X0.2540 Y0.0587
G01 X0.3557 Y0.0224
G01 X0.4604 Y-0.0039
G01 X0.5672 Y-0.0197
G01 X0.6750 Y-0.0250
G01 X29.3000 Y-0.0250
G00 Z2.0000
G00 X33.3000 Y63.3250
G01 F200.00
G01 Z-1.0000
G01 F200.00
G01 X61.7250 Y63.3250
G01 X61.8328 Y63.3197
G01 X61.9396 Y63.3039
G01 X62.0443 Y63.2776
G01 X62.1460 Y63.2413
G01 X62.2435 Y63.1951
G01 X62.3361 Y63.1396
G01 X62.4228 Y63.0753
G01 X62.5028 Y63.0028
G01 X62.5753 Y62.9228
G01 X62.6396 Y62.8361
G01 X62.6951 Y62.7435
G01 X62.7413 Y62.6460
G01 X62.7776 Y62.5443
G01 X62.8039 Y62.4396
G01 X62.8197 Y62.3328
G01 X62.8250 Y62.2250
G01 X62.8250 Y1.0750
G01 X62.8197 Y0.9672
G01 X62.8039 Y0.8604
G01 X62.7776 Y0.7557
G01 X62.7413 Y0.6540
G01 X62.6951 Y0.5565
G01 X62.6396 Y0.4639
G01 X62.5753 Y0.3772
G01 X62.5028 Y0.2972
G01 X62.4228 Y0.2247
G01 X62.3361 Y0.1604
G01 X62.2435 Y0.1049
G01 X62.1460 Y0.0587
G01 X62.0443 Y0.0224
G01 X61.9396 Y-0.0039
G01 X61.8328 Y-0.0197
G01 X61.7250 Y-0.0250
G01 X33.3000 Y-0.0250
G00 X33.3000 Y-0.0250
G01 F200.00
G01 Z-2.0000
G01 F200.00
G01 X61.7250 Y-0.0250
G01 X61.8328 Y-0.0197
G01 X61.9396 Y-0.0039
G01 X62.0443 Y0.0224
G01 X62.1460 Y0.0587
G01 X62.2435 Y0.1049
G01 X62.3361 Y0.1604
G01 X62.4228 Y0.2247
G01 X62.5028 Y0.2972
G01 X62.5753 Y0.3772
G01 X62.6396 Y0.4639
G01 X62.6951 Y0.5565
G01 X62.7413 Y0.6540
G01 X62.7776 Y0.7557
G01 X62.8039 Y0.8604
G01 X62.8197 Y0.9672
G01 X62.8250 Y1.0750
G01 X62.8250 Y62.2250
G01 X62.8197 Y62.3328
G01 X62.8039 Y62.4396
G01 X62.7776 Y62.5443
G01 X62.7413 Y62.6460
G01 X62.6951 Y62.7435
G01 X62.6396 Y62.8361
G01 X62.5753 Y62.9228
G01 X62.5028 Y63.0028
G01 X62.4228 Y63.0753
G01 X62.3361 Y63.1396
G01 X62.2435 Y63.1951
G01 X62.1460 Y63.2413
G01 X62.0443 Y63.2776
G01 X61.9396 Y63.3039
G01 X61.8328 Y63.3197
G01 X61.7250 Y63.3250
G01 X33.3000 Y63.3250
G00 Z2.0000
M05
G00 Z2.0000
G00 Z15.00


